( pcb2gcode 1.1.4 )

G94     ( Inches per minute feed rate. )
G20     ( Units == INCHES.             )
G90     ( Absolute coordinates.        )
S8000  ( RPM spindle speed.           )
M3      ( Spindle on clockwise.        )

G64 P0.00500 ( set maximum deviation from commanded toolpath )

G04 P0 ( dwell for no time -- G64 should not smooth over this point )
G00 Z0.10000 ( retract )

G00 X1.10700 Y-0.11800 ( rapid move to begin. )
G01 Z-0.00500 F3.50000 ( plunge. )
G04 P0 ( dwell for no time -- G64 should not smooth over this point )
X1.10700 Y-0.11800
X1.10700 Y-0.17700
X1.04200 Y-0.17700
X1.04200 Y-0.11200
X1.10700 Y-0.11200
X1.10700 Y-0.11800
G04 P0 ( dwell for no time -- G64 should not smooth over this point )
G00 Z0.10000 ( retract )

G00 X0.63200 Y-0.15800 ( rapid move to begin. )
G01 Z-0.00500 F3.50000 ( plunge. )
G04 P0 ( dwell for no time -- G64 should not smooth over this point )
X0.63200 Y-0.15800
X0.63400 Y-0.15800
X0.63400 Y-0.15900
X0.63500 Y-0.15900
X0.63500 Y-0.16100
X0.63600 Y-0.16100
X0.63600 Y-0.16200
X0.63700 Y-0.16200
X0.63700 Y-0.16300
X0.63800 Y-0.16300
X0.63800 Y-0.16500
X0.63900 Y-0.16500
X0.63900 Y-0.16600
X0.64000 Y-0.16600
X0.64000 Y-0.16900
X0.64100 Y-0.16900
X0.64100 Y-0.17400
X0.64200 Y-0.17400
X0.64200 Y-0.19500
X0.64100 Y-0.19500
X0.64100 Y-0.20000
X0.64000 Y-0.20000
X0.64000 Y-0.20300
X0.63900 Y-0.20300
X0.63900 Y-0.20400
X0.63800 Y-0.20400
X0.63800 Y-0.20600
X0.63700 Y-0.20600
X0.63700 Y-0.20700
X0.63600 Y-0.20700
X0.63600 Y-0.20800
X0.63500 Y-0.20800
X0.63500 Y-0.21000
X0.63400 Y-0.21000
X0.63400 Y-0.21100
X0.63200 Y-0.21100
X0.63200 Y-0.21200
X0.63100 Y-0.21200
X0.63100 Y-0.21300
X0.62900 Y-0.21300
X0.62900 Y-0.21400
X0.62700 Y-0.21400
X0.62700 Y-0.21500
X0.62600 Y-0.21500
X0.62600 Y-0.21600
X0.62100 Y-0.21600
X0.62100 Y-0.21700
X0.59800 Y-0.21700
X0.59800 Y-0.21600
X0.59300 Y-0.21600
X0.59300 Y-0.21500
X0.59200 Y-0.21500
X0.59200 Y-0.21400
X0.59000 Y-0.21400
X0.59000 Y-0.21300
X0.58800 Y-0.21300
X0.58800 Y-0.21200
X0.58700 Y-0.21200
X0.58700 Y-0.21100
X0.58500 Y-0.21100
X0.58500 Y-0.21000
X0.58400 Y-0.21000
X0.58400 Y-0.20800
X0.58300 Y-0.20800
X0.58300 Y-0.20700
X0.58200 Y-0.20700
X0.58200 Y-0.20600
X0.58100 Y-0.20600
X0.58100 Y-0.20400
X0.58000 Y-0.20400
X0.58000 Y-0.20300
X0.57900 Y-0.20300
X0.57900 Y-0.20000
X0.57800 Y-0.20000
X0.57800 Y-0.19500
X0.57700 Y-0.19500
X0.57700 Y-0.17400
X0.57800 Y-0.17400
X0.57800 Y-0.16900
X0.57900 Y-0.16900
X0.57900 Y-0.16600
X0.58000 Y-0.16600
X0.58000 Y-0.16500
X0.58100 Y-0.16500
X0.58100 Y-0.16300
X0.58200 Y-0.16300
X0.58200 Y-0.16200
X0.58300 Y-0.16200
X0.58300 Y-0.16100
X0.58400 Y-0.16100
X0.58400 Y-0.15900
X0.58500 Y-0.15900
X0.58500 Y-0.15800
X0.58700 Y-0.15800
X0.58700 Y-0.15700
X0.58800 Y-0.15700
X0.58800 Y-0.15600
X0.59000 Y-0.15600
X0.59000 Y-0.15500
X0.59200 Y-0.15500
X0.59200 Y-0.15400
X0.59300 Y-0.15400
X0.59300 Y-0.15300
X0.59800 Y-0.15300
X0.59800 Y-0.15200
X0.62100 Y-0.15200
X0.62100 Y-0.15300
X0.62600 Y-0.15300
X0.62600 Y-0.15400
X0.62700 Y-0.15400
X0.62700 Y-0.15500
X0.62900 Y-0.15500
X0.62900 Y-0.15600
X0.63100 Y-0.15600
X0.63100 Y-0.15700
X0.63200 Y-0.15700
X0.63200 Y-0.15800
G04 P0 ( dwell for no time -- G64 should not smooth over this point )
G00 Z0.10000 ( retract )

G00 X1.09700 Y-0.21800 ( rapid move to begin. )
G01 Z-0.00500 F3.50000 ( plunge. )
G04 P0 ( dwell for no time -- G64 should not smooth over this point )
X1.09700 Y-0.21800
X1.09900 Y-0.21800
X1.09900 Y-0.21900
X1.10000 Y-0.21900
X1.10000 Y-0.22100
X1.10100 Y-0.22100
X1.10100 Y-0.22200
X1.10200 Y-0.22200
X1.10200 Y-0.22300
X1.10300 Y-0.22300
X1.10300 Y-0.22500
X1.10400 Y-0.22500
X1.10400 Y-0.22600
X1.10500 Y-0.22600
X1.10500 Y-0.22900
X1.10600 Y-0.22900
X1.10600 Y-0.23400
X1.10700 Y-0.23400
X1.10700 Y-0.25500
X1.10600 Y-0.25500
X1.10600 Y-0.26000
X1.10500 Y-0.26000
X1.10500 Y-0.26300
X1.10400 Y-0.26300
X1.10400 Y-0.26400
X1.10300 Y-0.26400
X1.10300 Y-0.26600
X1.10200 Y-0.26600
X1.10200 Y-0.26700
X1.10100 Y-0.26700
X1.10100 Y-0.26800
X1.10000 Y-0.26800
X1.10000 Y-0.27000
X1.09900 Y-0.27000
X1.09900 Y-0.27100
X1.09700 Y-0.27100
X1.09700 Y-0.27200
X1.09600 Y-0.27200
X1.09600 Y-0.27300
X1.09400 Y-0.27300
X1.09400 Y-0.27400
X1.09200 Y-0.27400
X1.09200 Y-0.27500
X1.09100 Y-0.27500
X1.09100 Y-0.27600
X1.08600 Y-0.27600
X1.08600 Y-0.27700
X1.06300 Y-0.27700
X1.06300 Y-0.27600
X1.05800 Y-0.27600
X1.05800 Y-0.27500
X1.05700 Y-0.27500
X1.05700 Y-0.27400
X1.05500 Y-0.27400
X1.05500 Y-0.27300
X1.05300 Y-0.27300
X1.05300 Y-0.27200
X1.05200 Y-0.27200
X1.05200 Y-0.27100
X1.05000 Y-0.27100
X1.05000 Y-0.27000
X1.04900 Y-0.27000
X1.04900 Y-0.26800
X1.04800 Y-0.26800
X1.04800 Y-0.26700
X1.04700 Y-0.26700
X1.04700 Y-0.26600
X1.04600 Y-0.26600
X1.04600 Y-0.26400
X1.04500 Y-0.26400
X1.04500 Y-0.26300
X1.04400 Y-0.26300
X1.04400 Y-0.26000
X1.04300 Y-0.26000
X1.04300 Y-0.25500
X1.04200 Y-0.25500
X1.04200 Y-0.23400
X1.04300 Y-0.23400
X1.04300 Y-0.22900
X1.04400 Y-0.22900
X1.04400 Y-0.22600
X1.04500 Y-0.22600
X1.04500 Y-0.22500
X1.04600 Y-0.22500
X1.04600 Y-0.22300
X1.04700 Y-0.22300
X1.04700 Y-0.22200
X1.04800 Y-0.22200
X1.04800 Y-0.22100
X1.04900 Y-0.22100
X1.04900 Y-0.21900
X1.05000 Y-0.21900
X1.05000 Y-0.21800
X1.05200 Y-0.21800
X1.05200 Y-0.21700
X1.05300 Y-0.21700
X1.05300 Y-0.21600
X1.05500 Y-0.21600
X1.05500 Y-0.21500
X1.05700 Y-0.21500
X1.05700 Y-0.21400
X1.05800 Y-0.21400
X1.05800 Y-0.21300
X1.06300 Y-0.21300
X1.06300 Y-0.21200
X1.08600 Y-0.21200
X1.08600 Y-0.21300
X1.09100 Y-0.21300
X1.09100 Y-0.21400
X1.09200 Y-0.21400
X1.09200 Y-0.21500
X1.09400 Y-0.21500
X1.09400 Y-0.21600
X1.09600 Y-0.21600
X1.09600 Y-0.21700
X1.09700 Y-0.21700
X1.09700 Y-0.21800
G04 P0 ( dwell for no time -- G64 should not smooth over this point )
G00 Z0.10000 ( retract )

G00 X1.19700 Y-0.21800 ( rapid move to begin. )
G01 Z-0.00500 F3.50000 ( plunge. )
G04 P0 ( dwell for no time -- G64 should not smooth over this point )
X1.19700 Y-0.21800
X1.19900 Y-0.21800
X1.19900 Y-0.21900
X1.20000 Y-0.21900
X1.20000 Y-0.22100
X1.20100 Y-0.22100
X1.20100 Y-0.22200
X1.20200 Y-0.22200
X1.20200 Y-0.22300
X1.20300 Y-0.22300
X1.20300 Y-0.22500
X1.20400 Y-0.22500
X1.20400 Y-0.22600
X1.20500 Y-0.22600
X1.20500 Y-0.22900
X1.20600 Y-0.22900
X1.20600 Y-0.23400
X1.20700 Y-0.23400
X1.20700 Y-0.25500
X1.20600 Y-0.25500
X1.20600 Y-0.26000
X1.20500 Y-0.26000
X1.20500 Y-0.26300
X1.20400 Y-0.26300
X1.20400 Y-0.26400
X1.20300 Y-0.26400
X1.20300 Y-0.26600
X1.20200 Y-0.26600
X1.20200 Y-0.26700
X1.20100 Y-0.26700
X1.20100 Y-0.26800
X1.20000 Y-0.26800
X1.20000 Y-0.27000
X1.19900 Y-0.27000
X1.19900 Y-0.27100
X1.19700 Y-0.27100
X1.19700 Y-0.27200
X1.19600 Y-0.27200
X1.19600 Y-0.27300
X1.19400 Y-0.27300
X1.19400 Y-0.27400
X1.19200 Y-0.27400
X1.19200 Y-0.27500
X1.19100 Y-0.27500
X1.19100 Y-0.27600
X1.18600 Y-0.27600
X1.18600 Y-0.27700
X1.16300 Y-0.27700
X1.16300 Y-0.27600
X1.15800 Y-0.27600
X1.15800 Y-0.27500
X1.15700 Y-0.27500
X1.15700 Y-0.27400
X1.15500 Y-0.27400
X1.15500 Y-0.27300
X1.15300 Y-0.27300
X1.15300 Y-0.27200
X1.15200 Y-0.27200
X1.15200 Y-0.27100
X1.15000 Y-0.27100
X1.15000 Y-0.27000
X1.14900 Y-0.27000
X1.14900 Y-0.26800
X1.14800 Y-0.26800
X1.14800 Y-0.26700
X1.14700 Y-0.26700
X1.14700 Y-0.26600
X1.14600 Y-0.26600
X1.14600 Y-0.26400
X1.14500 Y-0.26400
X1.14500 Y-0.26300
X1.14400 Y-0.26300
X1.14400 Y-0.26000
X1.14300 Y-0.26000
X1.14300 Y-0.25500
X1.14200 Y-0.25500
X1.14200 Y-0.23400
X1.14300 Y-0.23400
X1.14300 Y-0.22900
X1.14400 Y-0.22900
X1.14400 Y-0.22600
X1.14500 Y-0.22600
X1.14500 Y-0.22500
X1.14600 Y-0.22500
X1.14600 Y-0.22300
X1.14700 Y-0.22300
X1.14700 Y-0.22200
X1.14800 Y-0.22200
X1.14800 Y-0.22100
X1.14900 Y-0.22100
X1.14900 Y-0.21900
X1.15000 Y-0.21900
X1.15000 Y-0.21800
X1.15200 Y-0.21800
X1.15200 Y-0.21700
X1.15300 Y-0.21700
X1.15300 Y-0.21600
X1.15500 Y-0.21600
X1.15500 Y-0.21500
X1.15700 Y-0.21500
X1.15700 Y-0.21400
X1.15800 Y-0.21400
X1.15800 Y-0.21300
X1.16300 Y-0.21300
X1.16300 Y-0.21200
X1.18600 Y-0.21200
X1.18600 Y-0.21300
X1.19100 Y-0.21300
X1.19100 Y-0.21400
X1.19200 Y-0.21400
X1.19200 Y-0.21500
X1.19400 Y-0.21500
X1.19400 Y-0.21600
X1.19600 Y-0.21600
X1.19600 Y-0.21700
X1.19700 Y-0.21700
X1.19700 Y-0.21800
G04 P0 ( dwell for no time -- G64 should not smooth over this point )
G00 Z0.10000 ( retract )

G00 X1.41200 Y-0.21800 ( rapid move to begin. )
G01 Z-0.00500 F3.50000 ( plunge. )
G04 P0 ( dwell for no time -- G64 should not smooth over this point )
X1.41200 Y-0.21800
X1.41200 Y-0.27700
X1.34700 Y-0.27700
X1.34700 Y-0.21200
X1.41200 Y-0.21200
X1.41200 Y-0.21800
G04 P0 ( dwell for no time -- G64 should not smooth over this point )
G00 Z0.10000 ( retract )

G00 X1.50200 Y-0.21800 ( rapid move to begin. )
G01 Z-0.00500 F3.50000 ( plunge. )
G04 P0 ( dwell for no time -- G64 should not smooth over this point )
X1.50200 Y-0.21800
X1.50400 Y-0.21800
X1.50400 Y-0.21900
X1.50500 Y-0.21900
X1.50500 Y-0.22100
X1.50600 Y-0.22100
X1.50600 Y-0.22200
X1.50700 Y-0.22200
X1.50700 Y-0.22300
X1.50800 Y-0.22300
X1.50800 Y-0.22500
X1.50900 Y-0.22500
X1.50900 Y-0.22600
X1.51000 Y-0.22600
X1.51000 Y-0.22900
X1.51100 Y-0.22900
X1.51100 Y-0.23400
X1.51200 Y-0.23400
X1.51200 Y-0.25500
X1.51100 Y-0.25500
X1.51100 Y-0.26000
X1.51000 Y-0.26000
X1.51000 Y-0.26300
X1.50900 Y-0.26300
X1.50900 Y-0.26400
X1.50800 Y-0.26400
X1.50800 Y-0.26600
X1.50700 Y-0.26600
X1.50700 Y-0.26700
X1.50600 Y-0.26700
X1.50600 Y-0.26800
X1.50500 Y-0.26800
X1.50500 Y-0.27000
X1.50400 Y-0.27000
X1.50400 Y-0.27100
X1.50200 Y-0.27100
X1.50200 Y-0.27200
X1.50100 Y-0.27200
X1.50100 Y-0.27300
X1.49900 Y-0.27300
X1.49900 Y-0.27400
X1.49700 Y-0.27400
X1.49700 Y-0.27500
X1.49600 Y-0.27500
X1.49600 Y-0.27600
X1.49100 Y-0.27600
X1.49100 Y-0.27700
X1.46800 Y-0.27700
X1.46800 Y-0.27600
X1.46300 Y-0.27600
X1.46300 Y-0.27500
X1.46200 Y-0.27500
X1.46200 Y-0.27400
X1.46000 Y-0.27400
X1.46000 Y-0.27300
X1.45800 Y-0.27300
X1.45800 Y-0.27200
X1.45700 Y-0.27200
X1.45700 Y-0.27100
X1.45500 Y-0.27100
X1.45500 Y-0.27000
X1.45400 Y-0.27000
X1.45400 Y-0.26800
X1.45300 Y-0.26800
X1.45300 Y-0.26700
X1.45200 Y-0.26700
X1.45200 Y-0.26600
X1.45100 Y-0.26600
X1.45100 Y-0.26400
X1.45000 Y-0.26400
X1.45000 Y-0.26300
X1.44900 Y-0.26300
X1.44900 Y-0.26000
X1.44800 Y-0.26000
X1.44800 Y-0.25500
X1.44700 Y-0.25500
X1.44700 Y-0.23400
X1.44800 Y-0.23400
X1.44800 Y-0.22900
X1.44900 Y-0.22900
X1.44900 Y-0.22600
X1.45000 Y-0.22600
X1.45000 Y-0.22500
X1.45100 Y-0.22500
X1.45100 Y-0.22300
X1.45200 Y-0.22300
X1.45200 Y-0.22200
X1.45300 Y-0.22200
X1.45300 Y-0.22100
X1.45400 Y-0.22100
X1.45400 Y-0.21900
X1.45500 Y-0.21900
X1.45500 Y-0.21800
X1.45700 Y-0.21800
X1.45700 Y-0.21700
X1.45800 Y-0.21700
X1.45800 Y-0.21600
X1.46000 Y-0.21600
X1.46000 Y-0.21500
X1.46200 Y-0.21500
X1.46200 Y-0.21400
X1.46300 Y-0.21400
X1.46300 Y-0.21300
X1.46800 Y-0.21300
X1.46800 Y-0.21200
X1.49100 Y-0.21200
X1.49100 Y-0.21300
X1.49600 Y-0.21300
X1.49600 Y-0.21400
X1.49700 Y-0.21400
X1.49700 Y-0.21500
X1.49900 Y-0.21500
X1.49900 Y-0.21600
X1.50100 Y-0.21600
X1.50100 Y-0.21700
X1.50200 Y-0.21700
X1.50200 Y-0.21800
G04 P0 ( dwell for no time -- G64 should not smooth over this point )
G00 Z0.10000 ( retract )

G00 X1.66700 Y-0.21800 ( rapid move to begin. )
G01 Z-0.00500 F3.50000 ( plunge. )
G04 P0 ( dwell for no time -- G64 should not smooth over this point )
X1.66700 Y-0.21800
X1.66900 Y-0.21800
X1.66900 Y-0.21900
X1.67000 Y-0.21900
X1.67000 Y-0.22100
X1.67100 Y-0.22100
X1.67100 Y-0.22200
X1.67200 Y-0.22200
X1.67200 Y-0.22300
X1.67300 Y-0.22300
X1.67300 Y-0.22500
X1.67400 Y-0.22500
X1.67400 Y-0.22600
X1.67500 Y-0.22600
X1.67500 Y-0.22900
X1.67600 Y-0.22900
X1.67600 Y-0.23400
X1.67700 Y-0.23400
X1.67700 Y-0.25500
X1.67600 Y-0.25500
X1.67600 Y-0.26000
X1.67500 Y-0.26000
X1.67500 Y-0.26300
X1.67400 Y-0.26300
X1.67400 Y-0.26400
X1.67300 Y-0.26400
X1.67300 Y-0.26600
X1.67200 Y-0.26600
X1.67200 Y-0.26700
X1.67100 Y-0.26700
X1.67100 Y-0.26800
X1.67000 Y-0.26800
X1.67000 Y-0.27000
X1.66900 Y-0.27000
X1.66900 Y-0.27100
X1.66700 Y-0.27100
X1.66700 Y-0.27200
X1.66600 Y-0.27200
X1.66600 Y-0.27300
X1.66400 Y-0.27300
X1.66400 Y-0.27400
X1.66200 Y-0.27400
X1.66200 Y-0.27500
X1.66100 Y-0.27500
X1.66100 Y-0.27600
X1.65600 Y-0.27600
X1.65600 Y-0.27700
X1.63300 Y-0.27700
X1.63300 Y-0.27600
X1.62800 Y-0.27600
X1.62800 Y-0.27500
X1.62700 Y-0.27500
X1.62700 Y-0.27400
X1.62500 Y-0.27400
X1.62500 Y-0.27300
X1.62300 Y-0.27300
X1.62300 Y-0.27200
X1.62200 Y-0.27200
X1.62200 Y-0.27100
X1.62000 Y-0.27100
X1.62000 Y-0.27000
X1.61900 Y-0.27000
X1.61900 Y-0.26800
X1.61800 Y-0.26800
X1.61800 Y-0.26700
X1.61700 Y-0.26700
X1.61700 Y-0.26600
X1.61600 Y-0.26600
X1.61600 Y-0.26400
X1.61500 Y-0.26400
X1.61500 Y-0.26300
X1.61400 Y-0.26300
X1.61400 Y-0.26000
X1.61300 Y-0.26000
X1.61300 Y-0.25500
X1.61200 Y-0.25500
X1.61200 Y-0.23400
X1.61300 Y-0.23400
X1.61300 Y-0.22900
X1.61400 Y-0.22900
X1.61400 Y-0.22600
X1.61500 Y-0.22600
X1.61500 Y-0.22500
X1.61600 Y-0.22500
X1.61600 Y-0.22300
X1.61700 Y-0.22300
X1.61700 Y-0.22200
X1.61800 Y-0.22200
X1.61800 Y-0.22100
X1.61900 Y-0.22100
X1.61900 Y-0.21900
X1.62000 Y-0.21900
X1.62000 Y-0.21800
X1.62200 Y-0.21800
X1.62200 Y-0.21700
X1.62300 Y-0.21700
X1.62300 Y-0.21600
X1.62500 Y-0.21600
X1.62500 Y-0.21500
X1.62700 Y-0.21500
X1.62700 Y-0.21400
X1.62800 Y-0.21400
X1.62800 Y-0.21300
X1.63300 Y-0.21300
X1.63300 Y-0.21200
X1.65600 Y-0.21200
X1.65600 Y-0.21300
X1.66100 Y-0.21300
X1.66100 Y-0.21400
X1.66200 Y-0.21400
X1.66200 Y-0.21500
X1.66400 Y-0.21500
X1.66400 Y-0.21600
X1.66600 Y-0.21600
X1.66600 Y-0.21700
X1.66700 Y-0.21700
X1.66700 Y-0.21800
G04 P0 ( dwell for no time -- G64 should not smooth over this point )
G00 Z0.10000 ( retract )

G00 X0.63200 Y-0.25800 ( rapid move to begin. )
G01 Z-0.00500 F3.50000 ( plunge. )
G04 P0 ( dwell for no time -- G64 should not smooth over this point )
X0.63200 Y-0.25800
X0.63400 Y-0.25800
X0.63400 Y-0.25900
X0.63500 Y-0.25900
X0.63500 Y-0.26100
X0.63600 Y-0.26100
X0.63600 Y-0.26200
X0.63700 Y-0.26200
X0.63700 Y-0.26300
X0.63800 Y-0.26300
X0.63800 Y-0.26500
X0.63900 Y-0.26500
X0.63900 Y-0.26600
X0.64000 Y-0.26600
X0.64000 Y-0.26900
X0.64100 Y-0.26900
X0.64100 Y-0.27400
X0.64200 Y-0.27400
X0.64200 Y-0.29500
X0.64100 Y-0.29500
X0.64100 Y-0.30000
X0.64000 Y-0.30000
X0.64000 Y-0.30300
X0.63900 Y-0.30300
X0.63900 Y-0.30400
X0.63800 Y-0.30400
X0.63800 Y-0.30600
X0.63700 Y-0.30600
X0.63700 Y-0.30700
X0.63600 Y-0.30700
X0.63600 Y-0.30800
X0.63500 Y-0.30800
X0.63500 Y-0.31000
X0.63400 Y-0.31000
X0.63400 Y-0.31100
X0.63200 Y-0.31100
X0.63200 Y-0.31200
X0.63100 Y-0.31200
X0.63100 Y-0.31300
X0.62900 Y-0.31300
X0.62900 Y-0.31400
X0.62700 Y-0.31400
X0.62700 Y-0.31500
X0.62600 Y-0.31500
X0.62600 Y-0.31600
X0.62100 Y-0.31600
X0.62100 Y-0.31700
X0.59800 Y-0.31700
X0.59800 Y-0.31600
X0.59300 Y-0.31600
X0.59300 Y-0.31500
X0.59200 Y-0.31500
X0.59200 Y-0.31400
X0.59000 Y-0.31400
X0.59000 Y-0.31300
X0.58800 Y-0.31300
X0.58800 Y-0.31200
X0.58700 Y-0.31200
X0.58700 Y-0.31100
X0.58500 Y-0.31100
X0.58500 Y-0.31000
X0.58400 Y-0.31000
X0.58400 Y-0.30800
X0.58300 Y-0.30800
X0.58300 Y-0.30700
X0.58200 Y-0.30700
X0.58200 Y-0.30600
X0.58100 Y-0.30600
X0.58100 Y-0.30400
X0.58000 Y-0.30400
X0.58000 Y-0.30300
X0.57900 Y-0.30300
X0.57900 Y-0.30000
X0.57800 Y-0.30000
X0.57800 Y-0.29500
X0.57700 Y-0.29500
X0.57700 Y-0.27400
X0.57800 Y-0.27400
X0.57800 Y-0.26900
X0.57900 Y-0.26900
X0.57900 Y-0.26600
X0.58000 Y-0.26600
X0.58000 Y-0.26500
X0.58100 Y-0.26500
X0.58100 Y-0.26300
X0.58200 Y-0.26300
X0.58200 Y-0.26200
X0.58300 Y-0.26200
X0.58300 Y-0.26100
X0.58400 Y-0.26100
X0.58400 Y-0.25900
X0.58500 Y-0.25900
X0.58500 Y-0.25800
X0.58700 Y-0.25800
X0.58700 Y-0.25700
X0.58800 Y-0.25700
X0.58800 Y-0.25600
X0.59000 Y-0.25600
X0.59000 Y-0.25500
X0.59200 Y-0.25500
X0.59200 Y-0.25400
X0.59300 Y-0.25400
X0.59300 Y-0.25300
X0.59800 Y-0.25300
X0.59800 Y-0.25200
X0.62100 Y-0.25200
X0.62100 Y-0.25300
X0.62600 Y-0.25300
X0.62600 Y-0.25400
X0.62700 Y-0.25400
X0.62700 Y-0.25500
X0.62900 Y-0.25500
X0.62900 Y-0.25600
X0.63100 Y-0.25600
X0.63100 Y-0.25700
X0.63200 Y-0.25700
X0.63200 Y-0.25800
G04 P0 ( dwell for no time -- G64 should not smooth over this point )
G00 Z0.10000 ( retract )

G00 X0.63200 Y-0.39000 ( rapid move to begin. )
G01 Z-0.00500 F3.50000 ( plunge. )
G04 P0 ( dwell for no time -- G64 should not smooth over this point )
X0.63200 Y-0.39000
X0.63400 Y-0.39000
X0.63400 Y-0.39100
X0.63600 Y-0.39100
X0.63600 Y-0.39200
X0.63700 Y-0.39200
X0.63700 Y-0.39300
X0.63800 Y-0.39300
X0.63800 Y-0.39500
X0.63900 Y-0.39500
X0.63900 Y-0.39600
X0.64000 Y-0.39600
X0.64000 Y-0.39800
X0.64100 Y-0.39800
X0.64100 Y-0.39900
X0.64200 Y-0.39900
X0.64200 Y-0.40000
X0.64300 Y-0.40000
X0.64300 Y-0.40200
X0.64400 Y-0.40200
X0.64400 Y-0.40700
X0.64500 Y-0.40700
X0.64500 Y-0.41200
X0.64600 Y-0.41200
X0.64600 Y-0.45700
X0.64500 Y-0.45700
X0.64500 Y-0.46200
X0.64400 Y-0.46200
X0.64400 Y-0.46700
X0.64300 Y-0.46700
X0.64300 Y-0.46900
X0.64200 Y-0.46900
X0.64200 Y-0.47000
X0.64100 Y-0.47000
X0.64100 Y-0.47100
X0.64000 Y-0.47100
X0.64000 Y-0.47300
X0.63900 Y-0.47300
X0.63900 Y-0.47400
X0.63800 Y-0.47400
X0.63800 Y-0.47600
X0.63700 Y-0.47600
X0.63700 Y-0.47700
X0.63600 Y-0.47700
X0.63600 Y-0.47800
X0.63400 Y-0.47800
X0.63400 Y-0.47900
X0.63200 Y-0.47900
X0.63200 Y-0.48000
X0.63100 Y-0.48000
X0.63100 Y-0.48100
X0.62900 Y-0.48100
X0.62900 Y-0.48200
X0.62700 Y-0.48200
X0.62700 Y-0.48300
X0.62400 Y-0.48300
X0.62400 Y-0.48400
X0.61800 Y-0.48400
X0.61800 Y-0.48500
X0.60100 Y-0.48500
X0.60100 Y-0.48400
X0.59500 Y-0.48400
X0.59500 Y-0.48300
X0.59200 Y-0.48300
X0.59200 Y-0.48200
X0.59000 Y-0.48200
X0.59000 Y-0.48100
X0.58800 Y-0.48100
X0.58800 Y-0.48000
X0.58700 Y-0.48000
X0.58700 Y-0.47900
X0.58500 Y-0.47900
X0.58500 Y-0.47800
X0.58300 Y-0.47800
X0.58300 Y-0.47700
X0.58200 Y-0.47700
X0.58200 Y-0.47600
X0.58100 Y-0.47600
X0.58100 Y-0.47400
X0.58000 Y-0.47400
X0.58000 Y-0.47300
X0.57900 Y-0.47300
X0.57900 Y-0.47100
X0.57800 Y-0.47100
X0.57800 Y-0.47000
X0.57700 Y-0.47000
X0.57700 Y-0.46900
X0.57600 Y-0.46900
X0.57600 Y-0.46700
X0.57500 Y-0.46700
X0.57500 Y-0.46200
X0.57400 Y-0.46200
X0.57400 Y-0.45700
X0.57300 Y-0.45700
X0.57300 Y-0.41200
X0.57400 Y-0.41200
X0.57400 Y-0.40700
X0.57500 Y-0.40700
X0.57500 Y-0.40200
X0.57600 Y-0.40200
X0.57600 Y-0.40000
X0.57700 Y-0.40000
X0.57700 Y-0.39900
X0.57800 Y-0.39900
X0.57800 Y-0.39800
X0.57900 Y-0.39800
X0.57900 Y-0.39600
X0.58000 Y-0.39600
X0.58000 Y-0.39500
X0.58100 Y-0.39500
X0.58100 Y-0.39300
X0.58200 Y-0.39300
X0.58200 Y-0.39200
X0.58300 Y-0.39200
X0.58300 Y-0.39100
X0.58500 Y-0.39100
X0.58500 Y-0.39000
X0.58700 Y-0.39000
X0.58700 Y-0.38900
X0.58800 Y-0.38900
X0.58800 Y-0.38800
X0.59000 Y-0.38800
X0.59000 Y-0.38700
X0.59200 Y-0.38700
X0.59200 Y-0.38600
X0.59500 Y-0.38600
X0.59500 Y-0.38500
X0.60100 Y-0.38500
X0.60100 Y-0.38400
X0.61800 Y-0.38400
X0.61800 Y-0.38500
X0.62400 Y-0.38500
X0.62400 Y-0.38600
X0.62700 Y-0.38600
X0.62700 Y-0.38700
X0.62900 Y-0.38700
X0.62900 Y-0.38800
X0.63100 Y-0.38800
X0.63100 Y-0.38900
X0.63200 Y-0.38900
X0.63200 Y-0.39000
G04 P0 ( dwell for no time -- G64 should not smooth over this point )
G00 Z0.10000 ( retract )

G00 X0.73200 Y-0.39000 ( rapid move to begin. )
G01 Z-0.00500 F3.50000 ( plunge. )
G04 P0 ( dwell for no time -- G64 should not smooth over this point )
X0.73200 Y-0.39000
X0.73400 Y-0.39000
X0.73400 Y-0.39100
X0.73600 Y-0.39100
X0.73600 Y-0.39200
X0.73700 Y-0.39200
X0.73700 Y-0.39300
X0.73800 Y-0.39300
X0.73800 Y-0.39500
X0.73900 Y-0.39500
X0.73900 Y-0.39600
X0.74000 Y-0.39600
X0.74000 Y-0.39800
X0.74100 Y-0.39800
X0.74100 Y-0.39900
X0.74200 Y-0.39900
X0.74200 Y-0.40000
X0.74300 Y-0.40000
X0.74300 Y-0.40200
X0.74400 Y-0.40200
X0.74400 Y-0.40700
X0.74500 Y-0.40700
X0.74500 Y-0.41200
X0.74600 Y-0.41200
X0.74600 Y-0.45700
X0.74500 Y-0.45700
X0.74500 Y-0.46200
X0.74400 Y-0.46200
X0.74400 Y-0.46700
X0.74300 Y-0.46700
X0.74300 Y-0.46900
X0.74200 Y-0.46900
X0.74200 Y-0.47000
X0.74100 Y-0.47000
X0.74100 Y-0.47100
X0.74000 Y-0.47100
X0.74000 Y-0.47300
X0.73900 Y-0.47300
X0.73900 Y-0.47400
X0.73800 Y-0.47400
X0.73800 Y-0.47600
X0.73700 Y-0.47600
X0.73700 Y-0.47700
X0.73600 Y-0.47700
X0.73600 Y-0.47800
X0.73400 Y-0.47800
X0.73400 Y-0.47900
X0.73200 Y-0.47900
X0.73200 Y-0.48000
X0.73100 Y-0.48000
X0.73100 Y-0.48100
X0.72900 Y-0.48100
X0.72900 Y-0.48200
X0.72700 Y-0.48200
X0.72700 Y-0.48300
X0.72400 Y-0.48300
X0.72400 Y-0.48400
X0.71800 Y-0.48400
X0.71800 Y-0.48500
X0.70100 Y-0.48500
X0.70100 Y-0.48400
X0.69500 Y-0.48400
X0.69500 Y-0.48300
X0.69200 Y-0.48300
X0.69200 Y-0.48200
X0.69000 Y-0.48200
X0.69000 Y-0.48100
X0.68800 Y-0.48100
X0.68800 Y-0.48000
X0.68700 Y-0.48000
X0.68700 Y-0.47900
X0.68500 Y-0.47900
X0.68500 Y-0.47800
X0.68300 Y-0.47800
X0.68300 Y-0.47700
X0.68200 Y-0.47700
X0.68200 Y-0.47600
X0.68100 Y-0.47600
X0.68100 Y-0.47400
X0.68000 Y-0.47400
X0.68000 Y-0.47300
X0.67900 Y-0.47300
X0.67900 Y-0.47100
X0.67800 Y-0.47100
X0.67800 Y-0.47000
X0.67700 Y-0.47000
X0.67700 Y-0.46900
X0.67600 Y-0.46900
X0.67600 Y-0.46700
X0.67500 Y-0.46700
X0.67500 Y-0.46200
X0.67400 Y-0.46200
X0.67400 Y-0.45700
X0.67300 Y-0.45700
X0.67300 Y-0.41200
X0.67400 Y-0.41200
X0.67400 Y-0.40700
X0.67500 Y-0.40700
X0.67500 Y-0.40200
X0.67600 Y-0.40200
X0.67600 Y-0.40000
X0.67700 Y-0.40000
X0.67700 Y-0.39900
X0.67800 Y-0.39900
X0.67800 Y-0.39800
X0.67900 Y-0.39800
X0.67900 Y-0.39600
X0.68000 Y-0.39600
X0.68000 Y-0.39500
X0.68100 Y-0.39500
X0.68100 Y-0.39300
X0.68200 Y-0.39300
X0.68200 Y-0.39200
X0.68300 Y-0.39200
X0.68300 Y-0.39100
X0.68500 Y-0.39100
X0.68500 Y-0.39000
X0.68700 Y-0.39000
X0.68700 Y-0.38900
X0.68800 Y-0.38900
X0.68800 Y-0.38800
X0.69000 Y-0.38800
X0.69000 Y-0.38700
X0.69200 Y-0.38700
X0.69200 Y-0.38600
X0.69500 Y-0.38600
X0.69500 Y-0.38500
X0.70100 Y-0.38500
X0.70100 Y-0.38400
X0.71800 Y-0.38400
X0.71800 Y-0.38500
X0.72400 Y-0.38500
X0.72400 Y-0.38600
X0.72700 Y-0.38600
X0.72700 Y-0.38700
X0.72900 Y-0.38700
X0.72900 Y-0.38800
X0.73100 Y-0.38800
X0.73100 Y-0.38900
X0.73200 Y-0.38900
X0.73200 Y-0.39000
G04 P0 ( dwell for no time -- G64 should not smooth over this point )
G00 Z0.10000 ( retract )

G00 X0.83200 Y-0.39000 ( rapid move to begin. )
G01 Z-0.00500 F3.50000 ( plunge. )
G04 P0 ( dwell for no time -- G64 should not smooth over this point )
X0.83200 Y-0.39000
X0.83400 Y-0.39000
X0.83400 Y-0.39100
X0.83600 Y-0.39100
X0.83600 Y-0.39200
X0.83700 Y-0.39200
X0.83700 Y-0.39300
X0.83800 Y-0.39300
X0.83800 Y-0.39500
X0.83900 Y-0.39500
X0.83900 Y-0.39600
X0.84000 Y-0.39600
X0.84000 Y-0.39800
X0.84100 Y-0.39800
X0.84100 Y-0.39900
X0.84200 Y-0.39900
X0.84200 Y-0.40000
X0.84300 Y-0.40000
X0.84300 Y-0.40200
X0.84400 Y-0.40200
X0.84400 Y-0.40700
X0.84500 Y-0.40700
X0.84500 Y-0.41200
X0.84600 Y-0.41200
X0.84600 Y-0.45700
X0.84500 Y-0.45700
X0.84500 Y-0.46200
X0.84400 Y-0.46200
X0.84400 Y-0.46700
X0.84300 Y-0.46700
X0.84300 Y-0.46900
X0.84200 Y-0.46900
X0.84200 Y-0.47000
X0.84100 Y-0.47000
X0.84100 Y-0.47100
X0.84000 Y-0.47100
X0.84000 Y-0.47300
X0.83900 Y-0.47300
X0.83900 Y-0.47400
X0.83800 Y-0.47400
X0.83800 Y-0.47600
X0.83700 Y-0.47600
X0.83700 Y-0.47700
X0.83600 Y-0.47700
X0.83600 Y-0.47800
X0.83400 Y-0.47800
X0.83400 Y-0.47900
X0.83200 Y-0.47900
X0.83200 Y-0.48000
X0.83100 Y-0.48000
X0.83100 Y-0.48100
X0.82900 Y-0.48100
X0.82900 Y-0.48200
X0.82700 Y-0.48200
X0.82700 Y-0.48300
X0.82400 Y-0.48300
X0.82400 Y-0.48400
X0.81800 Y-0.48400
X0.81800 Y-0.48500
X0.80100 Y-0.48500
X0.80100 Y-0.48400
X0.79500 Y-0.48400
X0.79500 Y-0.48300
X0.79200 Y-0.48300
X0.79200 Y-0.48200
X0.79000 Y-0.48200
X0.79000 Y-0.48100
X0.78800 Y-0.48100
X0.78800 Y-0.48000
X0.78700 Y-0.48000
X0.78700 Y-0.47900
X0.78500 Y-0.47900
X0.78500 Y-0.47800
X0.78300 Y-0.47800
X0.78300 Y-0.47700
X0.78200 Y-0.47700
X0.78200 Y-0.47600
X0.78100 Y-0.47600
X0.78100 Y-0.47400
X0.78000 Y-0.47400
X0.78000 Y-0.47300
X0.77900 Y-0.47300
X0.77900 Y-0.47100
X0.77800 Y-0.47100
X0.77800 Y-0.47000
X0.77700 Y-0.47000
X0.77700 Y-0.46900
X0.77600 Y-0.46900
X0.77600 Y-0.46700
X0.77500 Y-0.46700
X0.77500 Y-0.46200
X0.77400 Y-0.46200
X0.77400 Y-0.45700
X0.77300 Y-0.45700
X0.77300 Y-0.41200
X0.77400 Y-0.41200
X0.77400 Y-0.40700
X0.77500 Y-0.40700
X0.77500 Y-0.40200
X0.77600 Y-0.40200
X0.77600 Y-0.40000
X0.77700 Y-0.40000
X0.77700 Y-0.39900
X0.77800 Y-0.39900
X0.77800 Y-0.39800
X0.77900 Y-0.39800
X0.77900 Y-0.39600
X0.78000 Y-0.39600
X0.78000 Y-0.39500
X0.78100 Y-0.39500
X0.78100 Y-0.39300
X0.78200 Y-0.39300
X0.78200 Y-0.39200
X0.78300 Y-0.39200
X0.78300 Y-0.39100
X0.78500 Y-0.39100
X0.78500 Y-0.39000
X0.78700 Y-0.39000
X0.78700 Y-0.38900
X0.78800 Y-0.38900
X0.78800 Y-0.38800
X0.79000 Y-0.38800
X0.79000 Y-0.38700
X0.79200 Y-0.38700
X0.79200 Y-0.38600
X0.79500 Y-0.38600
X0.79500 Y-0.38500
X0.80100 Y-0.38500
X0.80100 Y-0.38400
X0.81800 Y-0.38400
X0.81800 Y-0.38500
X0.82400 Y-0.38500
X0.82400 Y-0.38600
X0.82700 Y-0.38600
X0.82700 Y-0.38700
X0.82900 Y-0.38700
X0.82900 Y-0.38800
X0.83100 Y-0.38800
X0.83100 Y-0.38900
X0.83200 Y-0.38900
X0.83200 Y-0.39000
G04 P0 ( dwell for no time -- G64 should not smooth over this point )
G00 Z0.10000 ( retract )

G00 X0.93200 Y-0.39000 ( rapid move to begin. )
G01 Z-0.00500 F3.50000 ( plunge. )
G04 P0 ( dwell for no time -- G64 should not smooth over this point )
X0.93200 Y-0.39000
X0.93400 Y-0.39000
X0.93400 Y-0.39100
X0.93600 Y-0.39100
X0.93600 Y-0.39200
X0.93700 Y-0.39200
X0.93700 Y-0.39300
X0.93800 Y-0.39300
X0.93800 Y-0.39500
X0.93900 Y-0.39500
X0.93900 Y-0.39600
X0.94000 Y-0.39600
X0.94000 Y-0.39800
X0.94100 Y-0.39800
X0.94100 Y-0.39900
X0.94200 Y-0.39900
X0.94200 Y-0.40000
X0.94300 Y-0.40000
X0.94300 Y-0.40200
X0.94400 Y-0.40200
X0.94400 Y-0.40700
X0.94500 Y-0.40700
X0.94500 Y-0.41200
X0.94600 Y-0.41200
X0.94600 Y-0.45700
X0.94500 Y-0.45700
X0.94500 Y-0.46200
X0.94400 Y-0.46200
X0.94400 Y-0.46700
X0.94300 Y-0.46700
X0.94300 Y-0.46900
X0.94200 Y-0.46900
X0.94200 Y-0.47000
X0.94100 Y-0.47000
X0.94100 Y-0.47100
X0.94000 Y-0.47100
X0.94000 Y-0.47300
X0.93900 Y-0.47300
X0.93900 Y-0.47400
X0.93800 Y-0.47400
X0.93800 Y-0.47600
X0.93700 Y-0.47600
X0.93700 Y-0.47700
X0.93600 Y-0.47700
X0.93600 Y-0.47800
X0.93400 Y-0.47800
X0.93400 Y-0.47900
X0.93200 Y-0.47900
X0.93200 Y-0.48000
X0.93100 Y-0.48000
X0.93100 Y-0.48100
X0.92900 Y-0.48100
X0.92900 Y-0.48200
X0.92700 Y-0.48200
X0.92700 Y-0.48300
X0.92400 Y-0.48300
X0.92400 Y-0.48400
X0.91800 Y-0.48400
X0.91800 Y-0.48500
X0.90100 Y-0.48500
X0.90100 Y-0.48400
X0.89500 Y-0.48400
X0.89500 Y-0.48300
X0.89200 Y-0.48300
X0.89200 Y-0.48200
X0.89000 Y-0.48200
X0.89000 Y-0.48100
X0.88800 Y-0.48100
X0.88800 Y-0.48000
X0.88700 Y-0.48000
X0.88700 Y-0.47900
X0.88500 Y-0.47900
X0.88500 Y-0.47800
X0.88300 Y-0.47800
X0.88300 Y-0.47700
X0.88200 Y-0.47700
X0.88200 Y-0.47600
X0.88100 Y-0.47600
X0.88100 Y-0.47400
X0.88000 Y-0.47400
X0.88000 Y-0.47300
X0.87900 Y-0.47300
X0.87900 Y-0.47100
X0.87800 Y-0.47100
X0.87800 Y-0.47000
X0.87700 Y-0.47000
X0.87700 Y-0.46900
X0.87600 Y-0.46900
X0.87600 Y-0.46700
X0.87500 Y-0.46700
X0.87500 Y-0.46200
X0.87400 Y-0.46200
X0.87400 Y-0.45700
X0.87300 Y-0.45700
X0.87300 Y-0.41200
X0.87400 Y-0.41200
X0.87400 Y-0.40700
X0.87500 Y-0.40700
X0.87500 Y-0.40200
X0.87600 Y-0.40200
X0.87600 Y-0.40000
X0.87700 Y-0.40000
X0.87700 Y-0.39900
X0.87800 Y-0.39900
X0.87800 Y-0.39800
X0.87900 Y-0.39800
X0.87900 Y-0.39600
X0.88000 Y-0.39600
X0.88000 Y-0.39500
X0.88100 Y-0.39500
X0.88100 Y-0.39300
X0.88200 Y-0.39300
X0.88200 Y-0.39200
X0.88300 Y-0.39200
X0.88300 Y-0.39100
X0.88500 Y-0.39100
X0.88500 Y-0.39000
X0.88700 Y-0.39000
X0.88700 Y-0.38900
X0.88800 Y-0.38900
X0.88800 Y-0.38800
X0.89000 Y-0.38800
X0.89000 Y-0.38700
X0.89200 Y-0.38700
X0.89200 Y-0.38600
X0.89500 Y-0.38600
X0.89500 Y-0.38500
X0.90100 Y-0.38500
X0.90100 Y-0.38400
X0.91800 Y-0.38400
X0.91800 Y-0.38500
X0.92400 Y-0.38500
X0.92400 Y-0.38600
X0.92700 Y-0.38600
X0.92700 Y-0.38700
X0.92900 Y-0.38700
X0.92900 Y-0.38800
X0.93100 Y-0.38800
X0.93100 Y-0.38900
X0.93200 Y-0.38900
X0.93200 Y-0.39000
G04 P0 ( dwell for no time -- G64 should not smooth over this point )
G00 Z0.10000 ( retract )

G00 X1.15200 Y-0.41300 ( rapid move to begin. )
G01 Z-0.00500 F3.50000 ( plunge. )
G04 P0 ( dwell for no time -- G64 should not smooth over this point )
X1.15200 Y-0.41300
X1.15400 Y-0.41300
X1.15400 Y-0.41400
X1.15500 Y-0.41400
X1.15500 Y-0.41600
X1.15600 Y-0.41600
X1.15600 Y-0.41700
X1.15700 Y-0.41700
X1.15700 Y-0.41800
X1.15800 Y-0.41800
X1.15800 Y-0.42000
X1.15900 Y-0.42000
X1.15900 Y-0.42100
X1.16000 Y-0.42100
X1.16000 Y-0.42400
X1.16100 Y-0.42400
X1.16100 Y-0.42900
X1.16200 Y-0.42900
X1.16200 Y-0.45000
X1.16100 Y-0.45000
X1.16100 Y-0.45500
X1.16000 Y-0.45500
X1.16000 Y-0.45800
X1.15900 Y-0.45800
X1.15900 Y-0.45900
X1.15800 Y-0.45900
X1.15800 Y-0.46100
X1.15700 Y-0.46100
X1.15700 Y-0.46200
X1.15600 Y-0.46200
X1.15600 Y-0.46300
X1.15500 Y-0.46300
X1.15500 Y-0.46500
X1.15400 Y-0.46500
X1.15400 Y-0.46600
X1.15200 Y-0.46600
X1.15200 Y-0.46700
X1.15100 Y-0.46700
X1.15100 Y-0.46800
X1.14900 Y-0.46800
X1.14900 Y-0.46900
X1.14700 Y-0.46900
X1.14700 Y-0.47000
X1.14600 Y-0.47000
X1.14600 Y-0.47100
X1.14100 Y-0.47100
X1.14100 Y-0.47200
X1.11800 Y-0.47200
X1.11800 Y-0.47100
X1.11300 Y-0.47100
X1.11300 Y-0.47000
X1.11200 Y-0.47000
X1.11200 Y-0.46900
X1.11000 Y-0.46900
X1.11000 Y-0.46800
X1.10800 Y-0.46800
X1.10800 Y-0.46700
X1.10700 Y-0.46700
X1.10700 Y-0.46600
X1.10500 Y-0.46600
X1.10500 Y-0.46500
X1.10400 Y-0.46500
X1.10400 Y-0.46300
X1.10300 Y-0.46300
X1.10300 Y-0.46200
X1.10200 Y-0.46200
X1.10200 Y-0.46100
X1.10100 Y-0.46100
X1.10100 Y-0.45900
X1.10000 Y-0.45900
X1.10000 Y-0.45800
X1.09900 Y-0.45800
X1.09900 Y-0.45500
X1.09800 Y-0.45500
X1.09800 Y-0.45000
X1.09700 Y-0.45000
X1.09700 Y-0.42900
X1.09800 Y-0.42900
X1.09800 Y-0.42400
X1.09900 Y-0.42400
X1.09900 Y-0.42100
X1.10000 Y-0.42100
X1.10000 Y-0.42000
X1.10100 Y-0.42000
X1.10100 Y-0.41800
X1.10200 Y-0.41800
X1.10200 Y-0.41700
X1.10300 Y-0.41700
X1.10300 Y-0.41600
X1.10400 Y-0.41600
X1.10400 Y-0.41400
X1.10500 Y-0.41400
X1.10500 Y-0.41300
X1.10700 Y-0.41300
X1.10700 Y-0.41200
X1.10800 Y-0.41200
X1.10800 Y-0.41100
X1.11000 Y-0.41100
X1.11000 Y-0.41000
X1.11200 Y-0.41000
X1.11200 Y-0.40900
X1.11300 Y-0.40900
X1.11300 Y-0.40800
X1.11800 Y-0.40800
X1.11800 Y-0.40700
X1.14100 Y-0.40700
X1.14100 Y-0.40800
X1.14600 Y-0.40800
X1.14600 Y-0.40900
X1.14700 Y-0.40900
X1.14700 Y-0.41000
X1.14900 Y-0.41000
X1.14900 Y-0.41100
X1.15100 Y-0.41100
X1.15100 Y-0.41200
X1.15200 Y-0.41200
X1.15200 Y-0.41300
G04 P0 ( dwell for no time -- G64 should not smooth over this point )
G00 Z0.10000 ( retract )

G00 X1.45200 Y-0.41300 ( rapid move to begin. )
G01 Z-0.00500 F3.50000 ( plunge. )
G04 P0 ( dwell for no time -- G64 should not smooth over this point )
X1.45200 Y-0.41300
X1.45400 Y-0.41300
X1.45400 Y-0.41400
X1.45500 Y-0.41400
X1.45500 Y-0.41600
X1.45600 Y-0.41600
X1.45600 Y-0.41700
X1.45700 Y-0.41700
X1.45700 Y-0.41800
X1.45800 Y-0.41800
X1.45800 Y-0.42000
X1.45900 Y-0.42000
X1.45900 Y-0.42100
X1.46000 Y-0.42100
X1.46000 Y-0.42400
X1.46100 Y-0.42400
X1.46100 Y-0.42900
X1.46200 Y-0.42900
X1.46200 Y-0.45000
X1.46100 Y-0.45000
X1.46100 Y-0.45500
X1.46000 Y-0.45500
X1.46000 Y-0.45800
X1.45900 Y-0.45800
X1.45900 Y-0.45900
X1.45800 Y-0.45900
X1.45800 Y-0.46100
X1.45700 Y-0.46100
X1.45700 Y-0.46200
X1.45600 Y-0.46200
X1.45600 Y-0.46300
X1.45500 Y-0.46300
X1.45500 Y-0.46500
X1.45400 Y-0.46500
X1.45400 Y-0.46600
X1.45200 Y-0.46600
X1.45200 Y-0.46700
X1.45100 Y-0.46700
X1.45100 Y-0.46800
X1.44900 Y-0.46800
X1.44900 Y-0.46900
X1.44700 Y-0.46900
X1.44700 Y-0.47000
X1.44600 Y-0.47000
X1.44600 Y-0.47100
X1.44100 Y-0.47100
X1.44100 Y-0.47200
X1.41800 Y-0.47200
X1.41800 Y-0.47100
X1.41300 Y-0.47100
X1.41300 Y-0.47000
X1.41200 Y-0.47000
X1.41200 Y-0.46900
X1.41000 Y-0.46900
X1.41000 Y-0.46800
X1.40800 Y-0.46800
X1.40800 Y-0.46700
X1.40700 Y-0.46700
X1.40700 Y-0.46600
X1.40500 Y-0.46600
X1.40500 Y-0.46500
X1.40400 Y-0.46500
X1.40400 Y-0.46300
X1.40300 Y-0.46300
X1.40300 Y-0.46200
X1.40200 Y-0.46200
X1.40200 Y-0.46100
X1.40100 Y-0.46100
X1.40100 Y-0.45900
X1.40000 Y-0.45900
X1.40000 Y-0.45800
X1.39900 Y-0.45800
X1.39900 Y-0.45500
X1.39800 Y-0.45500
X1.39800 Y-0.45000
X1.39700 Y-0.45000
X1.39700 Y-0.42900
X1.39800 Y-0.42900
X1.39800 Y-0.42400
X1.39900 Y-0.42400
X1.39900 Y-0.42100
X1.40000 Y-0.42100
X1.40000 Y-0.42000
X1.40100 Y-0.42000
X1.40100 Y-0.41800
X1.40200 Y-0.41800
X1.40200 Y-0.41700
X1.40300 Y-0.41700
X1.40300 Y-0.41600
X1.40400 Y-0.41600
X1.40400 Y-0.41400
X1.40500 Y-0.41400
X1.40500 Y-0.41300
X1.40700 Y-0.41300
X1.40700 Y-0.41200
X1.40800 Y-0.41200
X1.40800 Y-0.41100
X1.41000 Y-0.41100
X1.41000 Y-0.41000
X1.41200 Y-0.41000
X1.41200 Y-0.40900
X1.41300 Y-0.40900
X1.41300 Y-0.40800
X1.41800 Y-0.40800
X1.41800 Y-0.40700
X1.44100 Y-0.40700
X1.44100 Y-0.40800
X1.44600 Y-0.40800
X1.44600 Y-0.40900
X1.44700 Y-0.40900
X1.44700 Y-0.41000
X1.44900 Y-0.41000
X1.44900 Y-0.41100
X1.45100 Y-0.41100
X1.45100 Y-0.41200
X1.45200 Y-0.41200
X1.45200 Y-0.41300
G04 P0 ( dwell for no time -- G64 should not smooth over this point )
G00 Z0.10000 ( retract )

G00 X1.66700 Y-0.51800 ( rapid move to begin. )
G01 Z-0.00500 F3.50000 ( plunge. )
G04 P0 ( dwell for no time -- G64 should not smooth over this point )
X1.66700 Y-0.51800
X1.66900 Y-0.51800
X1.66900 Y-0.51900
X1.67000 Y-0.51900
X1.67000 Y-0.52100
X1.67100 Y-0.52100
X1.67100 Y-0.52200
X1.67200 Y-0.52200
X1.67200 Y-0.52300
X1.67300 Y-0.52300
X1.67300 Y-0.52500
X1.67400 Y-0.52500
X1.67400 Y-0.52600
X1.67500 Y-0.52600
X1.67500 Y-0.52900
X1.67600 Y-0.52900
X1.67600 Y-0.53400
X1.67700 Y-0.53400
X1.67700 Y-0.55500
X1.67600 Y-0.55500
X1.67600 Y-0.56000
X1.67500 Y-0.56000
X1.67500 Y-0.56300
X1.67400 Y-0.56300
X1.67400 Y-0.56400
X1.67300 Y-0.56400
X1.67300 Y-0.56600
X1.67200 Y-0.56600
X1.67200 Y-0.56700
X1.67100 Y-0.56700
X1.67100 Y-0.56800
X1.67000 Y-0.56800
X1.67000 Y-0.57000
X1.66900 Y-0.57000
X1.66900 Y-0.57100
X1.66700 Y-0.57100
X1.66700 Y-0.57200
X1.66600 Y-0.57200
X1.66600 Y-0.57300
X1.66400 Y-0.57300
X1.66400 Y-0.57400
X1.66200 Y-0.57400
X1.66200 Y-0.57500
X1.66100 Y-0.57500
X1.66100 Y-0.57600
X1.65600 Y-0.57600
X1.65600 Y-0.57700
X1.63300 Y-0.57700
X1.63300 Y-0.57600
X1.62800 Y-0.57600
X1.62800 Y-0.57500
X1.62700 Y-0.57500
X1.62700 Y-0.57400
X1.62500 Y-0.57400
X1.62500 Y-0.57300
X1.62300 Y-0.57300
X1.62300 Y-0.57200
X1.62200 Y-0.57200
X1.62200 Y-0.57100
X1.62000 Y-0.57100
X1.62000 Y-0.57000
X1.61900 Y-0.57000
X1.61900 Y-0.56800
X1.61800 Y-0.56800
X1.61800 Y-0.56700
X1.61700 Y-0.56700
X1.61700 Y-0.56600
X1.61600 Y-0.56600
X1.61600 Y-0.56400
X1.61500 Y-0.56400
X1.61500 Y-0.56300
X1.61400 Y-0.56300
X1.61400 Y-0.56000
X1.61300 Y-0.56000
X1.61300 Y-0.55500
X1.61200 Y-0.55500
X1.61200 Y-0.53400
X1.61300 Y-0.53400
X1.61300 Y-0.52900
X1.61400 Y-0.52900
X1.61400 Y-0.52600
X1.61500 Y-0.52600
X1.61500 Y-0.52500
X1.61600 Y-0.52500
X1.61600 Y-0.52300
X1.61700 Y-0.52300
X1.61700 Y-0.52200
X1.61800 Y-0.52200
X1.61800 Y-0.52100
X1.61900 Y-0.52100
X1.61900 Y-0.51900
X1.62000 Y-0.51900
X1.62000 Y-0.51800
X1.62200 Y-0.51800
X1.62200 Y-0.51700
X1.62300 Y-0.51700
X1.62300 Y-0.51600
X1.62500 Y-0.51600
X1.62500 Y-0.51500
X1.62700 Y-0.51500
X1.62700 Y-0.51400
X1.62800 Y-0.51400
X1.62800 Y-0.51300
X1.63300 Y-0.51300
X1.63300 Y-0.51200
X1.65600 Y-0.51200
X1.65600 Y-0.51300
X1.66100 Y-0.51300
X1.66100 Y-0.51400
X1.66200 Y-0.51400
X1.66200 Y-0.51500
X1.66400 Y-0.51500
X1.66400 Y-0.51600
X1.66600 Y-0.51600
X1.66600 Y-0.51700
X1.66700 Y-0.51700
X1.66700 Y-0.51800
G04 P0 ( dwell for no time -- G64 should not smooth over this point )
G00 Z0.10000 ( retract )

G00 X0.17700 Y-0.52800 ( rapid move to begin. )
G01 Z-0.00500 F3.50000 ( plunge. )
G04 P0 ( dwell for no time -- G64 should not smooth over this point )
X0.17700 Y-0.52800
X0.17700 Y-0.58700
X0.11200 Y-0.58700
X0.11200 Y-0.52200
X0.17700 Y-0.52200
X0.17700 Y-0.52800
G04 P0 ( dwell for no time -- G64 should not smooth over this point )
G00 Z0.10000 ( retract )

G00 X0.26700 Y-0.52800 ( rapid move to begin. )
G01 Z-0.00500 F3.50000 ( plunge. )
G04 P0 ( dwell for no time -- G64 should not smooth over this point )
X0.26700 Y-0.52800
X0.26900 Y-0.52800
X0.26900 Y-0.52900
X0.27000 Y-0.52900
X0.27000 Y-0.53100
X0.27100 Y-0.53100
X0.27100 Y-0.53200
X0.27200 Y-0.53200
X0.27200 Y-0.53300
X0.27300 Y-0.53300
X0.27300 Y-0.53500
X0.27400 Y-0.53500
X0.27400 Y-0.53600
X0.27500 Y-0.53600
X0.27500 Y-0.53900
X0.27600 Y-0.53900
X0.27600 Y-0.54400
X0.27700 Y-0.54400
X0.27700 Y-0.56500
X0.27600 Y-0.56500
X0.27600 Y-0.57000
X0.27500 Y-0.57000
X0.27500 Y-0.57300
X0.27400 Y-0.57300
X0.27400 Y-0.57400
X0.27300 Y-0.57400
X0.27300 Y-0.57600
X0.27200 Y-0.57600
X0.27200 Y-0.57700
X0.27100 Y-0.57700
X0.27100 Y-0.57800
X0.27000 Y-0.57800
X0.27000 Y-0.58000
X0.26900 Y-0.58000
X0.26900 Y-0.58100
X0.26700 Y-0.58100
X0.26700 Y-0.58200
X0.26600 Y-0.58200
X0.26600 Y-0.58300
X0.26400 Y-0.58300
X0.26400 Y-0.58400
X0.26200 Y-0.58400
X0.26200 Y-0.58500
X0.26100 Y-0.58500
X0.26100 Y-0.58600
X0.25600 Y-0.58600
X0.25600 Y-0.58700
X0.23300 Y-0.58700
X0.23300 Y-0.58600
X0.22800 Y-0.58600
X0.22800 Y-0.58500
X0.22700 Y-0.58500
X0.22700 Y-0.58400
X0.22500 Y-0.58400
X0.22500 Y-0.58300
X0.22300 Y-0.58300
X0.22300 Y-0.58200
X0.22200 Y-0.58200
X0.22200 Y-0.58100
X0.22000 Y-0.58100
X0.22000 Y-0.58000
X0.21900 Y-0.58000
X0.21900 Y-0.57800
X0.21800 Y-0.57800
X0.21800 Y-0.57700
X0.21700 Y-0.57700
X0.21700 Y-0.57600
X0.21600 Y-0.57600
X0.21600 Y-0.57400
X0.21500 Y-0.57400
X0.21500 Y-0.57300
X0.21400 Y-0.57300
X0.21400 Y-0.57000
X0.21300 Y-0.57000
X0.21300 Y-0.56500
X0.21200 Y-0.56500
X0.21200 Y-0.54400
X0.21300 Y-0.54400
X0.21300 Y-0.53900
X0.21400 Y-0.53900
X0.21400 Y-0.53600
X0.21500 Y-0.53600
X0.21500 Y-0.53500
X0.21600 Y-0.53500
X0.21600 Y-0.53300
X0.21700 Y-0.53300
X0.21700 Y-0.53200
X0.21800 Y-0.53200
X0.21800 Y-0.53100
X0.21900 Y-0.53100
X0.21900 Y-0.52900
X0.22000 Y-0.52900
X0.22000 Y-0.52800
X0.22200 Y-0.52800
X0.22200 Y-0.52700
X0.22300 Y-0.52700
X0.22300 Y-0.52600
X0.22500 Y-0.52600
X0.22500 Y-0.52500
X0.22700 Y-0.52500
X0.22700 Y-0.52400
X0.22800 Y-0.52400
X0.22800 Y-0.52300
X0.23300 Y-0.52300
X0.23300 Y-0.52200
X0.25600 Y-0.52200
X0.25600 Y-0.52300
X0.26100 Y-0.52300
X0.26100 Y-0.52400
X0.26200 Y-0.52400
X0.26200 Y-0.52500
X0.26400 Y-0.52500
X0.26400 Y-0.52600
X0.26600 Y-0.52600
X0.26600 Y-0.52700
X0.26700 Y-0.52700
X0.26700 Y-0.52800
G04 P0 ( dwell for no time -- G64 should not smooth over this point )
G00 Z0.10000 ( retract )

G00 X1.15200 Y-0.53800 ( rapid move to begin. )
G01 Z-0.00500 F3.50000 ( plunge. )
G04 P0 ( dwell for no time -- G64 should not smooth over this point )
X1.15200 Y-0.53800
X1.15400 Y-0.53800
X1.15400 Y-0.53900
X1.15500 Y-0.53900
X1.15500 Y-0.54100
X1.15600 Y-0.54100
X1.15600 Y-0.54200
X1.15700 Y-0.54200
X1.15700 Y-0.54300
X1.15800 Y-0.54300
X1.15800 Y-0.54500
X1.15900 Y-0.54500
X1.15900 Y-0.54600
X1.16000 Y-0.54600
X1.16000 Y-0.54900
X1.16100 Y-0.54900
X1.16100 Y-0.55400
X1.16200 Y-0.55400
X1.16200 Y-0.57500
X1.16100 Y-0.57500
X1.16100 Y-0.58000
X1.16000 Y-0.58000
X1.16000 Y-0.58300
X1.15900 Y-0.58300
X1.15900 Y-0.58400
X1.15800 Y-0.58400
X1.15800 Y-0.58600
X1.15700 Y-0.58600
X1.15700 Y-0.58700
X1.15600 Y-0.58700
X1.15600 Y-0.58800
X1.15500 Y-0.58800
X1.15500 Y-0.59000
X1.15400 Y-0.59000
X1.15400 Y-0.59100
X1.15200 Y-0.59100
X1.15200 Y-0.59200
X1.15100 Y-0.59200
X1.15100 Y-0.59300
X1.14900 Y-0.59300
X1.14900 Y-0.59400
X1.14700 Y-0.59400
X1.14700 Y-0.59500
X1.14600 Y-0.59500
X1.14600 Y-0.59600
X1.14100 Y-0.59600
X1.14100 Y-0.59700
X1.11800 Y-0.59700
X1.11800 Y-0.59600
X1.11300 Y-0.59600
X1.11300 Y-0.59500
X1.11200 Y-0.59500
X1.11200 Y-0.59400
X1.11000 Y-0.59400
X1.11000 Y-0.59300
X1.10800 Y-0.59300
X1.10800 Y-0.59200
X1.10700 Y-0.59200
X1.10700 Y-0.59100
X1.10500 Y-0.59100
X1.10500 Y-0.59000
X1.10400 Y-0.59000
X1.10400 Y-0.58800
X1.10300 Y-0.58800
X1.10300 Y-0.58700
X1.10200 Y-0.58700
X1.10200 Y-0.58600
X1.10100 Y-0.58600
X1.10100 Y-0.58400
X1.10000 Y-0.58400
X1.10000 Y-0.58300
X1.09900 Y-0.58300
X1.09900 Y-0.58000
X1.09800 Y-0.58000
X1.09800 Y-0.57500
X1.09700 Y-0.57500
X1.09700 Y-0.55400
X1.09800 Y-0.55400
X1.09800 Y-0.54900
X1.09900 Y-0.54900
X1.09900 Y-0.54600
X1.10000 Y-0.54600
X1.10000 Y-0.54500
X1.10100 Y-0.54500
X1.10100 Y-0.54300
X1.10200 Y-0.54300
X1.10200 Y-0.54200
X1.10300 Y-0.54200
X1.10300 Y-0.54100
X1.10400 Y-0.54100
X1.10400 Y-0.53900
X1.10500 Y-0.53900
X1.10500 Y-0.53800
X1.10700 Y-0.53800
X1.10700 Y-0.53700
X1.10800 Y-0.53700
X1.10800 Y-0.53600
X1.11000 Y-0.53600
X1.11000 Y-0.53500
X1.11200 Y-0.53500
X1.11200 Y-0.53400
X1.11300 Y-0.53400
X1.11300 Y-0.53300
X1.11800 Y-0.53300
X1.11800 Y-0.53200
X1.14100 Y-0.53200
X1.14100 Y-0.53300
X1.14600 Y-0.53300
X1.14600 Y-0.53400
X1.14700 Y-0.53400
X1.14700 Y-0.53500
X1.14900 Y-0.53500
X1.14900 Y-0.53600
X1.15100 Y-0.53600
X1.15100 Y-0.53700
X1.15200 Y-0.53700
X1.15200 Y-0.53800
G04 P0 ( dwell for no time -- G64 should not smooth over this point )
G00 Z0.10000 ( retract )

G00 X1.45200 Y-0.53800 ( rapid move to begin. )
G01 Z-0.00500 F3.50000 ( plunge. )
G04 P0 ( dwell for no time -- G64 should not smooth over this point )
X1.45200 Y-0.53800
X1.45400 Y-0.53800
X1.45400 Y-0.53900
X1.45500 Y-0.53900
X1.45500 Y-0.54100
X1.45600 Y-0.54100
X1.45600 Y-0.54200
X1.45700 Y-0.54200
X1.45700 Y-0.54300
X1.45800 Y-0.54300
X1.45800 Y-0.54500
X1.45900 Y-0.54500
X1.45900 Y-0.54600
X1.46000 Y-0.54600
X1.46000 Y-0.54900
X1.46100 Y-0.54900
X1.46100 Y-0.55400
X1.46200 Y-0.55400
X1.46200 Y-0.57500
X1.46100 Y-0.57500
X1.46100 Y-0.58000
X1.46000 Y-0.58000
X1.46000 Y-0.58300
X1.45900 Y-0.58300
X1.45900 Y-0.58400
X1.45800 Y-0.58400
X1.45800 Y-0.58600
X1.45700 Y-0.58600
X1.45700 Y-0.58700
X1.45600 Y-0.58700
X1.45600 Y-0.58800
X1.45500 Y-0.58800
X1.45500 Y-0.59000
X1.45400 Y-0.59000
X1.45400 Y-0.59100
X1.45200 Y-0.59100
X1.45200 Y-0.59200
X1.45100 Y-0.59200
X1.45100 Y-0.59300
X1.44900 Y-0.59300
X1.44900 Y-0.59400
X1.44700 Y-0.59400
X1.44700 Y-0.59500
X1.44600 Y-0.59500
X1.44600 Y-0.59600
X1.44100 Y-0.59600
X1.44100 Y-0.59700
X1.41800 Y-0.59700
X1.41800 Y-0.59600
X1.41300 Y-0.59600
X1.41300 Y-0.59500
X1.41200 Y-0.59500
X1.41200 Y-0.59400
X1.41000 Y-0.59400
X1.41000 Y-0.59300
X1.40800 Y-0.59300
X1.40800 Y-0.59200
X1.40700 Y-0.59200
X1.40700 Y-0.59100
X1.40500 Y-0.59100
X1.40500 Y-0.59000
X1.40400 Y-0.59000
X1.40400 Y-0.58800
X1.40300 Y-0.58800
X1.40300 Y-0.58700
X1.40200 Y-0.58700
X1.40200 Y-0.58600
X1.40100 Y-0.58600
X1.40100 Y-0.58400
X1.40000 Y-0.58400
X1.40000 Y-0.58300
X1.39900 Y-0.58300
X1.39900 Y-0.58000
X1.39800 Y-0.58000
X1.39800 Y-0.57500
X1.39700 Y-0.57500
X1.39700 Y-0.55400
X1.39800 Y-0.55400
X1.39800 Y-0.54900
X1.39900 Y-0.54900
X1.39900 Y-0.54600
X1.40000 Y-0.54600
X1.40000 Y-0.54500
X1.40100 Y-0.54500
X1.40100 Y-0.54300
X1.40200 Y-0.54300
X1.40200 Y-0.54200
X1.40300 Y-0.54200
X1.40300 Y-0.54100
X1.40400 Y-0.54100
X1.40400 Y-0.53900
X1.40500 Y-0.53900
X1.40500 Y-0.53800
X1.40700 Y-0.53800
X1.40700 Y-0.53700
X1.40800 Y-0.53700
X1.40800 Y-0.53600
X1.41000 Y-0.53600
X1.41000 Y-0.53500
X1.41200 Y-0.53500
X1.41200 Y-0.53400
X1.41300 Y-0.53400
X1.41300 Y-0.53300
X1.41800 Y-0.53300
X1.41800 Y-0.53200
X1.44100 Y-0.53200
X1.44100 Y-0.53300
X1.44600 Y-0.53300
X1.44600 Y-0.53400
X1.44700 Y-0.53400
X1.44700 Y-0.53500
X1.44900 Y-0.53500
X1.44900 Y-0.53600
X1.45100 Y-0.53600
X1.45100 Y-0.53700
X1.45200 Y-0.53700
X1.45200 Y-0.53800
G04 P0 ( dwell for no time -- G64 should not smooth over this point )
G00 Z0.10000 ( retract )

G00 X0.64600 Y-0.69000 ( rapid move to begin. )
G01 Z-0.00500 F3.50000 ( plunge. )
G04 P0 ( dwell for no time -- G64 should not smooth over this point )
X0.64600 Y-0.69000
X0.64600 Y-0.78500
X0.57300 Y-0.78500
X0.57300 Y-0.68400
X0.64600 Y-0.68400
X0.64600 Y-0.69000
G04 P0 ( dwell for no time -- G64 should not smooth over this point )
G00 Z0.10000 ( retract )

G00 X0.73200 Y-0.69000 ( rapid move to begin. )
G01 Z-0.00500 F3.50000 ( plunge. )
G04 P0 ( dwell for no time -- G64 should not smooth over this point )
X0.73200 Y-0.69000
X0.73400 Y-0.69000
X0.73400 Y-0.69100
X0.73600 Y-0.69100
X0.73600 Y-0.69200
X0.73700 Y-0.69200
X0.73700 Y-0.69300
X0.73800 Y-0.69300
X0.73800 Y-0.69500
X0.73900 Y-0.69500
X0.73900 Y-0.69600
X0.74000 Y-0.69600
X0.74000 Y-0.69800
X0.74100 Y-0.69800
X0.74100 Y-0.69900
X0.74200 Y-0.69900
X0.74200 Y-0.70000
X0.74300 Y-0.70000
X0.74300 Y-0.70200
X0.74400 Y-0.70200
X0.74400 Y-0.70700
X0.74500 Y-0.70700
X0.74500 Y-0.71200
X0.74600 Y-0.71200
X0.74600 Y-0.75700
X0.74500 Y-0.75700
X0.74500 Y-0.76200
X0.74400 Y-0.76200
X0.74400 Y-0.76700
X0.74300 Y-0.76700
X0.74300 Y-0.76900
X0.74200 Y-0.76900
X0.74200 Y-0.77000
X0.74100 Y-0.77000
X0.74100 Y-0.77100
X0.74000 Y-0.77100
X0.74000 Y-0.77300
X0.73900 Y-0.77300
X0.73900 Y-0.77400
X0.73800 Y-0.77400
X0.73800 Y-0.77600
X0.73700 Y-0.77600
X0.73700 Y-0.77700
X0.73600 Y-0.77700
X0.73600 Y-0.77800
X0.73400 Y-0.77800
X0.73400 Y-0.77900
X0.73200 Y-0.77900
X0.73200 Y-0.78000
X0.73100 Y-0.78000
X0.73100 Y-0.78100
X0.72900 Y-0.78100
X0.72900 Y-0.78200
X0.72700 Y-0.78200
X0.72700 Y-0.78300
X0.72400 Y-0.78300
X0.72400 Y-0.78400
X0.71800 Y-0.78400
X0.71800 Y-0.78500
X0.70100 Y-0.78500
X0.70100 Y-0.78400
X0.69500 Y-0.78400
X0.69500 Y-0.78300
X0.69200 Y-0.78300
X0.69200 Y-0.78200
X0.69000 Y-0.78200
X0.69000 Y-0.78100
X0.68800 Y-0.78100
X0.68800 Y-0.78000
X0.68700 Y-0.78000
X0.68700 Y-0.77900
X0.68500 Y-0.77900
X0.68500 Y-0.77800
X0.68300 Y-0.77800
X0.68300 Y-0.77700
X0.68200 Y-0.77700
X0.68200 Y-0.77600
X0.68100 Y-0.77600
X0.68100 Y-0.77400
X0.68000 Y-0.77400
X0.68000 Y-0.77300
X0.67900 Y-0.77300
X0.67900 Y-0.77100
X0.67800 Y-0.77100
X0.67800 Y-0.77000
X0.67700 Y-0.77000
X0.67700 Y-0.76900
X0.67600 Y-0.76900
X0.67600 Y-0.76700
X0.67500 Y-0.76700
X0.67500 Y-0.76200
X0.67400 Y-0.76200
X0.67400 Y-0.75700
X0.67300 Y-0.75700
X0.67300 Y-0.71200
X0.67400 Y-0.71200
X0.67400 Y-0.70700
X0.67500 Y-0.70700
X0.67500 Y-0.70200
X0.67600 Y-0.70200
X0.67600 Y-0.70000
X0.67700 Y-0.70000
X0.67700 Y-0.69900
X0.67800 Y-0.69900
X0.67800 Y-0.69800
X0.67900 Y-0.69800
X0.67900 Y-0.69600
X0.68000 Y-0.69600
X0.68000 Y-0.69500
X0.68100 Y-0.69500
X0.68100 Y-0.69300
X0.68200 Y-0.69300
X0.68200 Y-0.69200
X0.68300 Y-0.69200
X0.68300 Y-0.69100
X0.68500 Y-0.69100
X0.68500 Y-0.69000
X0.68700 Y-0.69000
X0.68700 Y-0.68900
X0.68800 Y-0.68900
X0.68800 Y-0.68800
X0.69000 Y-0.68800
X0.69000 Y-0.68700
X0.69200 Y-0.68700
X0.69200 Y-0.68600
X0.69500 Y-0.68600
X0.69500 Y-0.68500
X0.70100 Y-0.68500
X0.70100 Y-0.68400
X0.71800 Y-0.68400
X0.71800 Y-0.68500
X0.72400 Y-0.68500
X0.72400 Y-0.68600
X0.72700 Y-0.68600
X0.72700 Y-0.68700
X0.72900 Y-0.68700
X0.72900 Y-0.68800
X0.73100 Y-0.68800
X0.73100 Y-0.68900
X0.73200 Y-0.68900
X0.73200 Y-0.69000
G04 P0 ( dwell for no time -- G64 should not smooth over this point )
G00 Z0.10000 ( retract )

G00 X0.83200 Y-0.69000 ( rapid move to begin. )
G01 Z-0.00500 F3.50000 ( plunge. )
G04 P0 ( dwell for no time -- G64 should not smooth over this point )
X0.83200 Y-0.69000
X0.83400 Y-0.69000
X0.83400 Y-0.69100
X0.83600 Y-0.69100
X0.83600 Y-0.69200
X0.83700 Y-0.69200
X0.83700 Y-0.69300
X0.83800 Y-0.69300
X0.83800 Y-0.69500
X0.83900 Y-0.69500
X0.83900 Y-0.69600
X0.84000 Y-0.69600
X0.84000 Y-0.69800
X0.84100 Y-0.69800
X0.84100 Y-0.69900
X0.84200 Y-0.69900
X0.84200 Y-0.70000
X0.84300 Y-0.70000
X0.84300 Y-0.70200
X0.84400 Y-0.70200
X0.84400 Y-0.70700
X0.84500 Y-0.70700
X0.84500 Y-0.71200
X0.84600 Y-0.71200
X0.84600 Y-0.75700
X0.84500 Y-0.75700
X0.84500 Y-0.76200
X0.84400 Y-0.76200
X0.84400 Y-0.76700
X0.84300 Y-0.76700
X0.84300 Y-0.76900
X0.84200 Y-0.76900
X0.84200 Y-0.77000
X0.84100 Y-0.77000
X0.84100 Y-0.77100
X0.84000 Y-0.77100
X0.84000 Y-0.77300
X0.83900 Y-0.77300
X0.83900 Y-0.77400
X0.83800 Y-0.77400
X0.83800 Y-0.77600
X0.83700 Y-0.77600
X0.83700 Y-0.77700
X0.83600 Y-0.77700
X0.83600 Y-0.77800
X0.83400 Y-0.77800
X0.83400 Y-0.77900
X0.83200 Y-0.77900
X0.83200 Y-0.78000
X0.83100 Y-0.78000
X0.83100 Y-0.78100
X0.82900 Y-0.78100
X0.82900 Y-0.78200
X0.82700 Y-0.78200
X0.82700 Y-0.78300
X0.82400 Y-0.78300
X0.82400 Y-0.78400
X0.81800 Y-0.78400
X0.81800 Y-0.78500
X0.80100 Y-0.78500
X0.80100 Y-0.78400
X0.79500 Y-0.78400
X0.79500 Y-0.78300
X0.79200 Y-0.78300
X0.79200 Y-0.78200
X0.79000 Y-0.78200
X0.79000 Y-0.78100
X0.78800 Y-0.78100
X0.78800 Y-0.78000
X0.78700 Y-0.78000
X0.78700 Y-0.77900
X0.78500 Y-0.77900
X0.78500 Y-0.77800
X0.78300 Y-0.77800
X0.78300 Y-0.77700
X0.78200 Y-0.77700
X0.78200 Y-0.77600
X0.78100 Y-0.77600
X0.78100 Y-0.77400
X0.78000 Y-0.77400
X0.78000 Y-0.77300
X0.77900 Y-0.77300
X0.77900 Y-0.77100
X0.77800 Y-0.77100
X0.77800 Y-0.77000
X0.77700 Y-0.77000
X0.77700 Y-0.76900
X0.77600 Y-0.76900
X0.77600 Y-0.76700
X0.77500 Y-0.76700
X0.77500 Y-0.76200
X0.77400 Y-0.76200
X0.77400 Y-0.75700
X0.77300 Y-0.75700
X0.77300 Y-0.71200
X0.77400 Y-0.71200
X0.77400 Y-0.70700
X0.77500 Y-0.70700
X0.77500 Y-0.70200
X0.77600 Y-0.70200
X0.77600 Y-0.70000
X0.77700 Y-0.70000
X0.77700 Y-0.69900
X0.77800 Y-0.69900
X0.77800 Y-0.69800
X0.77900 Y-0.69800
X0.77900 Y-0.69600
X0.78000 Y-0.69600
X0.78000 Y-0.69500
X0.78100 Y-0.69500
X0.78100 Y-0.69300
X0.78200 Y-0.69300
X0.78200 Y-0.69200
X0.78300 Y-0.69200
X0.78300 Y-0.69100
X0.78500 Y-0.69100
X0.78500 Y-0.69000
X0.78700 Y-0.69000
X0.78700 Y-0.68900
X0.78800 Y-0.68900
X0.78800 Y-0.68800
X0.79000 Y-0.68800
X0.79000 Y-0.68700
X0.79200 Y-0.68700
X0.79200 Y-0.68600
X0.79500 Y-0.68600
X0.79500 Y-0.68500
X0.80100 Y-0.68500
X0.80100 Y-0.68400
X0.81800 Y-0.68400
X0.81800 Y-0.68500
X0.82400 Y-0.68500
X0.82400 Y-0.68600
X0.82700 Y-0.68600
X0.82700 Y-0.68700
X0.82900 Y-0.68700
X0.82900 Y-0.68800
X0.83100 Y-0.68800
X0.83100 Y-0.68900
X0.83200 Y-0.68900
X0.83200 Y-0.69000
G04 P0 ( dwell for no time -- G64 should not smooth over this point )
G00 Z0.10000 ( retract )

G00 X0.93200 Y-0.69000 ( rapid move to begin. )
G01 Z-0.00500 F3.50000 ( plunge. )
G04 P0 ( dwell for no time -- G64 should not smooth over this point )
X0.93200 Y-0.69000
X0.93400 Y-0.69000
X0.93400 Y-0.69100
X0.93600 Y-0.69100
X0.93600 Y-0.69200
X0.93700 Y-0.69200
X0.93700 Y-0.69300
X0.93800 Y-0.69300
X0.93800 Y-0.69500
X0.93900 Y-0.69500
X0.93900 Y-0.69600
X0.94000 Y-0.69600
X0.94000 Y-0.69800
X0.94100 Y-0.69800
X0.94100 Y-0.69900
X0.94200 Y-0.69900
X0.94200 Y-0.70000
X0.94300 Y-0.70000
X0.94300 Y-0.70200
X0.94400 Y-0.70200
X0.94400 Y-0.70700
X0.94500 Y-0.70700
X0.94500 Y-0.71200
X0.94600 Y-0.71200
X0.94600 Y-0.75700
X0.94500 Y-0.75700
X0.94500 Y-0.76200
X0.94400 Y-0.76200
X0.94400 Y-0.76700
X0.94300 Y-0.76700
X0.94300 Y-0.76900
X0.94200 Y-0.76900
X0.94200 Y-0.77000
X0.94100 Y-0.77000
X0.94100 Y-0.77100
X0.94000 Y-0.77100
X0.94000 Y-0.77300
X0.93900 Y-0.77300
X0.93900 Y-0.77400
X0.93800 Y-0.77400
X0.93800 Y-0.77600
X0.93700 Y-0.77600
X0.93700 Y-0.77700
X0.93600 Y-0.77700
X0.93600 Y-0.77800
X0.93400 Y-0.77800
X0.93400 Y-0.77900
X0.93200 Y-0.77900
X0.93200 Y-0.78000
X0.93100 Y-0.78000
X0.93100 Y-0.78100
X0.92900 Y-0.78100
X0.92900 Y-0.78200
X0.92700 Y-0.78200
X0.92700 Y-0.78300
X0.92400 Y-0.78300
X0.92400 Y-0.78400
X0.91800 Y-0.78400
X0.91800 Y-0.78500
X0.90100 Y-0.78500
X0.90100 Y-0.78400
X0.89500 Y-0.78400
X0.89500 Y-0.78300
X0.89200 Y-0.78300
X0.89200 Y-0.78200
X0.89000 Y-0.78200
X0.89000 Y-0.78100
X0.88800 Y-0.78100
X0.88800 Y-0.78000
X0.88700 Y-0.78000
X0.88700 Y-0.77900
X0.88500 Y-0.77900
X0.88500 Y-0.77800
X0.88300 Y-0.77800
X0.88300 Y-0.77700
X0.88200 Y-0.77700
X0.88200 Y-0.77600
X0.88100 Y-0.77600
X0.88100 Y-0.77400
X0.88000 Y-0.77400
X0.88000 Y-0.77300
X0.87900 Y-0.77300
X0.87900 Y-0.77100
X0.87800 Y-0.77100
X0.87800 Y-0.77000
X0.87700 Y-0.77000
X0.87700 Y-0.76900
X0.87600 Y-0.76900
X0.87600 Y-0.76700
X0.87500 Y-0.76700
X0.87500 Y-0.76200
X0.87400 Y-0.76200
X0.87400 Y-0.75700
X0.87300 Y-0.75700
X0.87300 Y-0.71200
X0.87400 Y-0.71200
X0.87400 Y-0.70700
X0.87500 Y-0.70700
X0.87500 Y-0.70200
X0.87600 Y-0.70200
X0.87600 Y-0.70000
X0.87700 Y-0.70000
X0.87700 Y-0.69900
X0.87800 Y-0.69900
X0.87800 Y-0.69800
X0.87900 Y-0.69800
X0.87900 Y-0.69600
X0.88000 Y-0.69600
X0.88000 Y-0.69500
X0.88100 Y-0.69500
X0.88100 Y-0.69300
X0.88200 Y-0.69300
X0.88200 Y-0.69200
X0.88300 Y-0.69200
X0.88300 Y-0.69100
X0.88500 Y-0.69100
X0.88500 Y-0.69000
X0.88700 Y-0.69000
X0.88700 Y-0.68900
X0.88800 Y-0.68900
X0.88800 Y-0.68800
X0.89000 Y-0.68800
X0.89000 Y-0.68700
X0.89200 Y-0.68700
X0.89200 Y-0.68600
X0.89500 Y-0.68600
X0.89500 Y-0.68500
X0.90100 Y-0.68500
X0.90100 Y-0.68400
X0.91800 Y-0.68400
X0.91800 Y-0.68500
X0.92400 Y-0.68500
X0.92400 Y-0.68600
X0.92700 Y-0.68600
X0.92700 Y-0.68700
X0.92900 Y-0.68700
X0.92900 Y-0.68800
X0.93100 Y-0.68800
X0.93100 Y-0.68900
X0.93200 Y-0.68900
X0.93200 Y-0.69000
G04 P0 ( dwell for no time -- G64 should not smooth over this point )
G00 Z0.10000 ( retract )

G00 X1.36700 Y-0.82300 ( rapid move to begin. )
G01 Z-0.00500 F3.50000 ( plunge. )
G04 P0 ( dwell for no time -- G64 should not smooth over this point )
X1.36700 Y-0.82300
X1.36900 Y-0.82300
X1.36900 Y-0.82400
X1.37000 Y-0.82400
X1.37000 Y-0.82600
X1.37100 Y-0.82600
X1.37100 Y-0.82700
X1.37200 Y-0.82700
X1.37200 Y-0.82800
X1.37300 Y-0.82800
X1.37300 Y-0.83000
X1.37400 Y-0.83000
X1.37400 Y-0.83100
X1.37500 Y-0.83100
X1.37500 Y-0.83400
X1.37600 Y-0.83400
X1.37600 Y-0.83900
X1.37700 Y-0.83900
X1.37700 Y-0.86000
X1.37600 Y-0.86000
X1.37600 Y-0.86500
X1.37500 Y-0.86500
X1.37500 Y-0.86800
X1.37400 Y-0.86800
X1.37400 Y-0.86900
X1.37300 Y-0.86900
X1.37300 Y-0.87100
X1.37200 Y-0.87100
X1.37200 Y-0.87200
X1.37100 Y-0.87200
X1.37100 Y-0.87300
X1.37000 Y-0.87300
X1.37000 Y-0.87500
X1.36900 Y-0.87500
X1.36900 Y-0.87600
X1.36700 Y-0.87600
X1.36700 Y-0.87700
X1.36600 Y-0.87700
X1.36600 Y-0.87800
X1.36400 Y-0.87800
X1.36400 Y-0.87900
X1.36200 Y-0.87900
X1.36200 Y-0.88000
X1.36100 Y-0.88000
X1.36100 Y-0.88100
X1.35600 Y-0.88100
X1.35600 Y-0.88200
X1.33300 Y-0.88200
X1.33300 Y-0.88100
X1.32800 Y-0.88100
X1.32800 Y-0.88000
X1.32700 Y-0.88000
X1.32700 Y-0.87900
X1.32500 Y-0.87900
X1.32500 Y-0.87800
X1.32300 Y-0.87800
X1.32300 Y-0.87700
X1.32200 Y-0.87700
X1.32200 Y-0.87600
X1.32000 Y-0.87600
X1.32000 Y-0.87500
X1.31900 Y-0.87500
X1.31900 Y-0.87300
X1.31800 Y-0.87300
X1.31800 Y-0.87200
X1.31700 Y-0.87200
X1.31700 Y-0.87100
X1.31600 Y-0.87100
X1.31600 Y-0.86900
X1.31500 Y-0.86900
X1.31500 Y-0.86800
X1.31400 Y-0.86800
X1.31400 Y-0.86500
X1.31300 Y-0.86500
X1.31300 Y-0.86000
X1.31200 Y-0.86000
X1.31200 Y-0.83900
X1.31300 Y-0.83900
X1.31300 Y-0.83400
X1.31400 Y-0.83400
X1.31400 Y-0.83100
X1.31500 Y-0.83100
X1.31500 Y-0.83000
X1.31600 Y-0.83000
X1.31600 Y-0.82800
X1.31700 Y-0.82800
X1.31700 Y-0.82700
X1.31800 Y-0.82700
X1.31800 Y-0.82600
X1.31900 Y-0.82600
X1.31900 Y-0.82400
X1.32000 Y-0.82400
X1.32000 Y-0.82300
X1.32200 Y-0.82300
X1.32200 Y-0.82200
X1.32300 Y-0.82200
X1.32300 Y-0.82100
X1.32500 Y-0.82100
X1.32500 Y-0.82000
X1.32700 Y-0.82000
X1.32700 Y-0.81900
X1.32800 Y-0.81900
X1.32800 Y-0.81800
X1.33300 Y-0.81800
X1.33300 Y-0.81700
X1.35600 Y-0.81700
X1.35600 Y-0.81800
X1.36100 Y-0.81800
X1.36100 Y-0.81900
X1.36200 Y-0.81900
X1.36200 Y-0.82000
X1.36400 Y-0.82000
X1.36400 Y-0.82100
X1.36600 Y-0.82100
X1.36600 Y-0.82200
X1.36700 Y-0.82200
X1.36700 Y-0.82300
G04 P0 ( dwell for no time -- G64 should not smooth over this point )
G00 Z0.10000 ( retract )

G00 X1.46700 Y-0.82300 ( rapid move to begin. )
G01 Z-0.00500 F3.50000 ( plunge. )
G04 P0 ( dwell for no time -- G64 should not smooth over this point )
X1.46700 Y-0.82300
X1.46900 Y-0.82300
X1.46900 Y-0.82400
X1.47000 Y-0.82400
X1.47000 Y-0.82600
X1.47100 Y-0.82600
X1.47100 Y-0.82700
X1.47200 Y-0.82700
X1.47200 Y-0.82800
X1.47300 Y-0.82800
X1.47300 Y-0.83000
X1.47400 Y-0.83000
X1.47400 Y-0.83100
X1.47500 Y-0.83100
X1.47500 Y-0.83400
X1.47600 Y-0.83400
X1.47600 Y-0.83900
X1.47700 Y-0.83900
X1.47700 Y-0.86000
X1.47600 Y-0.86000
X1.47600 Y-0.86500
X1.47500 Y-0.86500
X1.47500 Y-0.86800
X1.47400 Y-0.86800
X1.47400 Y-0.86900
X1.47300 Y-0.86900
X1.47300 Y-0.87100
X1.47200 Y-0.87100
X1.47200 Y-0.87200
X1.47100 Y-0.87200
X1.47100 Y-0.87300
X1.47000 Y-0.87300
X1.47000 Y-0.87500
X1.46900 Y-0.87500
X1.46900 Y-0.87600
X1.46700 Y-0.87600
X1.46700 Y-0.87700
X1.46600 Y-0.87700
X1.46600 Y-0.87800
X1.46400 Y-0.87800
X1.46400 Y-0.87900
X1.46200 Y-0.87900
X1.46200 Y-0.88000
X1.46100 Y-0.88000
X1.46100 Y-0.88100
X1.45600 Y-0.88100
X1.45600 Y-0.88200
X1.43300 Y-0.88200
X1.43300 Y-0.88100
X1.42800 Y-0.88100
X1.42800 Y-0.88000
X1.42700 Y-0.88000
X1.42700 Y-0.87900
X1.42500 Y-0.87900
X1.42500 Y-0.87800
X1.42300 Y-0.87800
X1.42300 Y-0.87700
X1.42200 Y-0.87700
X1.42200 Y-0.87600
X1.42000 Y-0.87600
X1.42000 Y-0.87500
X1.41900 Y-0.87500
X1.41900 Y-0.87300
X1.41800 Y-0.87300
X1.41800 Y-0.87200
X1.41700 Y-0.87200
X1.41700 Y-0.87100
X1.41600 Y-0.87100
X1.41600 Y-0.86900
X1.41500 Y-0.86900
X1.41500 Y-0.86800
X1.41400 Y-0.86800
X1.41400 Y-0.86500
X1.41300 Y-0.86500
X1.41300 Y-0.86000
X1.41200 Y-0.86000
X1.41200 Y-0.83900
X1.41300 Y-0.83900
X1.41300 Y-0.83400
X1.41400 Y-0.83400
X1.41400 Y-0.83100
X1.41500 Y-0.83100
X1.41500 Y-0.83000
X1.41600 Y-0.83000
X1.41600 Y-0.82800
X1.41700 Y-0.82800
X1.41700 Y-0.82700
X1.41800 Y-0.82700
X1.41800 Y-0.82600
X1.41900 Y-0.82600
X1.41900 Y-0.82400
X1.42000 Y-0.82400
X1.42000 Y-0.82300
X1.42200 Y-0.82300
X1.42200 Y-0.82200
X1.42300 Y-0.82200
X1.42300 Y-0.82100
X1.42500 Y-0.82100
X1.42500 Y-0.82000
X1.42700 Y-0.82000
X1.42700 Y-0.81900
X1.42800 Y-0.81900
X1.42800 Y-0.81800
X1.43300 Y-0.81800
X1.43300 Y-0.81700
X1.45600 Y-0.81700
X1.45600 Y-0.81800
X1.46100 Y-0.81800
X1.46100 Y-0.81900
X1.46200 Y-0.81900
X1.46200 Y-0.82000
X1.46400 Y-0.82000
X1.46400 Y-0.82100
X1.46600 Y-0.82100
X1.46600 Y-0.82200
X1.46700 Y-0.82200
X1.46700 Y-0.82300
G04 P0 ( dwell for no time -- G64 should not smooth over this point )
G00 Z0.10000 ( retract )

G00 X1.56700 Y-0.82300 ( rapid move to begin. )
G01 Z-0.00500 F3.50000 ( plunge. )
G04 P0 ( dwell for no time -- G64 should not smooth over this point )
X1.56700 Y-0.82300
X1.56900 Y-0.82300
X1.56900 Y-0.82400
X1.57000 Y-0.82400
X1.57000 Y-0.82600
X1.57100 Y-0.82600
X1.57100 Y-0.82700
X1.57200 Y-0.82700
X1.57200 Y-0.82800
X1.57300 Y-0.82800
X1.57300 Y-0.83000
X1.57400 Y-0.83000
X1.57400 Y-0.83100
X1.57500 Y-0.83100
X1.57500 Y-0.83400
X1.57600 Y-0.83400
X1.57600 Y-0.83900
X1.57700 Y-0.83900
X1.57700 Y-0.86000
X1.57600 Y-0.86000
X1.57600 Y-0.86500
X1.57500 Y-0.86500
X1.57500 Y-0.86800
X1.57400 Y-0.86800
X1.57400 Y-0.86900
X1.57300 Y-0.86900
X1.57300 Y-0.87100
X1.57200 Y-0.87100
X1.57200 Y-0.87200
X1.57100 Y-0.87200
X1.57100 Y-0.87300
X1.57000 Y-0.87300
X1.57000 Y-0.87500
X1.56900 Y-0.87500
X1.56900 Y-0.87600
X1.56700 Y-0.87600
X1.56700 Y-0.87700
X1.56600 Y-0.87700
X1.56600 Y-0.87800
X1.56400 Y-0.87800
X1.56400 Y-0.87900
X1.56200 Y-0.87900
X1.56200 Y-0.88000
X1.56100 Y-0.88000
X1.56100 Y-0.88100
X1.55600 Y-0.88100
X1.55600 Y-0.88200
X1.53300 Y-0.88200
X1.53300 Y-0.88100
X1.52800 Y-0.88100
X1.52800 Y-0.88000
X1.52700 Y-0.88000
X1.52700 Y-0.87900
X1.52500 Y-0.87900
X1.52500 Y-0.87800
X1.52300 Y-0.87800
X1.52300 Y-0.87700
X1.52200 Y-0.87700
X1.52200 Y-0.87600
X1.52000 Y-0.87600
X1.52000 Y-0.87500
X1.51900 Y-0.87500
X1.51900 Y-0.87300
X1.51800 Y-0.87300
X1.51800 Y-0.87200
X1.51700 Y-0.87200
X1.51700 Y-0.87100
X1.51600 Y-0.87100
X1.51600 Y-0.86900
X1.51500 Y-0.86900
X1.51500 Y-0.86800
X1.51400 Y-0.86800
X1.51400 Y-0.86500
X1.51300 Y-0.86500
X1.51300 Y-0.86000
X1.51200 Y-0.86000
X1.51200 Y-0.83900
X1.51300 Y-0.83900
X1.51300 Y-0.83400
X1.51400 Y-0.83400
X1.51400 Y-0.83100
X1.51500 Y-0.83100
X1.51500 Y-0.83000
X1.51600 Y-0.83000
X1.51600 Y-0.82800
X1.51700 Y-0.82800
X1.51700 Y-0.82700
X1.51800 Y-0.82700
X1.51800 Y-0.82600
X1.51900 Y-0.82600
X1.51900 Y-0.82400
X1.52000 Y-0.82400
X1.52000 Y-0.82300
X1.52200 Y-0.82300
X1.52200 Y-0.82200
X1.52300 Y-0.82200
X1.52300 Y-0.82100
X1.52500 Y-0.82100
X1.52500 Y-0.82000
X1.52700 Y-0.82000
X1.52700 Y-0.81900
X1.52800 Y-0.81900
X1.52800 Y-0.81800
X1.53300 Y-0.81800
X1.53300 Y-0.81700
X1.55600 Y-0.81700
X1.55600 Y-0.81800
X1.56100 Y-0.81800
X1.56100 Y-0.81900
X1.56200 Y-0.81900
X1.56200 Y-0.82000
X1.56400 Y-0.82000
X1.56400 Y-0.82100
X1.56600 Y-0.82100
X1.56600 Y-0.82200
X1.56700 Y-0.82200
X1.56700 Y-0.82300
G04 P0 ( dwell for no time -- G64 should not smooth over this point )
G00 Z0.10000 ( retract )

G00 X1.67700 Y-0.82300 ( rapid move to begin. )
G01 Z-0.00500 F3.50000 ( plunge. )
G04 P0 ( dwell for no time -- G64 should not smooth over this point )
X1.67700 Y-0.82300
X1.67700 Y-0.88200
X1.61200 Y-0.88200
X1.61200 Y-0.81700
X1.67700 Y-0.81700
X1.67700 Y-0.82300
G04 P0 ( dwell for no time -- G64 should not smooth over this point )
G00 Z0.10000 ( retract )

G00 X0.17700 Y-0.91300 ( rapid move to begin. )
G01 Z-0.00500 F3.50000 ( plunge. )
G04 P0 ( dwell for no time -- G64 should not smooth over this point )
X0.17700 Y-0.91300
X0.17700 Y-0.97200
X0.11200 Y-0.97200
X0.11200 Y-0.90700
X0.17700 Y-0.90700
X0.17700 Y-0.91300
G04 P0 ( dwell for no time -- G64 should not smooth over this point )
G00 Z0.10000 ( retract )

G00 X0.26700 Y-0.91300 ( rapid move to begin. )
G01 Z-0.00500 F3.50000 ( plunge. )
G04 P0 ( dwell for no time -- G64 should not smooth over this point )
X0.26700 Y-0.91300
X0.26900 Y-0.91300
X0.26900 Y-0.91400
X0.27000 Y-0.91400
X0.27000 Y-0.91600
X0.27100 Y-0.91600
X0.27100 Y-0.91700
X0.27200 Y-0.91700
X0.27200 Y-0.91800
X0.27300 Y-0.91800
X0.27300 Y-0.92000
X0.27400 Y-0.92000
X0.27400 Y-0.92100
X0.27500 Y-0.92100
X0.27500 Y-0.92400
X0.27600 Y-0.92400
X0.27600 Y-0.92900
X0.27700 Y-0.92900
X0.27700 Y-0.95000
X0.27600 Y-0.95000
X0.27600 Y-0.95500
X0.27500 Y-0.95500
X0.27500 Y-0.95800
X0.27400 Y-0.95800
X0.27400 Y-0.95900
X0.27300 Y-0.95900
X0.27300 Y-0.96100
X0.27200 Y-0.96100
X0.27200 Y-0.96200
X0.27100 Y-0.96200
X0.27100 Y-0.96300
X0.27000 Y-0.96300
X0.27000 Y-0.96500
X0.26900 Y-0.96500
X0.26900 Y-0.96600
X0.26700 Y-0.96600
X0.26700 Y-0.96700
X0.26600 Y-0.96700
X0.26600 Y-0.96800
X0.26400 Y-0.96800
X0.26400 Y-0.96900
X0.26200 Y-0.96900
X0.26200 Y-0.97000
X0.26100 Y-0.97000
X0.26100 Y-0.97100
X0.25600 Y-0.97100
X0.25600 Y-0.97200
X0.23300 Y-0.97200
X0.23300 Y-0.97100
X0.22800 Y-0.97100
X0.22800 Y-0.97000
X0.22700 Y-0.97000
X0.22700 Y-0.96900
X0.22500 Y-0.96900
X0.22500 Y-0.96800
X0.22300 Y-0.96800
X0.22300 Y-0.96700
X0.22200 Y-0.96700
X0.22200 Y-0.96600
X0.22000 Y-0.96600
X0.22000 Y-0.96500
X0.21900 Y-0.96500
X0.21900 Y-0.96300
X0.21800 Y-0.96300
X0.21800 Y-0.96200
X0.21700 Y-0.96200
X0.21700 Y-0.96100
X0.21600 Y-0.96100
X0.21600 Y-0.95900
X0.21500 Y-0.95900
X0.21500 Y-0.95800
X0.21400 Y-0.95800
X0.21400 Y-0.95500
X0.21300 Y-0.95500
X0.21300 Y-0.95000
X0.21200 Y-0.95000
X0.21200 Y-0.92900
X0.21300 Y-0.92900
X0.21300 Y-0.92400
X0.21400 Y-0.92400
X0.21400 Y-0.92100
X0.21500 Y-0.92100
X0.21500 Y-0.92000
X0.21600 Y-0.92000
X0.21600 Y-0.91800
X0.21700 Y-0.91800
X0.21700 Y-0.91700
X0.21800 Y-0.91700
X0.21800 Y-0.91600
X0.21900 Y-0.91600
X0.21900 Y-0.91400
X0.22000 Y-0.91400
X0.22000 Y-0.91300
X0.22200 Y-0.91300
X0.22200 Y-0.91200
X0.22300 Y-0.91200
X0.22300 Y-0.91100
X0.22500 Y-0.91100
X0.22500 Y-0.91000
X0.22700 Y-0.91000
X0.22700 Y-0.90900
X0.22800 Y-0.90900
X0.22800 Y-0.90800
X0.23300 Y-0.90800
X0.23300 Y-0.90700
X0.25600 Y-0.90700
X0.25600 Y-0.90800
X0.26100 Y-0.90800
X0.26100 Y-0.90900
X0.26200 Y-0.90900
X0.26200 Y-0.91000
X0.26400 Y-0.91000
X0.26400 Y-0.91100
X0.26600 Y-0.91100
X0.26600 Y-0.91200
X0.26700 Y-0.91200
X0.26700 Y-0.91300
G04 P0 ( dwell for no time -- G64 should not smooth over this point )
G00 Z0.10000 ( retract )

G00 X0.36700 Y-0.91300 ( rapid move to begin. )
G01 Z-0.00500 F3.50000 ( plunge. )
G04 P0 ( dwell for no time -- G64 should not smooth over this point )
X0.36700 Y-0.91300
X0.36900 Y-0.91300
X0.36900 Y-0.91400
X0.37000 Y-0.91400
X0.37000 Y-0.91600
X0.37100 Y-0.91600
X0.37100 Y-0.91700
X0.37200 Y-0.91700
X0.37200 Y-0.91800
X0.37300 Y-0.91800
X0.37300 Y-0.92000
X0.37400 Y-0.92000
X0.37400 Y-0.92100
X0.37500 Y-0.92100
X0.37500 Y-0.92400
X0.37600 Y-0.92400
X0.37600 Y-0.92900
X0.37700 Y-0.92900
X0.37700 Y-0.95000
X0.37600 Y-0.95000
X0.37600 Y-0.95500
X0.37500 Y-0.95500
X0.37500 Y-0.95800
X0.37400 Y-0.95800
X0.37400 Y-0.95900
X0.37300 Y-0.95900
X0.37300 Y-0.96100
X0.37200 Y-0.96100
X0.37200 Y-0.96200
X0.37100 Y-0.96200
X0.37100 Y-0.96300
X0.37000 Y-0.96300
X0.37000 Y-0.96500
X0.36900 Y-0.96500
X0.36900 Y-0.96600
X0.36700 Y-0.96600
X0.36700 Y-0.96700
X0.36600 Y-0.96700
X0.36600 Y-0.96800
X0.36400 Y-0.96800
X0.36400 Y-0.96900
X0.36200 Y-0.96900
X0.36200 Y-0.97000
X0.36100 Y-0.97000
X0.36100 Y-0.97100
X0.35600 Y-0.97100
X0.35600 Y-0.97200
X0.33300 Y-0.97200
X0.33300 Y-0.97100
X0.32800 Y-0.97100
X0.32800 Y-0.97000
X0.32700 Y-0.97000
X0.32700 Y-0.96900
X0.32500 Y-0.96900
X0.32500 Y-0.96800
X0.32300 Y-0.96800
X0.32300 Y-0.96700
X0.32200 Y-0.96700
X0.32200 Y-0.96600
X0.32000 Y-0.96600
X0.32000 Y-0.96500
X0.31900 Y-0.96500
X0.31900 Y-0.96300
X0.31800 Y-0.96300
X0.31800 Y-0.96200
X0.31700 Y-0.96200
X0.31700 Y-0.96100
X0.31600 Y-0.96100
X0.31600 Y-0.95900
X0.31500 Y-0.95900
X0.31500 Y-0.95800
X0.31400 Y-0.95800
X0.31400 Y-0.95500
X0.31300 Y-0.95500
X0.31300 Y-0.95000
X0.31200 Y-0.95000
X0.31200 Y-0.92900
X0.31300 Y-0.92900
X0.31300 Y-0.92400
X0.31400 Y-0.92400
X0.31400 Y-0.92100
X0.31500 Y-0.92100
X0.31500 Y-0.92000
X0.31600 Y-0.92000
X0.31600 Y-0.91800
X0.31700 Y-0.91800
X0.31700 Y-0.91700
X0.31800 Y-0.91700
X0.31800 Y-0.91600
X0.31900 Y-0.91600
X0.31900 Y-0.91400
X0.32000 Y-0.91400
X0.32000 Y-0.91300
X0.32200 Y-0.91300
X0.32200 Y-0.91200
X0.32300 Y-0.91200
X0.32300 Y-0.91100
X0.32500 Y-0.91100
X0.32500 Y-0.91000
X0.32700 Y-0.91000
X0.32700 Y-0.90900
X0.32800 Y-0.90900
X0.32800 Y-0.90800
X0.33300 Y-0.90800
X0.33300 Y-0.90700
X0.35600 Y-0.90700
X0.35600 Y-0.90800
X0.36100 Y-0.90800
X0.36100 Y-0.90900
X0.36200 Y-0.90900
X0.36200 Y-0.91000
X0.36400 Y-0.91000
X0.36400 Y-0.91100
X0.36600 Y-0.91100
X0.36600 Y-0.91200
X0.36700 Y-0.91200
X0.36700 Y-0.91300
G04 P0 ( dwell for no time -- G64 should not smooth over this point )
G00 Z0.10000 ( retract )

G00 X0.46700 Y-0.91300 ( rapid move to begin. )
G01 Z-0.00500 F3.50000 ( plunge. )
G04 P0 ( dwell for no time -- G64 should not smooth over this point )
X0.46700 Y-0.91300
X0.46900 Y-0.91300
X0.46900 Y-0.91400
X0.47000 Y-0.91400
X0.47000 Y-0.91600
X0.47100 Y-0.91600
X0.47100 Y-0.91700
X0.47200 Y-0.91700
X0.47200 Y-0.91800
X0.47300 Y-0.91800
X0.47300 Y-0.92000
X0.47400 Y-0.92000
X0.47400 Y-0.92100
X0.47500 Y-0.92100
X0.47500 Y-0.92400
X0.47600 Y-0.92400
X0.47600 Y-0.92900
X0.47700 Y-0.92900
X0.47700 Y-0.95000
X0.47600 Y-0.95000
X0.47600 Y-0.95500
X0.47500 Y-0.95500
X0.47500 Y-0.95800
X0.47400 Y-0.95800
X0.47400 Y-0.95900
X0.47300 Y-0.95900
X0.47300 Y-0.96100
X0.47200 Y-0.96100
X0.47200 Y-0.96200
X0.47100 Y-0.96200
X0.47100 Y-0.96300
X0.47000 Y-0.96300
X0.47000 Y-0.96500
X0.46900 Y-0.96500
X0.46900 Y-0.96600
X0.46700 Y-0.96600
X0.46700 Y-0.96700
X0.46600 Y-0.96700
X0.46600 Y-0.96800
X0.46400 Y-0.96800
X0.46400 Y-0.96900
X0.46200 Y-0.96900
X0.46200 Y-0.97000
X0.46100 Y-0.97000
X0.46100 Y-0.97100
X0.45600 Y-0.97100
X0.45600 Y-0.97200
X0.43300 Y-0.97200
X0.43300 Y-0.97100
X0.42800 Y-0.97100
X0.42800 Y-0.97000
X0.42700 Y-0.97000
X0.42700 Y-0.96900
X0.42500 Y-0.96900
X0.42500 Y-0.96800
X0.42300 Y-0.96800
X0.42300 Y-0.96700
X0.42200 Y-0.96700
X0.42200 Y-0.96600
X0.42000 Y-0.96600
X0.42000 Y-0.96500
X0.41900 Y-0.96500
X0.41900 Y-0.96300
X0.41800 Y-0.96300
X0.41800 Y-0.96200
X0.41700 Y-0.96200
X0.41700 Y-0.96100
X0.41600 Y-0.96100
X0.41600 Y-0.95900
X0.41500 Y-0.95900
X0.41500 Y-0.95800
X0.41400 Y-0.95800
X0.41400 Y-0.95500
X0.41300 Y-0.95500
X0.41300 Y-0.95000
X0.41200 Y-0.95000
X0.41200 Y-0.92900
X0.41300 Y-0.92900
X0.41300 Y-0.92400
X0.41400 Y-0.92400
X0.41400 Y-0.92100
X0.41500 Y-0.92100
X0.41500 Y-0.92000
X0.41600 Y-0.92000
X0.41600 Y-0.91800
X0.41700 Y-0.91800
X0.41700 Y-0.91700
X0.41800 Y-0.91700
X0.41800 Y-0.91600
X0.41900 Y-0.91600
X0.41900 Y-0.91400
X0.42000 Y-0.91400
X0.42000 Y-0.91300
X0.42200 Y-0.91300
X0.42200 Y-0.91200
X0.42300 Y-0.91200
X0.42300 Y-0.91100
X0.42500 Y-0.91100
X0.42500 Y-0.91000
X0.42700 Y-0.91000
X0.42700 Y-0.90900
X0.42800 Y-0.90900
X0.42800 Y-0.90800
X0.43300 Y-0.90800
X0.43300 Y-0.90700
X0.45600 Y-0.90700
X0.45600 Y-0.90800
X0.46100 Y-0.90800
X0.46100 Y-0.90900
X0.46200 Y-0.90900
X0.46200 Y-0.91000
X0.46400 Y-0.91000
X0.46400 Y-0.91100
X0.46600 Y-0.91100
X0.46600 Y-0.91200
X0.46700 Y-0.91200
X0.46700 Y-0.91300
G04 P0 ( dwell for no time -- G64 should not smooth over this point )
G00 Z0.10000 ( retract )

G00 X0.56700 Y-0.91300 ( rapid move to begin. )
G01 Z-0.00500 F3.50000 ( plunge. )
G04 P0 ( dwell for no time -- G64 should not smooth over this point )
X0.56700 Y-0.91300
X0.56900 Y-0.91300
X0.56900 Y-0.91400
X0.57000 Y-0.91400
X0.57000 Y-0.91600
X0.57100 Y-0.91600
X0.57100 Y-0.91700
X0.57200 Y-0.91700
X0.57200 Y-0.91800
X0.57300 Y-0.91800
X0.57300 Y-0.92000
X0.57400 Y-0.92000
X0.57400 Y-0.92100
X0.57500 Y-0.92100
X0.57500 Y-0.92400
X0.57600 Y-0.92400
X0.57600 Y-0.92900
X0.57700 Y-0.92900
X0.57700 Y-0.95000
X0.57600 Y-0.95000
X0.57600 Y-0.95500
X0.57500 Y-0.95500
X0.57500 Y-0.95800
X0.57400 Y-0.95800
X0.57400 Y-0.95900
X0.57300 Y-0.95900
X0.57300 Y-0.96100
X0.57200 Y-0.96100
X0.57200 Y-0.96200
X0.57100 Y-0.96200
X0.57100 Y-0.96300
X0.57000 Y-0.96300
X0.57000 Y-0.96500
X0.56900 Y-0.96500
X0.56900 Y-0.96600
X0.56700 Y-0.96600
X0.56700 Y-0.96700
X0.56600 Y-0.96700
X0.56600 Y-0.96800
X0.56400 Y-0.96800
X0.56400 Y-0.96900
X0.56200 Y-0.96900
X0.56200 Y-0.97000
X0.56100 Y-0.97000
X0.56100 Y-0.97100
X0.55600 Y-0.97100
X0.55600 Y-0.97200
X0.53300 Y-0.97200
X0.53300 Y-0.97100
X0.52800 Y-0.97100
X0.52800 Y-0.97000
X0.52700 Y-0.97000
X0.52700 Y-0.96900
X0.52500 Y-0.96900
X0.52500 Y-0.96800
X0.52300 Y-0.96800
X0.52300 Y-0.96700
X0.52200 Y-0.96700
X0.52200 Y-0.96600
X0.52000 Y-0.96600
X0.52000 Y-0.96500
X0.51900 Y-0.96500
X0.51900 Y-0.96300
X0.51800 Y-0.96300
X0.51800 Y-0.96200
X0.51700 Y-0.96200
X0.51700 Y-0.96100
X0.51600 Y-0.96100
X0.51600 Y-0.95900
X0.51500 Y-0.95900
X0.51500 Y-0.95800
X0.51400 Y-0.95800
X0.51400 Y-0.95500
X0.51300 Y-0.95500
X0.51300 Y-0.95000
X0.51200 Y-0.95000
X0.51200 Y-0.92900
X0.51300 Y-0.92900
X0.51300 Y-0.92400
X0.51400 Y-0.92400
X0.51400 Y-0.92100
X0.51500 Y-0.92100
X0.51500 Y-0.92000
X0.51600 Y-0.92000
X0.51600 Y-0.91800
X0.51700 Y-0.91800
X0.51700 Y-0.91700
X0.51800 Y-0.91700
X0.51800 Y-0.91600
X0.51900 Y-0.91600
X0.51900 Y-0.91400
X0.52000 Y-0.91400
X0.52000 Y-0.91300
X0.52200 Y-0.91300
X0.52200 Y-0.91200
X0.52300 Y-0.91200
X0.52300 Y-0.91100
X0.52500 Y-0.91100
X0.52500 Y-0.91000
X0.52700 Y-0.91000
X0.52700 Y-0.90900
X0.52800 Y-0.90900
X0.52800 Y-0.90800
X0.53300 Y-0.90800
X0.53300 Y-0.90700
X0.55600 Y-0.90700
X0.55600 Y-0.90800
X0.56100 Y-0.90800
X0.56100 Y-0.90900
X0.56200 Y-0.90900
X0.56200 Y-0.91000
X0.56400 Y-0.91000
X0.56400 Y-0.91100
X0.56600 Y-0.91100
X0.56600 Y-0.91200
X0.56700 Y-0.91200
X0.56700 Y-0.91300
G04 P0 ( dwell for no time -- G64 should not smooth over this point )
G00 Z0.10000 ( retract )

G00 X0.66700 Y-0.91300 ( rapid move to begin. )
G01 Z-0.00500 F3.50000 ( plunge. )
G04 P0 ( dwell for no time -- G64 should not smooth over this point )
X0.66700 Y-0.91300
X0.66900 Y-0.91300
X0.66900 Y-0.91400
X0.67000 Y-0.91400
X0.67000 Y-0.91600
X0.67100 Y-0.91600
X0.67100 Y-0.91700
X0.67200 Y-0.91700
X0.67200 Y-0.91800
X0.67300 Y-0.91800
X0.67300 Y-0.92000
X0.67400 Y-0.92000
X0.67400 Y-0.92100
X0.67500 Y-0.92100
X0.67500 Y-0.92400
X0.67600 Y-0.92400
X0.67600 Y-0.92900
X0.67700 Y-0.92900
X0.67700 Y-0.95000
X0.67600 Y-0.95000
X0.67600 Y-0.95500
X0.67500 Y-0.95500
X0.67500 Y-0.95800
X0.67400 Y-0.95800
X0.67400 Y-0.95900
X0.67300 Y-0.95900
X0.67300 Y-0.96100
X0.67200 Y-0.96100
X0.67200 Y-0.96200
X0.67100 Y-0.96200
X0.67100 Y-0.96300
X0.67000 Y-0.96300
X0.67000 Y-0.96500
X0.66900 Y-0.96500
X0.66900 Y-0.96600
X0.66700 Y-0.96600
X0.66700 Y-0.96700
X0.66600 Y-0.96700
X0.66600 Y-0.96800
X0.66400 Y-0.96800
X0.66400 Y-0.96900
X0.66200 Y-0.96900
X0.66200 Y-0.97000
X0.66100 Y-0.97000
X0.66100 Y-0.97100
X0.65600 Y-0.97100
X0.65600 Y-0.97200
X0.63300 Y-0.97200
X0.63300 Y-0.97100
X0.62800 Y-0.97100
X0.62800 Y-0.97000
X0.62700 Y-0.97000
X0.62700 Y-0.96900
X0.62500 Y-0.96900
X0.62500 Y-0.96800
X0.62300 Y-0.96800
X0.62300 Y-0.96700
X0.62200 Y-0.96700
X0.62200 Y-0.96600
X0.62000 Y-0.96600
X0.62000 Y-0.96500
X0.61900 Y-0.96500
X0.61900 Y-0.96300
X0.61800 Y-0.96300
X0.61800 Y-0.96200
X0.61700 Y-0.96200
X0.61700 Y-0.96100
X0.61600 Y-0.96100
X0.61600 Y-0.95900
X0.61500 Y-0.95900
X0.61500 Y-0.95800
X0.61400 Y-0.95800
X0.61400 Y-0.95500
X0.61300 Y-0.95500
X0.61300 Y-0.95000
X0.61200 Y-0.95000
X0.61200 Y-0.92900
X0.61300 Y-0.92900
X0.61300 Y-0.92400
X0.61400 Y-0.92400
X0.61400 Y-0.92100
X0.61500 Y-0.92100
X0.61500 Y-0.92000
X0.61600 Y-0.92000
X0.61600 Y-0.91800
X0.61700 Y-0.91800
X0.61700 Y-0.91700
X0.61800 Y-0.91700
X0.61800 Y-0.91600
X0.61900 Y-0.91600
X0.61900 Y-0.91400
X0.62000 Y-0.91400
X0.62000 Y-0.91300
X0.62200 Y-0.91300
X0.62200 Y-0.91200
X0.62300 Y-0.91200
X0.62300 Y-0.91100
X0.62500 Y-0.91100
X0.62500 Y-0.91000
X0.62700 Y-0.91000
X0.62700 Y-0.90900
X0.62800 Y-0.90900
X0.62800 Y-0.90800
X0.63300 Y-0.90800
X0.63300 Y-0.90700
X0.65600 Y-0.90700
X0.65600 Y-0.90800
X0.66100 Y-0.90800
X0.66100 Y-0.90900
X0.66200 Y-0.90900
X0.66200 Y-0.91000
X0.66400 Y-0.91000
X0.66400 Y-0.91100
X0.66600 Y-0.91100
X0.66600 Y-0.91200
X0.66700 Y-0.91200
X0.66700 Y-0.91300
G04 P0 ( dwell for no time -- G64 should not smooth over this point )
G00 Z0.10000 ( retract )

G00 X0.87700 Y-0.98500 ( rapid move to begin. )
G01 Z-0.00500 F3.50000 ( plunge. )
G04 P0 ( dwell for no time -- G64 should not smooth over this point )
X0.87700 Y-0.98500
X0.87900 Y-0.98500
X0.87900 Y-0.98600
X0.88100 Y-0.98600
X0.88100 Y-0.98700
X0.88200 Y-0.98700
X0.88200 Y-0.98800
X0.88300 Y-0.98800
X0.88300 Y-0.99000
X0.88400 Y-0.99000
X0.88400 Y-0.99100
X0.88500 Y-0.99100
X0.88500 Y-0.99300
X0.88600 Y-0.99300
X0.88600 Y-0.99400
X0.88700 Y-0.99400
X0.88700 Y-0.99500
X0.88800 Y-0.99500
X0.88800 Y-0.99700
X0.88900 Y-0.99700
X0.88900 Y-1.00200
X0.89000 Y-1.00200
X0.89000 Y-1.00700
X0.89100 Y-1.00700
X0.89100 Y-1.05200
X0.89000 Y-1.05200
X0.89000 Y-1.05700
X0.88900 Y-1.05700
X0.88900 Y-1.06200
X0.88800 Y-1.06200
X0.88800 Y-1.06400
X0.88700 Y-1.06400
X0.88700 Y-1.06500
X0.88600 Y-1.06500
X0.88600 Y-1.06600
X0.88500 Y-1.06600
X0.88500 Y-1.06800
X0.88400 Y-1.06800
X0.88400 Y-1.06900
X0.88300 Y-1.06900
X0.88300 Y-1.07100
X0.88200 Y-1.07100
X0.88200 Y-1.07200
X0.88100 Y-1.07200
X0.88100 Y-1.07300
X0.87900 Y-1.07300
X0.87900 Y-1.07400
X0.87700 Y-1.07400
X0.87700 Y-1.07500
X0.87600 Y-1.07500
X0.87600 Y-1.07600
X0.87400 Y-1.07600
X0.87400 Y-1.07700
X0.87200 Y-1.07700
X0.87200 Y-1.07800
X0.86900 Y-1.07800
X0.86900 Y-1.07900
X0.86300 Y-1.07900
X0.86300 Y-1.08000
X0.84600 Y-1.08000
X0.84600 Y-1.07900
X0.84000 Y-1.07900
X0.84000 Y-1.07800
X0.83700 Y-1.07800
X0.83700 Y-1.07700
X0.83500 Y-1.07700
X0.83500 Y-1.07600
X0.83300 Y-1.07600
X0.83300 Y-1.07500
X0.83200 Y-1.07500
X0.83200 Y-1.07400
X0.83000 Y-1.07400
X0.83000 Y-1.07300
X0.82800 Y-1.07300
X0.82800 Y-1.07200
X0.82700 Y-1.07200
X0.82700 Y-1.07100
X0.82600 Y-1.07100
X0.82600 Y-1.06900
X0.82500 Y-1.06900
X0.82500 Y-1.06800
X0.82400 Y-1.06800
X0.82400 Y-1.06600
X0.82300 Y-1.06600
X0.82300 Y-1.06500
X0.82200 Y-1.06500
X0.82200 Y-1.06400
X0.82100 Y-1.06400
X0.82100 Y-1.06200
X0.82000 Y-1.06200
X0.82000 Y-1.05700
X0.81900 Y-1.05700
X0.81900 Y-1.05200
X0.81800 Y-1.05200
X0.81800 Y-1.00700
X0.81900 Y-1.00700
X0.81900 Y-1.00200
X0.82000 Y-1.00200
X0.82000 Y-0.99700
X0.82100 Y-0.99700
X0.82100 Y-0.99500
X0.82200 Y-0.99500
X0.82200 Y-0.99400
X0.82300 Y-0.99400
X0.82300 Y-0.99300
X0.82400 Y-0.99300
X0.82400 Y-0.99100
X0.82500 Y-0.99100
X0.82500 Y-0.99000
X0.82600 Y-0.99000
X0.82600 Y-0.98800
X0.82700 Y-0.98800
X0.82700 Y-0.98700
X0.82800 Y-0.98700
X0.82800 Y-0.98600
X0.83000 Y-0.98600
X0.83000 Y-0.98500
X0.83200 Y-0.98500
X0.83200 Y-0.98400
X0.83300 Y-0.98400
X0.83300 Y-0.98300
X0.83500 Y-0.98300
X0.83500 Y-0.98200
X0.83700 Y-0.98200
X0.83700 Y-0.98100
X0.84000 Y-0.98100
X0.84000 Y-0.98000
X0.84600 Y-0.98000
X0.84600 Y-0.97900
X0.86300 Y-0.97900
X0.86300 Y-0.98000
X0.86900 Y-0.98000
X0.86900 Y-0.98100
X0.87200 Y-0.98100
X0.87200 Y-0.98200
X0.87400 Y-0.98200
X0.87400 Y-0.98300
X0.87600 Y-0.98300
X0.87600 Y-0.98400
X0.87700 Y-0.98400
X0.87700 Y-0.98500
G04 P0 ( dwell for no time -- G64 should not smooth over this point )
G00 Z0.10000 ( retract )

G00 X0.97700 Y-0.98500 ( rapid move to begin. )
G01 Z-0.00500 F3.50000 ( plunge. )
G04 P0 ( dwell for no time -- G64 should not smooth over this point )
X0.97700 Y-0.98500
X0.97900 Y-0.98500
X0.97900 Y-0.98600
X0.98100 Y-0.98600
X0.98100 Y-0.98700
X0.98200 Y-0.98700
X0.98200 Y-0.98800
X0.98300 Y-0.98800
X0.98300 Y-0.99000
X0.98400 Y-0.99000
X0.98400 Y-0.99100
X0.98500 Y-0.99100
X0.98500 Y-0.99300
X0.98600 Y-0.99300
X0.98600 Y-0.99400
X0.98700 Y-0.99400
X0.98700 Y-0.99500
X0.98800 Y-0.99500
X0.98800 Y-0.99700
X0.98900 Y-0.99700
X0.98900 Y-1.00200
X0.99000 Y-1.00200
X0.99000 Y-1.00700
X0.99100 Y-1.00700
X0.99100 Y-1.05200
X0.99000 Y-1.05200
X0.99000 Y-1.05700
X0.98900 Y-1.05700
X0.98900 Y-1.06200
X0.98800 Y-1.06200
X0.98800 Y-1.06400
X0.98700 Y-1.06400
X0.98700 Y-1.06500
X0.98600 Y-1.06500
X0.98600 Y-1.06600
X0.98500 Y-1.06600
X0.98500 Y-1.06800
X0.98400 Y-1.06800
X0.98400 Y-1.06900
X0.98300 Y-1.06900
X0.98300 Y-1.07100
X0.98200 Y-1.07100
X0.98200 Y-1.07200
X0.98100 Y-1.07200
X0.98100 Y-1.07300
X0.97900 Y-1.07300
X0.97900 Y-1.07400
X0.97700 Y-1.07400
X0.97700 Y-1.07500
X0.97600 Y-1.07500
X0.97600 Y-1.07600
X0.97400 Y-1.07600
X0.97400 Y-1.07700
X0.97200 Y-1.07700
X0.97200 Y-1.07800
X0.96900 Y-1.07800
X0.96900 Y-1.07900
X0.96300 Y-1.07900
X0.96300 Y-1.08000
X0.94600 Y-1.08000
X0.94600 Y-1.07900
X0.94000 Y-1.07900
X0.94000 Y-1.07800
X0.93700 Y-1.07800
X0.93700 Y-1.07700
X0.93500 Y-1.07700
X0.93500 Y-1.07600
X0.93300 Y-1.07600
X0.93300 Y-1.07500
X0.93200 Y-1.07500
X0.93200 Y-1.07400
X0.93000 Y-1.07400
X0.93000 Y-1.07300
X0.92800 Y-1.07300
X0.92800 Y-1.07200
X0.92700 Y-1.07200
X0.92700 Y-1.07100
X0.92600 Y-1.07100
X0.92600 Y-1.06900
X0.92500 Y-1.06900
X0.92500 Y-1.06800
X0.92400 Y-1.06800
X0.92400 Y-1.06600
X0.92300 Y-1.06600
X0.92300 Y-1.06500
X0.92200 Y-1.06500
X0.92200 Y-1.06400
X0.92100 Y-1.06400
X0.92100 Y-1.06200
X0.92000 Y-1.06200
X0.92000 Y-1.05700
X0.91900 Y-1.05700
X0.91900 Y-1.05200
X0.91800 Y-1.05200
X0.91800 Y-1.00700
X0.91900 Y-1.00700
X0.91900 Y-1.00200
X0.92000 Y-1.00200
X0.92000 Y-0.99700
X0.92100 Y-0.99700
X0.92100 Y-0.99500
X0.92200 Y-0.99500
X0.92200 Y-0.99400
X0.92300 Y-0.99400
X0.92300 Y-0.99300
X0.92400 Y-0.99300
X0.92400 Y-0.99100
X0.92500 Y-0.99100
X0.92500 Y-0.99000
X0.92600 Y-0.99000
X0.92600 Y-0.98800
X0.92700 Y-0.98800
X0.92700 Y-0.98700
X0.92800 Y-0.98700
X0.92800 Y-0.98600
X0.93000 Y-0.98600
X0.93000 Y-0.98500
X0.93200 Y-0.98500
X0.93200 Y-0.98400
X0.93300 Y-0.98400
X0.93300 Y-0.98300
X0.93500 Y-0.98300
X0.93500 Y-0.98200
X0.93700 Y-0.98200
X0.93700 Y-0.98100
X0.94000 Y-0.98100
X0.94000 Y-0.98000
X0.94600 Y-0.98000
X0.94600 Y-0.97900
X0.96300 Y-0.97900
X0.96300 Y-0.98000
X0.96900 Y-0.98000
X0.96900 Y-0.98100
X0.97200 Y-0.98100
X0.97200 Y-0.98200
X0.97400 Y-0.98200
X0.97400 Y-0.98300
X0.97600 Y-0.98300
X0.97600 Y-0.98400
X0.97700 Y-0.98400
X0.97700 Y-0.98500
G04 P0 ( dwell for no time -- G64 should not smooth over this point )
G00 Z0.10000 ( retract )

G00 X1.07700 Y-0.98500 ( rapid move to begin. )
G01 Z-0.00500 F3.50000 ( plunge. )
G04 P0 ( dwell for no time -- G64 should not smooth over this point )
X1.07700 Y-0.98500
X1.07900 Y-0.98500
X1.07900 Y-0.98600
X1.08100 Y-0.98600
X1.08100 Y-0.98700
X1.08200 Y-0.98700
X1.08200 Y-0.98800
X1.08300 Y-0.98800
X1.08300 Y-0.99000
X1.08400 Y-0.99000
X1.08400 Y-0.99100
X1.08500 Y-0.99100
X1.08500 Y-0.99300
X1.08600 Y-0.99300
X1.08600 Y-0.99400
X1.08700 Y-0.99400
X1.08700 Y-0.99500
X1.08800 Y-0.99500
X1.08800 Y-0.99700
X1.08900 Y-0.99700
X1.08900 Y-1.00200
X1.09000 Y-1.00200
X1.09000 Y-1.00700
X1.09100 Y-1.00700
X1.09100 Y-1.05200
X1.09000 Y-1.05200
X1.09000 Y-1.05700
X1.08900 Y-1.05700
X1.08900 Y-1.06200
X1.08800 Y-1.06200
X1.08800 Y-1.06400
X1.08700 Y-1.06400
X1.08700 Y-1.06500
X1.08600 Y-1.06500
X1.08600 Y-1.06600
X1.08500 Y-1.06600
X1.08500 Y-1.06800
X1.08400 Y-1.06800
X1.08400 Y-1.06900
X1.08300 Y-1.06900
X1.08300 Y-1.07100
X1.08200 Y-1.07100
X1.08200 Y-1.07200
X1.08100 Y-1.07200
X1.08100 Y-1.07300
X1.07900 Y-1.07300
X1.07900 Y-1.07400
X1.07700 Y-1.07400
X1.07700 Y-1.07500
X1.07600 Y-1.07500
X1.07600 Y-1.07600
X1.07400 Y-1.07600
X1.07400 Y-1.07700
X1.07200 Y-1.07700
X1.07200 Y-1.07800
X1.06900 Y-1.07800
X1.06900 Y-1.07900
X1.06300 Y-1.07900
X1.06300 Y-1.08000
X1.04600 Y-1.08000
X1.04600 Y-1.07900
X1.04000 Y-1.07900
X1.04000 Y-1.07800
X1.03700 Y-1.07800
X1.03700 Y-1.07700
X1.03500 Y-1.07700
X1.03500 Y-1.07600
X1.03300 Y-1.07600
X1.03300 Y-1.07500
X1.03200 Y-1.07500
X1.03200 Y-1.07400
X1.03000 Y-1.07400
X1.03000 Y-1.07300
X1.02800 Y-1.07300
X1.02800 Y-1.07200
X1.02700 Y-1.07200
X1.02700 Y-1.07100
X1.02600 Y-1.07100
X1.02600 Y-1.06900
X1.02500 Y-1.06900
X1.02500 Y-1.06800
X1.02400 Y-1.06800
X1.02400 Y-1.06600
X1.02300 Y-1.06600
X1.02300 Y-1.06500
X1.02200 Y-1.06500
X1.02200 Y-1.06400
X1.02100 Y-1.06400
X1.02100 Y-1.06200
X1.02000 Y-1.06200
X1.02000 Y-1.05700
X1.01900 Y-1.05700
X1.01900 Y-1.05200
X1.01800 Y-1.05200
X1.01800 Y-1.00700
X1.01900 Y-1.00700
X1.01900 Y-1.00200
X1.02000 Y-1.00200
X1.02000 Y-0.99700
X1.02100 Y-0.99700
X1.02100 Y-0.99500
X1.02200 Y-0.99500
X1.02200 Y-0.99400
X1.02300 Y-0.99400
X1.02300 Y-0.99300
X1.02400 Y-0.99300
X1.02400 Y-0.99100
X1.02500 Y-0.99100
X1.02500 Y-0.99000
X1.02600 Y-0.99000
X1.02600 Y-0.98800
X1.02700 Y-0.98800
X1.02700 Y-0.98700
X1.02800 Y-0.98700
X1.02800 Y-0.98600
X1.03000 Y-0.98600
X1.03000 Y-0.98500
X1.03200 Y-0.98500
X1.03200 Y-0.98400
X1.03300 Y-0.98400
X1.03300 Y-0.98300
X1.03500 Y-0.98300
X1.03500 Y-0.98200
X1.03700 Y-0.98200
X1.03700 Y-0.98100
X1.04000 Y-0.98100
X1.04000 Y-0.98000
X1.04600 Y-0.98000
X1.04600 Y-0.97900
X1.06300 Y-0.97900
X1.06300 Y-0.98000
X1.06900 Y-0.98000
X1.06900 Y-0.98100
X1.07200 Y-0.98100
X1.07200 Y-0.98200
X1.07400 Y-0.98200
X1.07400 Y-0.98300
X1.07600 Y-0.98300
X1.07600 Y-0.98400
X1.07700 Y-0.98400
X1.07700 Y-0.98500
G04 P0 ( dwell for no time -- G64 should not smooth over this point )
G00 Z0.10000 ( retract )

G00 X1.17700 Y-0.98500 ( rapid move to begin. )
G01 Z-0.00500 F3.50000 ( plunge. )
G04 P0 ( dwell for no time -- G64 should not smooth over this point )
X1.17700 Y-0.98500
X1.17900 Y-0.98500
X1.17900 Y-0.98600
X1.18100 Y-0.98600
X1.18100 Y-0.98700
X1.18200 Y-0.98700
X1.18200 Y-0.98800
X1.18300 Y-0.98800
X1.18300 Y-0.99000
X1.18400 Y-0.99000
X1.18400 Y-0.99100
X1.18500 Y-0.99100
X1.18500 Y-0.99300
X1.18600 Y-0.99300
X1.18600 Y-0.99400
X1.18700 Y-0.99400
X1.18700 Y-0.99500
X1.18800 Y-0.99500
X1.18800 Y-0.99700
X1.18900 Y-0.99700
X1.18900 Y-1.00200
X1.19000 Y-1.00200
X1.19000 Y-1.00700
X1.19100 Y-1.00700
X1.19100 Y-1.05200
X1.19000 Y-1.05200
X1.19000 Y-1.05700
X1.18900 Y-1.05700
X1.18900 Y-1.06200
X1.18800 Y-1.06200
X1.18800 Y-1.06400
X1.18700 Y-1.06400
X1.18700 Y-1.06500
X1.18600 Y-1.06500
X1.18600 Y-1.06600
X1.18500 Y-1.06600
X1.18500 Y-1.06800
X1.18400 Y-1.06800
X1.18400 Y-1.06900
X1.18300 Y-1.06900
X1.18300 Y-1.07100
X1.18200 Y-1.07100
X1.18200 Y-1.07200
X1.18100 Y-1.07200
X1.18100 Y-1.07300
X1.17900 Y-1.07300
X1.17900 Y-1.07400
X1.17700 Y-1.07400
X1.17700 Y-1.07500
X1.17600 Y-1.07500
X1.17600 Y-1.07600
X1.17400 Y-1.07600
X1.17400 Y-1.07700
X1.17200 Y-1.07700
X1.17200 Y-1.07800
X1.16900 Y-1.07800
X1.16900 Y-1.07900
X1.16300 Y-1.07900
X1.16300 Y-1.08000
X1.14600 Y-1.08000
X1.14600 Y-1.07900
X1.14000 Y-1.07900
X1.14000 Y-1.07800
X1.13700 Y-1.07800
X1.13700 Y-1.07700
X1.13500 Y-1.07700
X1.13500 Y-1.07600
X1.13300 Y-1.07600
X1.13300 Y-1.07500
X1.13200 Y-1.07500
X1.13200 Y-1.07400
X1.13000 Y-1.07400
X1.13000 Y-1.07300
X1.12800 Y-1.07300
X1.12800 Y-1.07200
X1.12700 Y-1.07200
X1.12700 Y-1.07100
X1.12600 Y-1.07100
X1.12600 Y-1.06900
X1.12500 Y-1.06900
X1.12500 Y-1.06800
X1.12400 Y-1.06800
X1.12400 Y-1.06600
X1.12300 Y-1.06600
X1.12300 Y-1.06500
X1.12200 Y-1.06500
X1.12200 Y-1.06400
X1.12100 Y-1.06400
X1.12100 Y-1.06200
X1.12000 Y-1.06200
X1.12000 Y-1.05700
X1.11900 Y-1.05700
X1.11900 Y-1.05200
X1.11800 Y-1.05200
X1.11800 Y-1.00700
X1.11900 Y-1.00700
X1.11900 Y-1.00200
X1.12000 Y-1.00200
X1.12000 Y-0.99700
X1.12100 Y-0.99700
X1.12100 Y-0.99500
X1.12200 Y-0.99500
X1.12200 Y-0.99400
X1.12300 Y-0.99400
X1.12300 Y-0.99300
X1.12400 Y-0.99300
X1.12400 Y-0.99100
X1.12500 Y-0.99100
X1.12500 Y-0.99000
X1.12600 Y-0.99000
X1.12600 Y-0.98800
X1.12700 Y-0.98800
X1.12700 Y-0.98700
X1.12800 Y-0.98700
X1.12800 Y-0.98600
X1.13000 Y-0.98600
X1.13000 Y-0.98500
X1.13200 Y-0.98500
X1.13200 Y-0.98400
X1.13300 Y-0.98400
X1.13300 Y-0.98300
X1.13500 Y-0.98300
X1.13500 Y-0.98200
X1.13700 Y-0.98200
X1.13700 Y-0.98100
X1.14000 Y-0.98100
X1.14000 Y-0.98000
X1.14600 Y-0.98000
X1.14600 Y-0.97900
X1.16300 Y-0.97900
X1.16300 Y-0.98000
X1.16900 Y-0.98000
X1.16900 Y-0.98100
X1.17200 Y-0.98100
X1.17200 Y-0.98200
X1.17400 Y-0.98200
X1.17400 Y-0.98300
X1.17600 Y-0.98300
X1.17600 Y-0.98400
X1.17700 Y-0.98400
X1.17700 Y-0.98500
G04 P0 ( dwell for no time -- G64 should not smooth over this point )
G00 Z0.10000 ( retract )

G00 X1.46700 Y-1.01800 ( rapid move to begin. )
G01 Z-0.00500 F3.50000 ( plunge. )
G04 P0 ( dwell for no time -- G64 should not smooth over this point )
X1.46700 Y-1.01800
X1.46900 Y-1.01800
X1.46900 Y-1.01900
X1.47000 Y-1.01900
X1.47000 Y-1.02100
X1.47100 Y-1.02100
X1.47100 Y-1.02200
X1.47200 Y-1.02200
X1.47200 Y-1.02300
X1.47300 Y-1.02300
X1.47300 Y-1.02500
X1.47400 Y-1.02500
X1.47400 Y-1.02600
X1.47500 Y-1.02600
X1.47500 Y-1.02900
X1.47600 Y-1.02900
X1.47600 Y-1.03400
X1.47700 Y-1.03400
X1.47700 Y-1.05500
X1.47600 Y-1.05500
X1.47600 Y-1.06000
X1.47500 Y-1.06000
X1.47500 Y-1.06300
X1.47400 Y-1.06300
X1.47400 Y-1.06400
X1.47300 Y-1.06400
X1.47300 Y-1.06600
X1.47200 Y-1.06600
X1.47200 Y-1.06700
X1.47100 Y-1.06700
X1.47100 Y-1.06800
X1.47000 Y-1.06800
X1.47000 Y-1.07000
X1.46900 Y-1.07000
X1.46900 Y-1.07100
X1.46700 Y-1.07100
X1.46700 Y-1.07200
X1.46600 Y-1.07200
X1.46600 Y-1.07300
X1.46400 Y-1.07300
X1.46400 Y-1.07400
X1.46200 Y-1.07400
X1.46200 Y-1.07500
X1.46100 Y-1.07500
X1.46100 Y-1.07600
X1.45600 Y-1.07600
X1.45600 Y-1.07700
X1.43300 Y-1.07700
X1.43300 Y-1.07600
X1.42800 Y-1.07600
X1.42800 Y-1.07500
X1.42700 Y-1.07500
X1.42700 Y-1.07400
X1.42500 Y-1.07400
X1.42500 Y-1.07300
X1.42300 Y-1.07300
X1.42300 Y-1.07200
X1.42200 Y-1.07200
X1.42200 Y-1.07100
X1.42000 Y-1.07100
X1.42000 Y-1.07000
X1.41900 Y-1.07000
X1.41900 Y-1.06800
X1.41800 Y-1.06800
X1.41800 Y-1.06700
X1.41700 Y-1.06700
X1.41700 Y-1.06600
X1.41600 Y-1.06600
X1.41600 Y-1.06400
X1.41500 Y-1.06400
X1.41500 Y-1.06300
X1.41400 Y-1.06300
X1.41400 Y-1.06000
X1.41300 Y-1.06000
X1.41300 Y-1.05500
X1.41200 Y-1.05500
X1.41200 Y-1.03400
X1.41300 Y-1.03400
X1.41300 Y-1.02900
X1.41400 Y-1.02900
X1.41400 Y-1.02600
X1.41500 Y-1.02600
X1.41500 Y-1.02500
X1.41600 Y-1.02500
X1.41600 Y-1.02300
X1.41700 Y-1.02300
X1.41700 Y-1.02200
X1.41800 Y-1.02200
X1.41800 Y-1.02100
X1.41900 Y-1.02100
X1.41900 Y-1.01900
X1.42000 Y-1.01900
X1.42000 Y-1.01800
X1.42200 Y-1.01800
X1.42200 Y-1.01700
X1.42300 Y-1.01700
X1.42300 Y-1.01600
X1.42500 Y-1.01600
X1.42500 Y-1.01500
X1.42700 Y-1.01500
X1.42700 Y-1.01400
X1.42800 Y-1.01400
X1.42800 Y-1.01300
X1.43300 Y-1.01300
X1.43300 Y-1.01200
X1.45600 Y-1.01200
X1.45600 Y-1.01300
X1.46100 Y-1.01300
X1.46100 Y-1.01400
X1.46200 Y-1.01400
X1.46200 Y-1.01500
X1.46400 Y-1.01500
X1.46400 Y-1.01600
X1.46600 Y-1.01600
X1.46600 Y-1.01700
X1.46700 Y-1.01700
X1.46700 Y-1.01800
G04 P0 ( dwell for no time -- G64 should not smooth over this point )
G00 Z0.10000 ( retract )

G00 X1.56700 Y-1.01800 ( rapid move to begin. )
G01 Z-0.00500 F3.50000 ( plunge. )
G04 P0 ( dwell for no time -- G64 should not smooth over this point )
X1.56700 Y-1.01800
X1.56900 Y-1.01800
X1.56900 Y-1.01900
X1.57000 Y-1.01900
X1.57000 Y-1.02100
X1.57100 Y-1.02100
X1.57100 Y-1.02200
X1.57200 Y-1.02200
X1.57200 Y-1.02300
X1.57300 Y-1.02300
X1.57300 Y-1.02500
X1.57400 Y-1.02500
X1.57400 Y-1.02600
X1.57500 Y-1.02600
X1.57500 Y-1.02900
X1.57600 Y-1.02900
X1.57600 Y-1.03400
X1.57700 Y-1.03400
X1.57700 Y-1.05500
X1.57600 Y-1.05500
X1.57600 Y-1.06000
X1.57500 Y-1.06000
X1.57500 Y-1.06300
X1.57400 Y-1.06300
X1.57400 Y-1.06400
X1.57300 Y-1.06400
X1.57300 Y-1.06600
X1.57200 Y-1.06600
X1.57200 Y-1.06700
X1.57100 Y-1.06700
X1.57100 Y-1.06800
X1.57000 Y-1.06800
X1.57000 Y-1.07000
X1.56900 Y-1.07000
X1.56900 Y-1.07100
X1.56700 Y-1.07100
X1.56700 Y-1.07200
X1.56600 Y-1.07200
X1.56600 Y-1.07300
X1.56400 Y-1.07300
X1.56400 Y-1.07400
X1.56200 Y-1.07400
X1.56200 Y-1.07500
X1.56100 Y-1.07500
X1.56100 Y-1.07600
X1.55600 Y-1.07600
X1.55600 Y-1.07700
X1.53300 Y-1.07700
X1.53300 Y-1.07600
X1.52800 Y-1.07600
X1.52800 Y-1.07500
X1.52700 Y-1.07500
X1.52700 Y-1.07400
X1.52500 Y-1.07400
X1.52500 Y-1.07300
X1.52300 Y-1.07300
X1.52300 Y-1.07200
X1.52200 Y-1.07200
X1.52200 Y-1.07100
X1.52000 Y-1.07100
X1.52000 Y-1.07000
X1.51900 Y-1.07000
X1.51900 Y-1.06800
X1.51800 Y-1.06800
X1.51800 Y-1.06700
X1.51700 Y-1.06700
X1.51700 Y-1.06600
X1.51600 Y-1.06600
X1.51600 Y-1.06400
X1.51500 Y-1.06400
X1.51500 Y-1.06300
X1.51400 Y-1.06300
X1.51400 Y-1.06000
X1.51300 Y-1.06000
X1.51300 Y-1.05500
X1.51200 Y-1.05500
X1.51200 Y-1.03400
X1.51300 Y-1.03400
X1.51300 Y-1.02900
X1.51400 Y-1.02900
X1.51400 Y-1.02600
X1.51500 Y-1.02600
X1.51500 Y-1.02500
X1.51600 Y-1.02500
X1.51600 Y-1.02300
X1.51700 Y-1.02300
X1.51700 Y-1.02200
X1.51800 Y-1.02200
X1.51800 Y-1.02100
X1.51900 Y-1.02100
X1.51900 Y-1.01900
X1.52000 Y-1.01900
X1.52000 Y-1.01800
X1.52200 Y-1.01800
X1.52200 Y-1.01700
X1.52300 Y-1.01700
X1.52300 Y-1.01600
X1.52500 Y-1.01600
X1.52500 Y-1.01500
X1.52700 Y-1.01500
X1.52700 Y-1.01400
X1.52800 Y-1.01400
X1.52800 Y-1.01300
X1.53300 Y-1.01300
X1.53300 Y-1.01200
X1.55600 Y-1.01200
X1.55600 Y-1.01300
X1.56100 Y-1.01300
X1.56100 Y-1.01400
X1.56200 Y-1.01400
X1.56200 Y-1.01500
X1.56400 Y-1.01500
X1.56400 Y-1.01600
X1.56600 Y-1.01600
X1.56600 Y-1.01700
X1.56700 Y-1.01700
X1.56700 Y-1.01800
G04 P0 ( dwell for no time -- G64 should not smooth over this point )
G00 Z0.10000 ( retract )

G00 X1.67700 Y-1.01800 ( rapid move to begin. )
G01 Z-0.00500 F3.50000 ( plunge. )
G04 P0 ( dwell for no time -- G64 should not smooth over this point )
X1.67700 Y-1.01800
X1.67700 Y-1.07700
X1.61200 Y-1.07700
X1.61200 Y-1.01200
X1.67700 Y-1.01200
X1.67700 Y-1.01800
G04 P0 ( dwell for no time -- G64 should not smooth over this point )
G00 Z0.10000 ( retract )

G00 X1.46700 Y-1.21800 ( rapid move to begin. )
G01 Z-0.00500 F3.50000 ( plunge. )
G04 P0 ( dwell for no time -- G64 should not smooth over this point )
X1.46700 Y-1.21800
X1.46900 Y-1.21800
X1.46900 Y-1.21900
X1.47000 Y-1.21900
X1.47000 Y-1.22100
X1.47100 Y-1.22100
X1.47100 Y-1.22200
X1.47200 Y-1.22200
X1.47200 Y-1.22300
X1.47300 Y-1.22300
X1.47300 Y-1.22500
X1.47400 Y-1.22500
X1.47400 Y-1.22600
X1.47500 Y-1.22600
X1.47500 Y-1.22900
X1.47600 Y-1.22900
X1.47600 Y-1.23400
X1.47700 Y-1.23400
X1.47700 Y-1.25500
X1.47600 Y-1.25500
X1.47600 Y-1.26000
X1.47500 Y-1.26000
X1.47500 Y-1.26300
X1.47400 Y-1.26300
X1.47400 Y-1.26400
X1.47300 Y-1.26400
X1.47300 Y-1.26600
X1.47200 Y-1.26600
X1.47200 Y-1.26700
X1.47100 Y-1.26700
X1.47100 Y-1.26800
X1.47000 Y-1.26800
X1.47000 Y-1.27000
X1.46900 Y-1.27000
X1.46900 Y-1.27100
X1.46700 Y-1.27100
X1.46700 Y-1.27200
X1.46600 Y-1.27200
X1.46600 Y-1.27300
X1.46400 Y-1.27300
X1.46400 Y-1.27400
X1.46200 Y-1.27400
X1.46200 Y-1.27500
X1.46100 Y-1.27500
X1.46100 Y-1.27600
X1.45600 Y-1.27600
X1.45600 Y-1.27700
X1.43300 Y-1.27700
X1.43300 Y-1.27600
X1.42800 Y-1.27600
X1.42800 Y-1.27500
X1.42700 Y-1.27500
X1.42700 Y-1.27400
X1.42500 Y-1.27400
X1.42500 Y-1.27300
X1.42300 Y-1.27300
X1.42300 Y-1.27200
X1.42200 Y-1.27200
X1.42200 Y-1.27100
X1.42000 Y-1.27100
X1.42000 Y-1.27000
X1.41900 Y-1.27000
X1.41900 Y-1.26800
X1.41800 Y-1.26800
X1.41800 Y-1.26700
X1.41700 Y-1.26700
X1.41700 Y-1.26600
X1.41600 Y-1.26600
X1.41600 Y-1.26400
X1.41500 Y-1.26400
X1.41500 Y-1.26300
X1.41400 Y-1.26300
X1.41400 Y-1.26000
X1.41300 Y-1.26000
X1.41300 Y-1.25500
X1.41200 Y-1.25500
X1.41200 Y-1.23400
X1.41300 Y-1.23400
X1.41300 Y-1.22900
X1.41400 Y-1.22900
X1.41400 Y-1.22600
X1.41500 Y-1.22600
X1.41500 Y-1.22500
X1.41600 Y-1.22500
X1.41600 Y-1.22300
X1.41700 Y-1.22300
X1.41700 Y-1.22200
X1.41800 Y-1.22200
X1.41800 Y-1.22100
X1.41900 Y-1.22100
X1.41900 Y-1.21900
X1.42000 Y-1.21900
X1.42000 Y-1.21800
X1.42200 Y-1.21800
X1.42200 Y-1.21700
X1.42300 Y-1.21700
X1.42300 Y-1.21600
X1.42500 Y-1.21600
X1.42500 Y-1.21500
X1.42700 Y-1.21500
X1.42700 Y-1.21400
X1.42800 Y-1.21400
X1.42800 Y-1.21300
X1.43300 Y-1.21300
X1.43300 Y-1.21200
X1.45600 Y-1.21200
X1.45600 Y-1.21300
X1.46100 Y-1.21300
X1.46100 Y-1.21400
X1.46200 Y-1.21400
X1.46200 Y-1.21500
X1.46400 Y-1.21500
X1.46400 Y-1.21600
X1.46600 Y-1.21600
X1.46600 Y-1.21700
X1.46700 Y-1.21700
X1.46700 Y-1.21800
G04 P0 ( dwell for no time -- G64 should not smooth over this point )
G00 Z0.10000 ( retract )

G00 X1.56700 Y-1.21800 ( rapid move to begin. )
G01 Z-0.00500 F3.50000 ( plunge. )
G04 P0 ( dwell for no time -- G64 should not smooth over this point )
X1.56700 Y-1.21800
X1.56900 Y-1.21800
X1.56900 Y-1.21900
X1.57000 Y-1.21900
X1.57000 Y-1.22100
X1.57100 Y-1.22100
X1.57100 Y-1.22200
X1.57200 Y-1.22200
X1.57200 Y-1.22300
X1.57300 Y-1.22300
X1.57300 Y-1.22500
X1.57400 Y-1.22500
X1.57400 Y-1.22600
X1.57500 Y-1.22600
X1.57500 Y-1.22900
X1.57600 Y-1.22900
X1.57600 Y-1.23400
X1.57700 Y-1.23400
X1.57700 Y-1.25500
X1.57600 Y-1.25500
X1.57600 Y-1.26000
X1.57500 Y-1.26000
X1.57500 Y-1.26300
X1.57400 Y-1.26300
X1.57400 Y-1.26400
X1.57300 Y-1.26400
X1.57300 Y-1.26600
X1.57200 Y-1.26600
X1.57200 Y-1.26700
X1.57100 Y-1.26700
X1.57100 Y-1.26800
X1.57000 Y-1.26800
X1.57000 Y-1.27000
X1.56900 Y-1.27000
X1.56900 Y-1.27100
X1.56700 Y-1.27100
X1.56700 Y-1.27200
X1.56600 Y-1.27200
X1.56600 Y-1.27300
X1.56400 Y-1.27300
X1.56400 Y-1.27400
X1.56200 Y-1.27400
X1.56200 Y-1.27500
X1.56100 Y-1.27500
X1.56100 Y-1.27600
X1.55600 Y-1.27600
X1.55600 Y-1.27700
X1.53300 Y-1.27700
X1.53300 Y-1.27600
X1.52800 Y-1.27600
X1.52800 Y-1.27500
X1.52700 Y-1.27500
X1.52700 Y-1.27400
X1.52500 Y-1.27400
X1.52500 Y-1.27300
X1.52300 Y-1.27300
X1.52300 Y-1.27200
X1.52200 Y-1.27200
X1.52200 Y-1.27100
X1.52000 Y-1.27100
X1.52000 Y-1.27000
X1.51900 Y-1.27000
X1.51900 Y-1.26800
X1.51800 Y-1.26800
X1.51800 Y-1.26700
X1.51700 Y-1.26700
X1.51700 Y-1.26600
X1.51600 Y-1.26600
X1.51600 Y-1.26400
X1.51500 Y-1.26400
X1.51500 Y-1.26300
X1.51400 Y-1.26300
X1.51400 Y-1.26000
X1.51300 Y-1.26000
X1.51300 Y-1.25500
X1.51200 Y-1.25500
X1.51200 Y-1.23400
X1.51300 Y-1.23400
X1.51300 Y-1.22900
X1.51400 Y-1.22900
X1.51400 Y-1.22600
X1.51500 Y-1.22600
X1.51500 Y-1.22500
X1.51600 Y-1.22500
X1.51600 Y-1.22300
X1.51700 Y-1.22300
X1.51700 Y-1.22200
X1.51800 Y-1.22200
X1.51800 Y-1.22100
X1.51900 Y-1.22100
X1.51900 Y-1.21900
X1.52000 Y-1.21900
X1.52000 Y-1.21800
X1.52200 Y-1.21800
X1.52200 Y-1.21700
X1.52300 Y-1.21700
X1.52300 Y-1.21600
X1.52500 Y-1.21600
X1.52500 Y-1.21500
X1.52700 Y-1.21500
X1.52700 Y-1.21400
X1.52800 Y-1.21400
X1.52800 Y-1.21300
X1.53300 Y-1.21300
X1.53300 Y-1.21200
X1.55600 Y-1.21200
X1.55600 Y-1.21300
X1.56100 Y-1.21300
X1.56100 Y-1.21400
X1.56200 Y-1.21400
X1.56200 Y-1.21500
X1.56400 Y-1.21500
X1.56400 Y-1.21600
X1.56600 Y-1.21600
X1.56600 Y-1.21700
X1.56700 Y-1.21700
X1.56700 Y-1.21800
G04 P0 ( dwell for no time -- G64 should not smooth over this point )
G00 Z0.10000 ( retract )

G00 X1.67700 Y-1.21800 ( rapid move to begin. )
G01 Z-0.00500 F3.50000 ( plunge. )
G04 P0 ( dwell for no time -- G64 should not smooth over this point )
X1.67700 Y-1.21800
X1.67700 Y-1.27700
X1.61200 Y-1.27700
X1.61200 Y-1.21200
X1.67700 Y-1.21200
X1.67700 Y-1.21800
G04 P0 ( dwell for no time -- G64 should not smooth over this point )
G00 Z0.10000 ( retract )

G00 X0.16700 Y-1.23300 ( rapid move to begin. )
G01 Z-0.00500 F3.50000 ( plunge. )
G04 P0 ( dwell for no time -- G64 should not smooth over this point )
X0.16700 Y-1.23300
X0.16900 Y-1.23300
X0.16900 Y-1.23400
X0.17000 Y-1.23400
X0.17000 Y-1.23600
X0.17100 Y-1.23600
X0.17100 Y-1.23700
X0.17200 Y-1.23700
X0.17200 Y-1.23800
X0.17300 Y-1.23800
X0.17300 Y-1.24000
X0.17400 Y-1.24000
X0.17400 Y-1.24100
X0.17500 Y-1.24100
X0.17500 Y-1.24400
X0.17600 Y-1.24400
X0.17600 Y-1.24900
X0.17700 Y-1.24900
X0.17700 Y-1.27000
X0.17600 Y-1.27000
X0.17600 Y-1.27500
X0.17500 Y-1.27500
X0.17500 Y-1.27800
X0.17400 Y-1.27800
X0.17400 Y-1.27900
X0.17300 Y-1.27900
X0.17300 Y-1.28100
X0.17200 Y-1.28100
X0.17200 Y-1.28200
X0.17100 Y-1.28200
X0.17100 Y-1.28300
X0.17000 Y-1.28300
X0.17000 Y-1.28500
X0.16900 Y-1.28500
X0.16900 Y-1.28600
X0.16700 Y-1.28600
X0.16700 Y-1.28700
X0.16600 Y-1.28700
X0.16600 Y-1.28800
X0.16400 Y-1.28800
X0.16400 Y-1.28900
X0.16200 Y-1.28900
X0.16200 Y-1.29000
X0.16100 Y-1.29000
X0.16100 Y-1.29100
X0.15600 Y-1.29100
X0.15600 Y-1.29200
X0.13300 Y-1.29200
X0.13300 Y-1.29100
X0.12800 Y-1.29100
X0.12800 Y-1.29000
X0.12700 Y-1.29000
X0.12700 Y-1.28900
X0.12500 Y-1.28900
X0.12500 Y-1.28800
X0.12300 Y-1.28800
X0.12300 Y-1.28700
X0.12200 Y-1.28700
X0.12200 Y-1.28600
X0.12000 Y-1.28600
X0.12000 Y-1.28500
X0.11900 Y-1.28500
X0.11900 Y-1.28300
X0.11800 Y-1.28300
X0.11800 Y-1.28200
X0.11700 Y-1.28200
X0.11700 Y-1.28100
X0.11600 Y-1.28100
X0.11600 Y-1.27900
X0.11500 Y-1.27900
X0.11500 Y-1.27800
X0.11400 Y-1.27800
X0.11400 Y-1.27500
X0.11300 Y-1.27500
X0.11300 Y-1.27000
X0.11200 Y-1.27000
X0.11200 Y-1.24900
X0.11300 Y-1.24900
X0.11300 Y-1.24400
X0.11400 Y-1.24400
X0.11400 Y-1.24100
X0.11500 Y-1.24100
X0.11500 Y-1.24000
X0.11600 Y-1.24000
X0.11600 Y-1.23800
X0.11700 Y-1.23800
X0.11700 Y-1.23700
X0.11800 Y-1.23700
X0.11800 Y-1.23600
X0.11900 Y-1.23600
X0.11900 Y-1.23400
X0.12000 Y-1.23400
X0.12000 Y-1.23300
X0.12200 Y-1.23300
X0.12200 Y-1.23200
X0.12300 Y-1.23200
X0.12300 Y-1.23100
X0.12500 Y-1.23100
X0.12500 Y-1.23000
X0.12700 Y-1.23000
X0.12700 Y-1.22900
X0.12800 Y-1.22900
X0.12800 Y-1.22800
X0.13300 Y-1.22800
X0.13300 Y-1.22700
X0.15600 Y-1.22700
X0.15600 Y-1.22800
X0.16100 Y-1.22800
X0.16100 Y-1.22900
X0.16200 Y-1.22900
X0.16200 Y-1.23000
X0.16400 Y-1.23000
X0.16400 Y-1.23100
X0.16600 Y-1.23100
X0.16600 Y-1.23200
X0.16700 Y-1.23200
X0.16700 Y-1.23300
G04 P0 ( dwell for no time -- G64 should not smooth over this point )
G00 Z0.10000 ( retract )

G00 X0.46700 Y-1.23300 ( rapid move to begin. )
G01 Z-0.00500 F3.50000 ( plunge. )
G04 P0 ( dwell for no time -- G64 should not smooth over this point )
X0.46700 Y-1.23300
X0.46900 Y-1.23300
X0.46900 Y-1.23400
X0.47000 Y-1.23400
X0.47000 Y-1.23600
X0.47100 Y-1.23600
X0.47100 Y-1.23700
X0.47200 Y-1.23700
X0.47200 Y-1.23800
X0.47300 Y-1.23800
X0.47300 Y-1.24000
X0.47400 Y-1.24000
X0.47400 Y-1.24100
X0.47500 Y-1.24100
X0.47500 Y-1.24400
X0.47600 Y-1.24400
X0.47600 Y-1.24900
X0.47700 Y-1.24900
X0.47700 Y-1.27000
X0.47600 Y-1.27000
X0.47600 Y-1.27500
X0.47500 Y-1.27500
X0.47500 Y-1.27800
X0.47400 Y-1.27800
X0.47400 Y-1.27900
X0.47300 Y-1.27900
X0.47300 Y-1.28100
X0.47200 Y-1.28100
X0.47200 Y-1.28200
X0.47100 Y-1.28200
X0.47100 Y-1.28300
X0.47000 Y-1.28300
X0.47000 Y-1.28500
X0.46900 Y-1.28500
X0.46900 Y-1.28600
X0.46700 Y-1.28600
X0.46700 Y-1.28700
X0.46600 Y-1.28700
X0.46600 Y-1.28800
X0.46400 Y-1.28800
X0.46400 Y-1.28900
X0.46200 Y-1.28900
X0.46200 Y-1.29000
X0.46100 Y-1.29000
X0.46100 Y-1.29100
X0.45600 Y-1.29100
X0.45600 Y-1.29200
X0.43300 Y-1.29200
X0.43300 Y-1.29100
X0.42800 Y-1.29100
X0.42800 Y-1.29000
X0.42700 Y-1.29000
X0.42700 Y-1.28900
X0.42500 Y-1.28900
X0.42500 Y-1.28800
X0.42300 Y-1.28800
X0.42300 Y-1.28700
X0.42200 Y-1.28700
X0.42200 Y-1.28600
X0.42000 Y-1.28600
X0.42000 Y-1.28500
X0.41900 Y-1.28500
X0.41900 Y-1.28300
X0.41800 Y-1.28300
X0.41800 Y-1.28200
X0.41700 Y-1.28200
X0.41700 Y-1.28100
X0.41600 Y-1.28100
X0.41600 Y-1.27900
X0.41500 Y-1.27900
X0.41500 Y-1.27800
X0.41400 Y-1.27800
X0.41400 Y-1.27500
X0.41300 Y-1.27500
X0.41300 Y-1.27000
X0.41200 Y-1.27000
X0.41200 Y-1.24900
X0.41300 Y-1.24900
X0.41300 Y-1.24400
X0.41400 Y-1.24400
X0.41400 Y-1.24100
X0.41500 Y-1.24100
X0.41500 Y-1.24000
X0.41600 Y-1.24000
X0.41600 Y-1.23800
X0.41700 Y-1.23800
X0.41700 Y-1.23700
X0.41800 Y-1.23700
X0.41800 Y-1.23600
X0.41900 Y-1.23600
X0.41900 Y-1.23400
X0.42000 Y-1.23400
X0.42000 Y-1.23300
X0.42200 Y-1.23300
X0.42200 Y-1.23200
X0.42300 Y-1.23200
X0.42300 Y-1.23100
X0.42500 Y-1.23100
X0.42500 Y-1.23000
X0.42700 Y-1.23000
X0.42700 Y-1.22900
X0.42800 Y-1.22900
X0.42800 Y-1.22800
X0.43300 Y-1.22800
X0.43300 Y-1.22700
X0.45600 Y-1.22700
X0.45600 Y-1.22800
X0.46100 Y-1.22800
X0.46100 Y-1.22900
X0.46200 Y-1.22900
X0.46200 Y-1.23000
X0.46400 Y-1.23000
X0.46400 Y-1.23100
X0.46600 Y-1.23100
X0.46600 Y-1.23200
X0.46700 Y-1.23200
X0.46700 Y-1.23300
G04 P0 ( dwell for no time -- G64 should not smooth over this point )
G00 Z0.10000 ( retract )

G00 X0.89100 Y-1.28500 ( rapid move to begin. )
G01 Z-0.00500 F3.50000 ( plunge. )
G04 P0 ( dwell for no time -- G64 should not smooth over this point )
X0.89100 Y-1.28500
X0.89100 Y-1.38000
X0.81800 Y-1.38000
X0.81800 Y-1.27900
