( pcb2gcode 1.1.4 )

( This file uses 1 drill bit sizes. )

G94     ( Inches per minute feed rate. )
G20     ( Units == INCHES.             )
G90     ( Absolute coordinates.        )
S8000  ( RPM spindle speed.           )

G00 Z1.00000 ( Retract )
T1
M5      ( Spindle stop.                )
M6      ( Tool change.                 )
(MSG, CHANGE TOOL BIT: to drill size 0.03200 inch)
M0      ( Temporary machine stop.      )
M3      ( Spindle on clockwise.        )

G81 R0.10000 Z-0.12500 F3.50000 X1.83500 Y-0.55500
X1.83500 Y-0.94000
X1.83500 Y-1.26000
X1.73500 Y-0.55500
X1.73500 Y-0.94000
X1.63500 Y-0.94000
X1.56000 Y-1.61500
X1.56000 Y-1.81500
X1.53500 Y-0.94000
X1.53500 Y-1.26000
X1.52600 Y-0.36600
X1.52600 Y-0.66600
X1.43500 Y-0.94000
X1.37000 Y-0.18500
X1.37000 Y-0.28500
X1.33500 Y-0.94000
X1.25200 Y-0.36800
X1.25200 Y-0.66800
X1.19500 Y-1.74000
X1.19500 Y-2.04000
X1.12500 Y-1.03000
X1.12500 Y-1.33000
X1.09500 Y-1.74000
X1.09500 Y-2.04000
X1.08000 Y-0.44600
X1.08000 Y-0.74600
X1.02500 Y-1.03000
X1.02500 Y-1.33000
X1.02500 Y-1.53000
X0.99500 Y-1.74000
X0.99500 Y-2.04000
X0.98000 Y-0.44600
X0.98000 Y-0.74600
X0.92500 Y-1.03000
X0.92500 Y-1.33000
X0.92500 Y-1.53000
X0.89800 Y-0.14800
X0.89500 Y-1.74000
X0.89500 Y-2.04000
X0.88000 Y-0.44600
X0.88000 Y-0.74600
X0.82500 Y-1.03000
X0.82500 Y-1.33000
X0.79800 Y-0.14800
X0.79800 Y-0.24800
X0.78000 Y-0.44600
X0.78000 Y-0.74600
X0.63500 Y-0.85000
X0.60000 Y-0.24500
X0.53500 Y-0.85000
X0.53500 Y-1.04500
X0.53500 Y-1.24500
X0.50000 Y-0.24500
X0.43500 Y-0.85000
X0.43500 Y-1.04500
X0.43500 Y-1.24500
X0.33500 Y-0.24500
X0.33500 Y-0.54500
X0.33500 Y-0.85000
X0.33500 Y-1.04500
X0.33500 Y-1.24500


G00 Z1.00000 ( All done -- retract )

M9 ( Coolant off. )
M2 ( Program end. )

