( pcb2gcode 1.1.4 )

G94     ( Inches per minute feed rate. )
G20     ( Units == INCHES.             )
G90     ( Absolute coordinates.        )
S100  ( RPM spindle speed.           )
M3      ( Spindle on clockwise.        )

G64 P0.00500 ( set maximum deviation from commanded toolpath )

G04 P0 ( dwell for no time -- G64 should not smooth over this point )
G00 Z0.10000 ( retract )

G00 X1.10700 Y-0.11750 ( rapid move to begin. )
G01 Z-0.00500 F100.00000 ( plunge. )
G04 P0 ( dwell for no time -- G64 should not smooth over this point )
X1.10700 Y-0.11750
X1.10700 Y-0.17650
X1.04200 Y-0.17650
X1.04200 Y-0.11150
X1.10700 Y-0.11150
X1.10700 Y-0.11750
G04 P0 ( dwell for no time -- G64 should not smooth over this point )
G00 Z0.10000 ( retract )

G00 X0.63200 Y-0.15750 ( rapid move to begin. )
G01 Z-0.00500 F100.00000 ( plunge. )
G04 P0 ( dwell for no time -- G64 should not smooth over this point )
X0.63200 Y-0.15750
X0.63400 Y-0.15750
X0.63400 Y-0.15850
X0.63500 Y-0.15850
X0.63500 Y-0.16050
X0.63600 Y-0.16050
X0.63600 Y-0.16150
X0.63700 Y-0.16150
X0.63700 Y-0.16250
X0.63800 Y-0.16250
X0.63800 Y-0.16450
X0.63900 Y-0.16450
X0.63900 Y-0.16550
X0.64000 Y-0.16550
X0.64000 Y-0.16850
X0.64100 Y-0.16850
X0.64100 Y-0.17350
X0.64200 Y-0.17350
X0.64200 Y-0.19450
X0.64100 Y-0.19450
X0.64100 Y-0.19950
X0.64000 Y-0.19950
X0.64000 Y-0.20250
X0.63900 Y-0.20250
X0.63900 Y-0.20350
X0.63800 Y-0.20350
X0.63800 Y-0.20550
X0.63700 Y-0.20550
X0.63700 Y-0.20650
X0.63600 Y-0.20650
X0.63600 Y-0.20750
X0.63500 Y-0.20750
X0.63500 Y-0.20950
X0.63400 Y-0.20950
X0.63400 Y-0.21050
X0.63200 Y-0.21050
X0.63200 Y-0.21150
X0.63100 Y-0.21150
X0.63100 Y-0.21250
X0.62900 Y-0.21250
X0.62900 Y-0.21350
X0.62700 Y-0.21350
X0.62700 Y-0.21450
X0.62600 Y-0.21450
X0.62600 Y-0.21550
X0.62100 Y-0.21550
X0.62100 Y-0.21650
X0.59800 Y-0.21650
X0.59800 Y-0.21550
X0.59300 Y-0.21550
X0.59300 Y-0.21450
X0.59200 Y-0.21450
X0.59200 Y-0.21350
X0.59000 Y-0.21350
X0.59000 Y-0.21250
X0.58800 Y-0.21250
X0.58800 Y-0.21150
X0.58700 Y-0.21150
X0.58700 Y-0.21050
X0.58500 Y-0.21050
X0.58500 Y-0.20950
X0.58400 Y-0.20950
X0.58400 Y-0.20750
X0.58300 Y-0.20750
X0.58300 Y-0.20650
X0.58200 Y-0.20650
X0.58200 Y-0.20550
X0.58100 Y-0.20550
X0.58100 Y-0.20350
X0.58000 Y-0.20350
X0.58000 Y-0.20250
X0.57900 Y-0.20250
X0.57900 Y-0.19950
X0.57800 Y-0.19950
X0.57800 Y-0.19450
X0.57700 Y-0.19450
X0.57700 Y-0.17350
X0.57800 Y-0.17350
X0.57800 Y-0.16850
X0.57900 Y-0.16850
X0.57900 Y-0.16550
X0.58000 Y-0.16550
X0.58000 Y-0.16450
X0.58100 Y-0.16450
X0.58100 Y-0.16250
X0.58200 Y-0.16250
X0.58200 Y-0.16150
X0.58300 Y-0.16150
X0.58300 Y-0.16050
X0.58400 Y-0.16050
X0.58400 Y-0.15850
X0.58500 Y-0.15850
X0.58500 Y-0.15750
X0.58700 Y-0.15750
X0.58700 Y-0.15650
X0.58800 Y-0.15650
X0.58800 Y-0.15550
X0.59000 Y-0.15550
X0.59000 Y-0.15450
X0.59200 Y-0.15450
X0.59200 Y-0.15350
X0.59300 Y-0.15350
X0.59300 Y-0.15250
X0.59800 Y-0.15250
X0.59800 Y-0.15150
X0.62100 Y-0.15150
X0.62100 Y-0.15250
X0.62600 Y-0.15250
X0.62600 Y-0.15350
X0.62700 Y-0.15350
X0.62700 Y-0.15450
X0.62900 Y-0.15450
X0.62900 Y-0.15550
X0.63100 Y-0.15550
X0.63100 Y-0.15650
X0.63200 Y-0.15650
X0.63200 Y-0.15750
G04 P0 ( dwell for no time -- G64 should not smooth over this point )
G00 Z0.10000 ( retract )

G00 X1.09700 Y-0.21750 ( rapid move to begin. )
G01 Z-0.00500 F100.00000 ( plunge. )
G04 P0 ( dwell for no time -- G64 should not smooth over this point )
X1.09700 Y-0.21750
X1.09900 Y-0.21750
X1.09900 Y-0.21850
X1.10000 Y-0.21850
X1.10000 Y-0.22050
X1.10100 Y-0.22050
X1.10100 Y-0.22150
X1.10200 Y-0.22150
X1.10200 Y-0.22250
X1.10300 Y-0.22250
X1.10300 Y-0.22450
X1.10400 Y-0.22450
X1.10400 Y-0.22550
X1.10500 Y-0.22550
X1.10500 Y-0.22850
X1.10600 Y-0.22850
X1.10600 Y-0.23350
X1.10700 Y-0.23350
X1.10700 Y-0.25450
X1.10600 Y-0.25450
X1.10600 Y-0.25950
X1.10500 Y-0.25950
X1.10500 Y-0.26250
X1.10400 Y-0.26250
X1.10400 Y-0.26350
X1.10300 Y-0.26350
X1.10300 Y-0.26550
X1.10200 Y-0.26550
X1.10200 Y-0.26650
X1.10100 Y-0.26650
X1.10100 Y-0.26750
X1.10000 Y-0.26750
X1.10000 Y-0.26950
X1.09900 Y-0.26950
X1.09900 Y-0.27050
X1.09700 Y-0.27050
X1.09700 Y-0.27150
X1.09600 Y-0.27150
X1.09600 Y-0.27250
X1.09400 Y-0.27250
X1.09400 Y-0.27350
X1.09200 Y-0.27350
X1.09200 Y-0.27450
X1.09100 Y-0.27450
X1.09100 Y-0.27550
X1.08600 Y-0.27550
X1.08600 Y-0.27650
X1.06300 Y-0.27650
X1.06300 Y-0.27550
X1.05800 Y-0.27550
X1.05800 Y-0.27450
X1.05700 Y-0.27450
X1.05700 Y-0.27350
X1.05500 Y-0.27350
X1.05500 Y-0.27250
X1.05300 Y-0.27250
X1.05300 Y-0.27150
X1.05200 Y-0.27150
X1.05200 Y-0.27050
X1.05000 Y-0.27050
X1.05000 Y-0.26950
X1.04900 Y-0.26950
X1.04900 Y-0.26750
X1.04800 Y-0.26750
X1.04800 Y-0.26650
X1.04700 Y-0.26650
X1.04700 Y-0.26550
X1.04600 Y-0.26550
X1.04600 Y-0.26350
X1.04500 Y-0.26350
X1.04500 Y-0.26250
X1.04400 Y-0.26250
X1.04400 Y-0.25950
X1.04300 Y-0.25950
X1.04300 Y-0.25450
X1.04200 Y-0.25450
X1.04200 Y-0.23350
X1.04300 Y-0.23350
X1.04300 Y-0.22850
X1.04400 Y-0.22850
X1.04400 Y-0.22550
X1.04500 Y-0.22550
X1.04500 Y-0.22450
X1.04600 Y-0.22450
X1.04600 Y-0.22250
X1.04700 Y-0.22250
X1.04700 Y-0.22150
X1.04800 Y-0.22150
X1.04800 Y-0.22050
X1.04900 Y-0.22050
X1.04900 Y-0.21850
X1.05000 Y-0.21850
X1.05000 Y-0.21750
X1.05200 Y-0.21750
X1.05200 Y-0.21650
X1.05300 Y-0.21650
X1.05300 Y-0.21550
X1.05500 Y-0.21550
X1.05500 Y-0.21450
X1.05700 Y-0.21450
X1.05700 Y-0.21350
X1.05800 Y-0.21350
X1.05800 Y-0.21250
X1.06300 Y-0.21250
X1.06300 Y-0.21150
X1.08600 Y-0.21150
X1.08600 Y-0.21250
X1.09100 Y-0.21250
X1.09100 Y-0.21350
X1.09200 Y-0.21350
X1.09200 Y-0.21450
X1.09400 Y-0.21450
X1.09400 Y-0.21550
X1.09600 Y-0.21550
X1.09600 Y-0.21650
X1.09700 Y-0.21650
X1.09700 Y-0.21750
G04 P0 ( dwell for no time -- G64 should not smooth over this point )
G00 Z0.10000 ( retract )

G00 X1.19700 Y-0.21750 ( rapid move to begin. )
G01 Z-0.00500 F100.00000 ( plunge. )
G04 P0 ( dwell for no time -- G64 should not smooth over this point )
X1.19700 Y-0.21750
X1.19900 Y-0.21750
X1.19900 Y-0.21850
X1.20000 Y-0.21850
X1.20000 Y-0.22050
X1.20100 Y-0.22050
X1.20100 Y-0.22150
X1.20200 Y-0.22150
X1.20200 Y-0.22250
X1.20300 Y-0.22250
X1.20300 Y-0.22450
X1.20400 Y-0.22450
X1.20400 Y-0.22550
X1.20500 Y-0.22550
X1.20500 Y-0.22850
X1.20600 Y-0.22850
X1.20600 Y-0.23350
X1.20700 Y-0.23350
X1.20700 Y-0.25450
X1.20600 Y-0.25450
X1.20600 Y-0.25950
X1.20500 Y-0.25950
X1.20500 Y-0.26250
X1.20400 Y-0.26250
X1.20400 Y-0.26350
X1.20300 Y-0.26350
X1.20300 Y-0.26550
X1.20200 Y-0.26550
X1.20200 Y-0.26650
X1.20100 Y-0.26650
X1.20100 Y-0.26750
X1.20000 Y-0.26750
X1.20000 Y-0.26950
X1.19900 Y-0.26950
X1.19900 Y-0.27050
X1.19700 Y-0.27050
X1.19700 Y-0.27150
X1.19600 Y-0.27150
X1.19600 Y-0.27250
X1.19400 Y-0.27250
X1.19400 Y-0.27350
X1.19200 Y-0.27350
X1.19200 Y-0.27450
X1.19100 Y-0.27450
X1.19100 Y-0.27550
X1.18600 Y-0.27550
X1.18600 Y-0.27650
X1.16300 Y-0.27650
X1.16300 Y-0.27550
X1.15800 Y-0.27550
X1.15800 Y-0.27450
X1.15700 Y-0.27450
X1.15700 Y-0.27350
X1.15500 Y-0.27350
X1.15500 Y-0.27250
X1.15300 Y-0.27250
X1.15300 Y-0.27150
X1.15200 Y-0.27150
X1.15200 Y-0.27050
X1.15000 Y-0.27050
X1.15000 Y-0.26950
X1.14900 Y-0.26950
X1.14900 Y-0.26750
X1.14800 Y-0.26750
X1.14800 Y-0.26650
X1.14700 Y-0.26650
X1.14700 Y-0.26550
X1.14600 Y-0.26550
X1.14600 Y-0.26350
X1.14500 Y-0.26350
X1.14500 Y-0.26250
X1.14400 Y-0.26250
X1.14400 Y-0.25950
X1.14300 Y-0.25950
X1.14300 Y-0.25450
X1.14200 Y-0.25450
X1.14200 Y-0.23350
X1.14300 Y-0.23350
X1.14300 Y-0.22850
X1.14400 Y-0.22850
X1.14400 Y-0.22550
X1.14500 Y-0.22550
X1.14500 Y-0.22450
X1.14600 Y-0.22450
X1.14600 Y-0.22250
X1.14700 Y-0.22250
X1.14700 Y-0.22150
X1.14800 Y-0.22150
X1.14800 Y-0.22050
X1.14900 Y-0.22050
X1.14900 Y-0.21850
X1.15000 Y-0.21850
X1.15000 Y-0.21750
X1.15200 Y-0.21750
X1.15200 Y-0.21650
X1.15300 Y-0.21650
X1.15300 Y-0.21550
X1.15500 Y-0.21550
X1.15500 Y-0.21450
X1.15700 Y-0.21450
X1.15700 Y-0.21350
X1.15800 Y-0.21350
X1.15800 Y-0.21250
X1.16300 Y-0.21250
X1.16300 Y-0.21150
X1.18600 Y-0.21150
X1.18600 Y-0.21250
X1.19100 Y-0.21250
X1.19100 Y-0.21350
X1.19200 Y-0.21350
X1.19200 Y-0.21450
X1.19400 Y-0.21450
X1.19400 Y-0.21550
X1.19600 Y-0.21550
X1.19600 Y-0.21650
X1.19700 Y-0.21650
X1.19700 Y-0.21750
G04 P0 ( dwell for no time -- G64 should not smooth over this point )
G00 Z0.10000 ( retract )

G00 X1.41200 Y-0.21750 ( rapid move to begin. )
G01 Z-0.00500 F100.00000 ( plunge. )
G04 P0 ( dwell for no time -- G64 should not smooth over this point )
X1.41200 Y-0.21750
X1.41200 Y-0.27650
X1.34700 Y-0.27650
X1.34700 Y-0.21150
X1.41200 Y-0.21150
X1.41200 Y-0.21750
G04 P0 ( dwell for no time -- G64 should not smooth over this point )
G00 Z0.10000 ( retract )

G00 X1.50200 Y-0.21750 ( rapid move to begin. )
G01 Z-0.00500 F100.00000 ( plunge. )
G04 P0 ( dwell for no time -- G64 should not smooth over this point )
X1.50200 Y-0.21750
X1.50400 Y-0.21750
X1.50400 Y-0.21850
X1.50500 Y-0.21850
X1.50500 Y-0.22050
X1.50600 Y-0.22050
X1.50600 Y-0.22150
X1.50700 Y-0.22150
X1.50700 Y-0.22250
X1.50800 Y-0.22250
X1.50800 Y-0.22450
X1.50900 Y-0.22450
X1.50900 Y-0.22550
X1.51000 Y-0.22550
X1.51000 Y-0.22850
X1.51100 Y-0.22850
X1.51100 Y-0.23350
X1.51200 Y-0.23350
X1.51200 Y-0.25450
X1.51100 Y-0.25450
X1.51100 Y-0.25950
X1.51000 Y-0.25950
X1.51000 Y-0.26250
X1.50900 Y-0.26250
X1.50900 Y-0.26350
X1.50800 Y-0.26350
X1.50800 Y-0.26550
X1.50700 Y-0.26550
X1.50700 Y-0.26650
X1.50600 Y-0.26650
X1.50600 Y-0.26750
X1.50500 Y-0.26750
X1.50500 Y-0.26950
X1.50400 Y-0.26950
X1.50400 Y-0.27050
X1.50200 Y-0.27050
X1.50200 Y-0.27150
X1.50100 Y-0.27150
X1.50100 Y-0.27250
X1.49900 Y-0.27250
X1.49900 Y-0.27350
X1.49700 Y-0.27350
X1.49700 Y-0.27450
X1.49600 Y-0.27450
X1.49600 Y-0.27550
X1.49100 Y-0.27550
X1.49100 Y-0.27650
X1.46800 Y-0.27650
X1.46800 Y-0.27550
X1.46300 Y-0.27550
X1.46300 Y-0.27450
X1.46200 Y-0.27450
X1.46200 Y-0.27350
X1.46000 Y-0.27350
X1.46000 Y-0.27250
X1.45800 Y-0.27250
X1.45800 Y-0.27150
X1.45700 Y-0.27150
X1.45700 Y-0.27050
X1.45500 Y-0.27050
X1.45500 Y-0.26950
X1.45400 Y-0.26950
X1.45400 Y-0.26750
X1.45300 Y-0.26750
X1.45300 Y-0.26650
X1.45200 Y-0.26650
X1.45200 Y-0.26550
X1.45100 Y-0.26550
X1.45100 Y-0.26350
X1.45000 Y-0.26350
X1.45000 Y-0.26250
X1.44900 Y-0.26250
X1.44900 Y-0.25950
X1.44800 Y-0.25950
X1.44800 Y-0.25450
X1.44700 Y-0.25450
X1.44700 Y-0.23350
X1.44800 Y-0.23350
X1.44800 Y-0.22850
X1.44900 Y-0.22850
X1.44900 Y-0.22550
X1.45000 Y-0.22550
X1.45000 Y-0.22450
X1.45100 Y-0.22450
X1.45100 Y-0.22250
X1.45200 Y-0.22250
X1.45200 Y-0.22150
X1.45300 Y-0.22150
X1.45300 Y-0.22050
X1.45400 Y-0.22050
X1.45400 Y-0.21850
X1.45500 Y-0.21850
X1.45500 Y-0.21750
X1.45700 Y-0.21750
X1.45700 Y-0.21650
X1.45800 Y-0.21650
X1.45800 Y-0.21550
X1.46000 Y-0.21550
X1.46000 Y-0.21450
X1.46200 Y-0.21450
X1.46200 Y-0.21350
X1.46300 Y-0.21350
X1.46300 Y-0.21250
X1.46800 Y-0.21250
X1.46800 Y-0.21150
X1.49100 Y-0.21150
X1.49100 Y-0.21250
X1.49600 Y-0.21250
X1.49600 Y-0.21350
X1.49700 Y-0.21350
X1.49700 Y-0.21450
X1.49900 Y-0.21450
X1.49900 Y-0.21550
X1.50100 Y-0.21550
X1.50100 Y-0.21650
X1.50200 Y-0.21650
X1.50200 Y-0.21750
G04 P0 ( dwell for no time -- G64 should not smooth over this point )
G00 Z0.10000 ( retract )

G00 X1.66700 Y-0.21750 ( rapid move to begin. )
G01 Z-0.00500 F100.00000 ( plunge. )
G04 P0 ( dwell for no time -- G64 should not smooth over this point )
X1.66700 Y-0.21750
X1.66900 Y-0.21750
X1.66900 Y-0.21850
X1.67000 Y-0.21850
X1.67000 Y-0.22050
X1.67100 Y-0.22050
X1.67100 Y-0.22150
X1.67200 Y-0.22150
X1.67200 Y-0.22250
X1.67300 Y-0.22250
X1.67300 Y-0.22450
X1.67400 Y-0.22450
X1.67400 Y-0.22550
X1.67500 Y-0.22550
X1.67500 Y-0.22850
X1.67600 Y-0.22850
X1.67600 Y-0.23350
X1.67700 Y-0.23350
X1.67700 Y-0.25450
X1.67600 Y-0.25450
X1.67600 Y-0.25950
X1.67500 Y-0.25950
X1.67500 Y-0.26250
X1.67400 Y-0.26250
X1.67400 Y-0.26350
X1.67300 Y-0.26350
X1.67300 Y-0.26550
X1.67200 Y-0.26550
X1.67200 Y-0.26650
X1.67100 Y-0.26650
X1.67100 Y-0.26750
X1.67000 Y-0.26750
X1.67000 Y-0.26950
X1.66900 Y-0.26950
X1.66900 Y-0.27050
X1.66700 Y-0.27050
X1.66700 Y-0.27150
X1.66600 Y-0.27150
X1.66600 Y-0.27250
X1.66400 Y-0.27250
X1.66400 Y-0.27350
X1.66200 Y-0.27350
X1.66200 Y-0.27450
X1.66100 Y-0.27450
X1.66100 Y-0.27550
X1.65600 Y-0.27550
X1.65600 Y-0.27650
X1.63300 Y-0.27650
X1.63300 Y-0.27550
X1.62800 Y-0.27550
X1.62800 Y-0.27450
X1.62700 Y-0.27450
X1.62700 Y-0.27350
X1.62500 Y-0.27350
X1.62500 Y-0.27250
X1.62300 Y-0.27250
X1.62300 Y-0.27150
X1.62200 Y-0.27150
X1.62200 Y-0.27050
X1.62000 Y-0.27050
X1.62000 Y-0.26950
X1.61900 Y-0.26950
X1.61900 Y-0.26750
X1.61800 Y-0.26750
X1.61800 Y-0.26650
X1.61700 Y-0.26650
X1.61700 Y-0.26550
X1.61600 Y-0.26550
X1.61600 Y-0.26350
X1.61500 Y-0.26350
X1.61500 Y-0.26250
X1.61400 Y-0.26250
X1.61400 Y-0.25950
X1.61300 Y-0.25950
X1.61300 Y-0.25450
X1.61200 Y-0.25450
X1.61200 Y-0.23350
X1.61300 Y-0.23350
X1.61300 Y-0.22850
X1.61400 Y-0.22850
X1.61400 Y-0.22550
X1.61500 Y-0.22550
X1.61500 Y-0.22450
X1.61600 Y-0.22450
X1.61600 Y-0.22250
X1.61700 Y-0.22250
X1.61700 Y-0.22150
X1.61800 Y-0.22150
X1.61800 Y-0.22050
X1.61900 Y-0.22050
X1.61900 Y-0.21850
X1.62000 Y-0.21850
X1.62000 Y-0.21750
X1.62200 Y-0.21750
X1.62200 Y-0.21650
X1.62300 Y-0.21650
X1.62300 Y-0.21550
X1.62500 Y-0.21550
X1.62500 Y-0.21450
X1.62700 Y-0.21450
X1.62700 Y-0.21350
X1.62800 Y-0.21350
X1.62800 Y-0.21250
X1.63300 Y-0.21250
X1.63300 Y-0.21150
X1.65600 Y-0.21150
X1.65600 Y-0.21250
X1.66100 Y-0.21250
X1.66100 Y-0.21350
X1.66200 Y-0.21350
X1.66200 Y-0.21450
X1.66400 Y-0.21450
X1.66400 Y-0.21550
X1.66600 Y-0.21550
X1.66600 Y-0.21650
X1.66700 Y-0.21650
X1.66700 Y-0.21750
G04 P0 ( dwell for no time -- G64 should not smooth over this point )
G00 Z0.10000 ( retract )

G00 X0.63200 Y-0.25750 ( rapid move to begin. )
G01 Z-0.00500 F100.00000 ( plunge. )
G04 P0 ( dwell for no time -- G64 should not smooth over this point )
X0.63200 Y-0.25750
X0.63400 Y-0.25750
X0.63400 Y-0.25850
X0.63500 Y-0.25850
X0.63500 Y-0.26050
X0.63600 Y-0.26050
X0.63600 Y-0.26150
X0.63700 Y-0.26150
X0.63700 Y-0.26250
X0.63800 Y-0.26250
X0.63800 Y-0.26450
X0.63900 Y-0.26450
X0.63900 Y-0.26550
X0.64000 Y-0.26550
X0.64000 Y-0.26850
X0.64100 Y-0.26850
X0.64100 Y-0.27350
X0.64200 Y-0.27350
X0.64200 Y-0.29450
X0.64100 Y-0.29450
X0.64100 Y-0.29950
X0.64000 Y-0.29950
X0.64000 Y-0.30250
X0.63900 Y-0.30250
X0.63900 Y-0.30350
X0.63800 Y-0.30350
X0.63800 Y-0.30550
X0.63700 Y-0.30550
X0.63700 Y-0.30650
X0.63600 Y-0.30650
X0.63600 Y-0.30750
X0.63500 Y-0.30750
X0.63500 Y-0.30950
X0.63400 Y-0.30950
X0.63400 Y-0.31050
X0.63200 Y-0.31050
X0.63200 Y-0.31150
X0.63100 Y-0.31150
X0.63100 Y-0.31250
X0.62900 Y-0.31250
X0.62900 Y-0.31350
X0.62700 Y-0.31350
X0.62700 Y-0.31450
X0.62600 Y-0.31450
X0.62600 Y-0.31550
X0.62100 Y-0.31550
X0.62100 Y-0.31650
X0.59800 Y-0.31650
X0.59800 Y-0.31550
X0.59300 Y-0.31550
X0.59300 Y-0.31450
X0.59200 Y-0.31450
X0.59200 Y-0.31350
X0.59000 Y-0.31350
X0.59000 Y-0.31250
X0.58800 Y-0.31250
X0.58800 Y-0.31150
X0.58700 Y-0.31150
X0.58700 Y-0.31050
X0.58500 Y-0.31050
X0.58500 Y-0.30950
X0.58400 Y-0.30950
X0.58400 Y-0.30750
X0.58300 Y-0.30750
X0.58300 Y-0.30650
X0.58200 Y-0.30650
X0.58200 Y-0.30550
X0.58100 Y-0.30550
X0.58100 Y-0.30350
X0.58000 Y-0.30350
X0.58000 Y-0.30250
X0.57900 Y-0.30250
X0.57900 Y-0.29950
X0.57800 Y-0.29950
X0.57800 Y-0.29450
X0.57700 Y-0.29450
X0.57700 Y-0.27350
X0.57800 Y-0.27350
X0.57800 Y-0.26850
X0.57900 Y-0.26850
X0.57900 Y-0.26550
X0.58000 Y-0.26550
X0.58000 Y-0.26450
X0.58100 Y-0.26450
X0.58100 Y-0.26250
X0.58200 Y-0.26250
X0.58200 Y-0.26150
X0.58300 Y-0.26150
X0.58300 Y-0.26050
X0.58400 Y-0.26050
X0.58400 Y-0.25850
X0.58500 Y-0.25850
X0.58500 Y-0.25750
X0.58700 Y-0.25750
X0.58700 Y-0.25650
X0.58800 Y-0.25650
X0.58800 Y-0.25550
X0.59000 Y-0.25550
X0.59000 Y-0.25450
X0.59200 Y-0.25450
X0.59200 Y-0.25350
X0.59300 Y-0.25350
X0.59300 Y-0.25250
X0.59800 Y-0.25250
X0.59800 Y-0.25150
X0.62100 Y-0.25150
X0.62100 Y-0.25250
X0.62600 Y-0.25250
X0.62600 Y-0.25350
X0.62700 Y-0.25350
X0.62700 Y-0.25450
X0.62900 Y-0.25450
X0.62900 Y-0.25550
X0.63100 Y-0.25550
X0.63100 Y-0.25650
X0.63200 Y-0.25650
X0.63200 Y-0.25750
G04 P0 ( dwell for no time -- G64 should not smooth over this point )
G00 Z0.10000 ( retract )

G00 X0.63200 Y-0.38950 ( rapid move to begin. )
G01 Z-0.00500 F100.00000 ( plunge. )
G04 P0 ( dwell for no time -- G64 should not smooth over this point )
X0.63200 Y-0.38950
X0.63400 Y-0.38950
X0.63400 Y-0.39050
X0.63600 Y-0.39050
X0.63600 Y-0.39150
X0.63700 Y-0.39150
X0.63700 Y-0.39250
X0.63800 Y-0.39250
X0.63800 Y-0.39450
X0.63900 Y-0.39450
X0.63900 Y-0.39550
X0.64000 Y-0.39550
X0.64000 Y-0.39750
X0.64100 Y-0.39750
X0.64100 Y-0.39850
X0.64200 Y-0.39850
X0.64200 Y-0.39950
X0.64300 Y-0.39950
X0.64300 Y-0.40150
X0.64400 Y-0.40150
X0.64400 Y-0.40650
X0.64500 Y-0.40650
X0.64500 Y-0.41150
X0.64600 Y-0.41150
X0.64600 Y-0.45650
X0.64500 Y-0.45650
X0.64500 Y-0.46150
X0.64400 Y-0.46150
X0.64400 Y-0.46650
X0.64300 Y-0.46650
X0.64300 Y-0.46850
X0.64200 Y-0.46850
X0.64200 Y-0.46950
X0.64100 Y-0.46950
X0.64100 Y-0.47050
X0.64000 Y-0.47050
X0.64000 Y-0.47250
X0.63900 Y-0.47250
X0.63900 Y-0.47350
X0.63800 Y-0.47350
X0.63800 Y-0.47550
X0.63700 Y-0.47550
X0.63700 Y-0.47650
X0.63600 Y-0.47650
X0.63600 Y-0.47750
X0.63400 Y-0.47750
X0.63400 Y-0.47850
X0.63200 Y-0.47850
X0.63200 Y-0.47950
X0.63100 Y-0.47950
X0.63100 Y-0.48050
X0.62900 Y-0.48050
X0.62900 Y-0.48150
X0.62700 Y-0.48150
X0.62700 Y-0.48250
X0.62400 Y-0.48250
X0.62400 Y-0.48350
X0.61800 Y-0.48350
X0.61800 Y-0.48450
X0.60100 Y-0.48450
X0.60100 Y-0.48350
X0.59500 Y-0.48350
X0.59500 Y-0.48250
X0.59200 Y-0.48250
X0.59200 Y-0.48150
X0.59000 Y-0.48150
X0.59000 Y-0.48050
X0.58800 Y-0.48050
X0.58800 Y-0.47950
X0.58700 Y-0.47950
X0.58700 Y-0.47850
X0.58500 Y-0.47850
X0.58500 Y-0.47750
X0.58300 Y-0.47750
X0.58300 Y-0.47650
X0.58200 Y-0.47650
X0.58200 Y-0.47550
X0.58100 Y-0.47550
X0.58100 Y-0.47350
X0.58000 Y-0.47350
X0.58000 Y-0.47250
X0.57900 Y-0.47250
X0.57900 Y-0.47050
X0.57800 Y-0.47050
X0.57800 Y-0.46950
X0.57700 Y-0.46950
X0.57700 Y-0.46850
X0.57600 Y-0.46850
X0.57600 Y-0.46650
X0.57500 Y-0.46650
X0.57500 Y-0.46150
X0.57400 Y-0.46150
X0.57400 Y-0.45650
X0.57300 Y-0.45650
X0.57300 Y-0.41150
X0.57400 Y-0.41150
X0.57400 Y-0.40650
X0.57500 Y-0.40650
X0.57500 Y-0.40150
X0.57600 Y-0.40150
X0.57600 Y-0.39950
X0.57700 Y-0.39950
X0.57700 Y-0.39850
X0.57800 Y-0.39850
X0.57800 Y-0.39750
X0.57900 Y-0.39750
X0.57900 Y-0.39550
X0.58000 Y-0.39550
X0.58000 Y-0.39450
X0.58100 Y-0.39450
X0.58100 Y-0.39250
X0.58200 Y-0.39250
X0.58200 Y-0.39150
X0.58300 Y-0.39150
X0.58300 Y-0.39050
X0.58500 Y-0.39050
X0.58500 Y-0.38950
X0.58700 Y-0.38950
X0.58700 Y-0.38850
X0.58800 Y-0.38850
X0.58800 Y-0.38750
X0.59000 Y-0.38750
X0.59000 Y-0.38650
X0.59200 Y-0.38650
X0.59200 Y-0.38550
X0.59500 Y-0.38550
X0.59500 Y-0.38450
X0.60100 Y-0.38450
X0.60100 Y-0.38350
X0.61800 Y-0.38350
X0.61800 Y-0.38450
X0.62400 Y-0.38450
X0.62400 Y-0.38550
X0.62700 Y-0.38550
X0.62700 Y-0.38650
X0.62900 Y-0.38650
X0.62900 Y-0.38750
X0.63100 Y-0.38750
X0.63100 Y-0.38850
X0.63200 Y-0.38850
X0.63200 Y-0.38950
G04 P0 ( dwell for no time -- G64 should not smooth over this point )
G00 Z0.10000 ( retract )

G00 X0.73200 Y-0.38950 ( rapid move to begin. )
G01 Z-0.00500 F100.00000 ( plunge. )
G04 P0 ( dwell for no time -- G64 should not smooth over this point )
X0.73200 Y-0.38950
X0.73400 Y-0.38950
X0.73400 Y-0.39050
X0.73600 Y-0.39050
X0.73600 Y-0.39150
X0.73700 Y-0.39150
X0.73700 Y-0.39250
X0.73800 Y-0.39250
X0.73800 Y-0.39450
X0.73900 Y-0.39450
X0.73900 Y-0.39550
X0.74000 Y-0.39550
X0.74000 Y-0.39750
X0.74100 Y-0.39750
X0.74100 Y-0.39850
X0.74200 Y-0.39850
X0.74200 Y-0.39950
X0.74300 Y-0.39950
X0.74300 Y-0.40150
X0.74400 Y-0.40150
X0.74400 Y-0.40650
X0.74500 Y-0.40650
X0.74500 Y-0.41150
X0.74600 Y-0.41150
X0.74600 Y-0.45650
X0.74500 Y-0.45650
X0.74500 Y-0.46150
X0.74400 Y-0.46150
X0.74400 Y-0.46650
X0.74300 Y-0.46650
X0.74300 Y-0.46850
X0.74200 Y-0.46850
X0.74200 Y-0.46950
X0.74100 Y-0.46950
X0.74100 Y-0.47050
X0.74000 Y-0.47050
X0.74000 Y-0.47250
X0.73900 Y-0.47250
X0.73900 Y-0.47350
X0.73800 Y-0.47350
X0.73800 Y-0.47550
X0.73700 Y-0.47550
X0.73700 Y-0.47650
X0.73600 Y-0.47650
X0.73600 Y-0.47750
X0.73400 Y-0.47750
X0.73400 Y-0.47850
X0.73200 Y-0.47850
X0.73200 Y-0.47950
X0.73100 Y-0.47950
X0.73100 Y-0.48050
X0.72900 Y-0.48050
X0.72900 Y-0.48150
X0.72700 Y-0.48150
X0.72700 Y-0.48250
X0.72400 Y-0.48250
X0.72400 Y-0.48350
X0.71800 Y-0.48350
X0.71800 Y-0.48450
X0.70100 Y-0.48450
X0.70100 Y-0.48350
X0.69500 Y-0.48350
X0.69500 Y-0.48250
X0.69200 Y-0.48250
X0.69200 Y-0.48150
X0.69000 Y-0.48150
X0.69000 Y-0.48050
X0.68800 Y-0.48050
X0.68800 Y-0.47950
X0.68700 Y-0.47950
X0.68700 Y-0.47850
X0.68500 Y-0.47850
X0.68500 Y-0.47750
X0.68300 Y-0.47750
X0.68300 Y-0.47650
X0.68200 Y-0.47650
X0.68200 Y-0.47550
X0.68100 Y-0.47550
X0.68100 Y-0.47350
X0.68000 Y-0.47350
X0.68000 Y-0.47250
X0.67900 Y-0.47250
X0.67900 Y-0.47050
X0.67800 Y-0.47050
X0.67800 Y-0.46950
X0.67700 Y-0.46950
X0.67700 Y-0.46850
X0.67600 Y-0.46850
X0.67600 Y-0.46650
X0.67500 Y-0.46650
X0.67500 Y-0.46150
X0.67400 Y-0.46150
X0.67400 Y-0.45650
X0.67300 Y-0.45650
X0.67300 Y-0.41150
X0.67400 Y-0.41150
X0.67400 Y-0.40650
X0.67500 Y-0.40650
X0.67500 Y-0.40150
X0.67600 Y-0.40150
X0.67600 Y-0.39950
X0.67700 Y-0.39950
X0.67700 Y-0.39850
X0.67800 Y-0.39850
X0.67800 Y-0.39750
X0.67900 Y-0.39750
X0.67900 Y-0.39550
X0.68000 Y-0.39550
X0.68000 Y-0.39450
X0.68100 Y-0.39450
X0.68100 Y-0.39250
X0.68200 Y-0.39250
X0.68200 Y-0.39150
X0.68300 Y-0.39150
X0.68300 Y-0.39050
X0.68500 Y-0.39050
X0.68500 Y-0.38950
X0.68700 Y-0.38950
X0.68700 Y-0.38850
X0.68800 Y-0.38850
X0.68800 Y-0.38750
X0.69000 Y-0.38750
X0.69000 Y-0.38650
X0.69200 Y-0.38650
X0.69200 Y-0.38550
X0.69500 Y-0.38550
X0.69500 Y-0.38450
X0.70100 Y-0.38450
X0.70100 Y-0.38350
X0.71800 Y-0.38350
X0.71800 Y-0.38450
X0.72400 Y-0.38450
X0.72400 Y-0.38550
X0.72700 Y-0.38550
X0.72700 Y-0.38650
X0.72900 Y-0.38650
X0.72900 Y-0.38750
X0.73100 Y-0.38750
X0.73100 Y-0.38850
X0.73200 Y-0.38850
X0.73200 Y-0.38950
G04 P0 ( dwell for no time -- G64 should not smooth over this point )
G00 Z0.10000 ( retract )

G00 X0.83200 Y-0.38950 ( rapid move to begin. )
G01 Z-0.00500 F100.00000 ( plunge. )
G04 P0 ( dwell for no time -- G64 should not smooth over this point )
X0.83200 Y-0.38950
X0.83400 Y-0.38950
X0.83400 Y-0.39050
X0.83600 Y-0.39050
X0.83600 Y-0.39150
X0.83700 Y-0.39150
X0.83700 Y-0.39250
X0.83800 Y-0.39250
X0.83800 Y-0.39450
X0.83900 Y-0.39450
X0.83900 Y-0.39550
X0.84000 Y-0.39550
X0.84000 Y-0.39750
X0.84100 Y-0.39750
X0.84100 Y-0.39850
X0.84200 Y-0.39850
X0.84200 Y-0.39950
X0.84300 Y-0.39950
X0.84300 Y-0.40150
X0.84400 Y-0.40150
X0.84400 Y-0.40650
X0.84500 Y-0.40650
X0.84500 Y-0.41150
X0.84600 Y-0.41150
X0.84600 Y-0.45650
X0.84500 Y-0.45650
X0.84500 Y-0.46150
X0.84400 Y-0.46150
X0.84400 Y-0.46650
X0.84300 Y-0.46650
X0.84300 Y-0.46850
X0.84200 Y-0.46850
X0.84200 Y-0.46950
X0.84100 Y-0.46950
X0.84100 Y-0.47050
X0.84000 Y-0.47050
X0.84000 Y-0.47250
X0.83900 Y-0.47250
X0.83900 Y-0.47350
X0.83800 Y-0.47350
X0.83800 Y-0.47550
X0.83700 Y-0.47550
X0.83700 Y-0.47650
X0.83600 Y-0.47650
X0.83600 Y-0.47750
X0.83400 Y-0.47750
X0.83400 Y-0.47850
X0.83200 Y-0.47850
X0.83200 Y-0.47950
X0.83100 Y-0.47950
X0.83100 Y-0.48050
X0.82900 Y-0.48050
X0.82900 Y-0.48150
X0.82700 Y-0.48150
X0.82700 Y-0.48250
X0.82400 Y-0.48250
X0.82400 Y-0.48350
X0.81800 Y-0.48350
X0.81800 Y-0.48450
X0.80100 Y-0.48450
X0.80100 Y-0.48350
X0.79500 Y-0.48350
X0.79500 Y-0.48250
X0.79200 Y-0.48250
X0.79200 Y-0.48150
X0.79000 Y-0.48150
X0.79000 Y-0.48050
X0.78800 Y-0.48050
X0.78800 Y-0.47950
X0.78700 Y-0.47950
X0.78700 Y-0.47850
X0.78500 Y-0.47850
X0.78500 Y-0.47750
X0.78300 Y-0.47750
X0.78300 Y-0.47650
X0.78200 Y-0.47650
X0.78200 Y-0.47550
X0.78100 Y-0.47550
X0.78100 Y-0.47350
X0.78000 Y-0.47350
X0.78000 Y-0.47250
X0.77900 Y-0.47250
X0.77900 Y-0.47050
X0.77800 Y-0.47050
X0.77800 Y-0.46950
X0.77700 Y-0.46950
X0.77700 Y-0.46850
X0.77600 Y-0.46850
X0.77600 Y-0.46650
X0.77500 Y-0.46650
X0.77500 Y-0.46150
X0.77400 Y-0.46150
X0.77400 Y-0.45650
X0.77300 Y-0.45650
X0.77300 Y-0.41150
X0.77400 Y-0.41150
X0.77400 Y-0.40650
X0.77500 Y-0.40650
X0.77500 Y-0.40150
X0.77600 Y-0.40150
X0.77600 Y-0.39950
X0.77700 Y-0.39950
X0.77700 Y-0.39850
X0.77800 Y-0.39850
X0.77800 Y-0.39750
X0.77900 Y-0.39750
X0.77900 Y-0.39550
X0.78000 Y-0.39550
X0.78000 Y-0.39450
X0.78100 Y-0.39450
X0.78100 Y-0.39250
X0.78200 Y-0.39250
X0.78200 Y-0.39150
X0.78300 Y-0.39150
X0.78300 Y-0.39050
X0.78500 Y-0.39050
X0.78500 Y-0.38950
X0.78700 Y-0.38950
X0.78700 Y-0.38850
X0.78800 Y-0.38850
X0.78800 Y-0.38750
X0.79000 Y-0.38750
X0.79000 Y-0.38650
X0.79200 Y-0.38650
X0.79200 Y-0.38550
X0.79500 Y-0.38550
X0.79500 Y-0.38450
X0.80100 Y-0.38450
X0.80100 Y-0.38350
X0.81800 Y-0.38350
X0.81800 Y-0.38450
X0.82400 Y-0.38450
X0.82400 Y-0.38550
X0.82700 Y-0.38550
X0.82700 Y-0.38650
X0.82900 Y-0.38650
X0.82900 Y-0.38750
X0.83100 Y-0.38750
X0.83100 Y-0.38850
X0.83200 Y-0.38850
X0.83200 Y-0.38950
G04 P0 ( dwell for no time -- G64 should not smooth over this point )
G00 Z0.10000 ( retract )

G00 X0.93200 Y-0.38950 ( rapid move to begin. )
G01 Z-0.00500 F100.00000 ( plunge. )
G04 P0 ( dwell for no time -- G64 should not smooth over this point )
X0.93200 Y-0.38950
X0.93400 Y-0.38950
X0.93400 Y-0.39050
X0.93600 Y-0.39050
X0.93600 Y-0.39150
X0.93700 Y-0.39150
X0.93700 Y-0.39250
X0.93800 Y-0.39250
X0.93800 Y-0.39450
X0.93900 Y-0.39450
X0.93900 Y-0.39550
X0.94000 Y-0.39550
X0.94000 Y-0.39750
X0.94100 Y-0.39750
X0.94100 Y-0.39850
X0.94200 Y-0.39850
X0.94200 Y-0.39950
X0.94300 Y-0.39950
X0.94300 Y-0.40150
X0.94400 Y-0.40150
X0.94400 Y-0.40650
X0.94500 Y-0.40650
X0.94500 Y-0.41150
X0.94600 Y-0.41150
X0.94600 Y-0.45650
X0.94500 Y-0.45650
X0.94500 Y-0.46150
X0.94400 Y-0.46150
X0.94400 Y-0.46650
X0.94300 Y-0.46650
X0.94300 Y-0.46850
X0.94200 Y-0.46850
X0.94200 Y-0.46950
X0.94100 Y-0.46950
X0.94100 Y-0.47050
X0.94000 Y-0.47050
X0.94000 Y-0.47250
X0.93900 Y-0.47250
X0.93900 Y-0.47350
X0.93800 Y-0.47350
X0.93800 Y-0.47550
X0.93700 Y-0.47550
X0.93700 Y-0.47650
X0.93600 Y-0.47650
X0.93600 Y-0.47750
X0.93400 Y-0.47750
X0.93400 Y-0.47850
X0.93200 Y-0.47850
X0.93200 Y-0.47950
X0.93100 Y-0.47950
X0.93100 Y-0.48050
X0.92900 Y-0.48050
X0.92900 Y-0.48150
X0.92700 Y-0.48150
X0.92700 Y-0.48250
X0.92400 Y-0.48250
X0.92400 Y-0.48350
X0.91800 Y-0.48350
X0.91800 Y-0.48450
X0.90100 Y-0.48450
X0.90100 Y-0.48350
X0.89500 Y-0.48350
X0.89500 Y-0.48250
X0.89200 Y-0.48250
X0.89200 Y-0.48150
X0.89000 Y-0.48150
X0.89000 Y-0.48050
X0.88800 Y-0.48050
X0.88800 Y-0.47950
X0.88700 Y-0.47950
X0.88700 Y-0.47850
X0.88500 Y-0.47850
X0.88500 Y-0.47750
X0.88300 Y-0.47750
X0.88300 Y-0.47650
X0.88200 Y-0.47650
X0.88200 Y-0.47550
X0.88100 Y-0.47550
X0.88100 Y-0.47350
X0.88000 Y-0.47350
X0.88000 Y-0.47250
X0.87900 Y-0.47250
X0.87900 Y-0.47050
X0.87800 Y-0.47050
X0.87800 Y-0.46950
X0.87700 Y-0.46950
X0.87700 Y-0.46850
X0.87600 Y-0.46850
X0.87600 Y-0.46650
X0.87500 Y-0.46650
X0.87500 Y-0.46150
X0.87400 Y-0.46150
X0.87400 Y-0.45650
X0.87300 Y-0.45650
X0.87300 Y-0.41150
X0.87400 Y-0.41150
X0.87400 Y-0.40650
X0.87500 Y-0.40650
X0.87500 Y-0.40150
X0.87600 Y-0.40150
X0.87600 Y-0.39950
X0.87700 Y-0.39950
X0.87700 Y-0.39850
X0.87800 Y-0.39850
X0.87800 Y-0.39750
X0.87900 Y-0.39750
X0.87900 Y-0.39550
X0.88000 Y-0.39550
X0.88000 Y-0.39450
X0.88100 Y-0.39450
X0.88100 Y-0.39250
X0.88200 Y-0.39250
X0.88200 Y-0.39150
X0.88300 Y-0.39150
X0.88300 Y-0.39050
X0.88500 Y-0.39050
X0.88500 Y-0.38950
X0.88700 Y-0.38950
X0.88700 Y-0.38850
X0.88800 Y-0.38850
X0.88800 Y-0.38750
X0.89000 Y-0.38750
X0.89000 Y-0.38650
X0.89200 Y-0.38650
X0.89200 Y-0.38550
X0.89500 Y-0.38550
X0.89500 Y-0.38450
X0.90100 Y-0.38450
X0.90100 Y-0.38350
X0.91800 Y-0.38350
X0.91800 Y-0.38450
X0.92400 Y-0.38450
X0.92400 Y-0.38550
X0.92700 Y-0.38550
X0.92700 Y-0.38650
X0.92900 Y-0.38650
X0.92900 Y-0.38750
X0.93100 Y-0.38750
X0.93100 Y-0.38850
X0.93200 Y-0.38850
X0.93200 Y-0.38950
G04 P0 ( dwell for no time -- G64 should not smooth over this point )
G00 Z0.10000 ( retract )

G00 X1.15200 Y-0.41250 ( rapid move to begin. )
G01 Z-0.00500 F100.00000 ( plunge. )
G04 P0 ( dwell for no time -- G64 should not smooth over this point )
X1.15200 Y-0.41250
X1.15400 Y-0.41250
X1.15400 Y-0.41350
X1.15500 Y-0.41350
X1.15500 Y-0.41550
X1.15600 Y-0.41550
X1.15600 Y-0.41650
X1.15700 Y-0.41650
X1.15700 Y-0.41750
X1.15800 Y-0.41750
X1.15800 Y-0.41950
X1.15900 Y-0.41950
X1.15900 Y-0.42050
X1.16000 Y-0.42050
X1.16000 Y-0.42350
X1.16100 Y-0.42350
X1.16100 Y-0.42850
X1.16200 Y-0.42850
X1.16200 Y-0.44950
X1.16100 Y-0.44950
X1.16100 Y-0.45450
X1.16000 Y-0.45450
X1.16000 Y-0.45750
X1.15900 Y-0.45750
X1.15900 Y-0.45850
X1.15800 Y-0.45850
X1.15800 Y-0.46050
X1.15700 Y-0.46050
X1.15700 Y-0.46150
X1.15600 Y-0.46150
X1.15600 Y-0.46250
X1.15500 Y-0.46250
X1.15500 Y-0.46450
X1.15400 Y-0.46450
X1.15400 Y-0.46550
X1.15200 Y-0.46550
X1.15200 Y-0.46650
X1.15100 Y-0.46650
X1.15100 Y-0.46750
X1.14900 Y-0.46750
X1.14900 Y-0.46850
X1.14700 Y-0.46850
X1.14700 Y-0.46950
X1.14600 Y-0.46950
X1.14600 Y-0.47050
X1.14100 Y-0.47050
X1.14100 Y-0.47150
X1.11800 Y-0.47150
X1.11800 Y-0.47050
X1.11300 Y-0.47050
X1.11300 Y-0.46950
X1.11200 Y-0.46950
X1.11200 Y-0.46850
X1.11000 Y-0.46850
X1.11000 Y-0.46750
X1.10800 Y-0.46750
X1.10800 Y-0.46650
X1.10700 Y-0.46650
X1.10700 Y-0.46550
X1.10500 Y-0.46550
X1.10500 Y-0.46450
X1.10400 Y-0.46450
X1.10400 Y-0.46250
X1.10300 Y-0.46250
X1.10300 Y-0.46150
X1.10200 Y-0.46150
X1.10200 Y-0.46050
X1.10100 Y-0.46050
X1.10100 Y-0.45850
X1.10000 Y-0.45850
X1.10000 Y-0.45750
X1.09900 Y-0.45750
X1.09900 Y-0.45450
X1.09800 Y-0.45450
X1.09800 Y-0.44950
X1.09700 Y-0.44950
X1.09700 Y-0.42850
X1.09800 Y-0.42850
X1.09800 Y-0.42350
X1.09900 Y-0.42350
X1.09900 Y-0.42050
X1.10000 Y-0.42050
X1.10000 Y-0.41950
X1.10100 Y-0.41950
X1.10100 Y-0.41750
X1.10200 Y-0.41750
X1.10200 Y-0.41650
X1.10300 Y-0.41650
X1.10300 Y-0.41550
X1.10400 Y-0.41550
X1.10400 Y-0.41350
X1.10500 Y-0.41350
X1.10500 Y-0.41250
X1.10700 Y-0.41250
X1.10700 Y-0.41150
X1.10800 Y-0.41150
X1.10800 Y-0.41050
X1.11000 Y-0.41050
X1.11000 Y-0.40950
X1.11200 Y-0.40950
X1.11200 Y-0.40850
X1.11300 Y-0.40850
X1.11300 Y-0.40750
X1.11800 Y-0.40750
X1.11800 Y-0.40650
X1.14100 Y-0.40650
X1.14100 Y-0.40750
X1.14600 Y-0.40750
X1.14600 Y-0.40850
X1.14700 Y-0.40850
X1.14700 Y-0.40950
X1.14900 Y-0.40950
X1.14900 Y-0.41050
X1.15100 Y-0.41050
X1.15100 Y-0.41150
X1.15200 Y-0.41150
X1.15200 Y-0.41250
G04 P0 ( dwell for no time -- G64 should not smooth over this point )
G00 Z0.10000 ( retract )

G00 X1.45200 Y-0.41250 ( rapid move to begin. )
G01 Z-0.00500 F100.00000 ( plunge. )
G04 P0 ( dwell for no time -- G64 should not smooth over this point )
X1.45200 Y-0.41250
X1.45400 Y-0.41250
X1.45400 Y-0.41350
X1.45500 Y-0.41350
X1.45500 Y-0.41550
X1.45600 Y-0.41550
X1.45600 Y-0.41650
X1.45700 Y-0.41650
X1.45700 Y-0.41750
X1.45800 Y-0.41750
X1.45800 Y-0.41950
X1.45900 Y-0.41950
X1.45900 Y-0.42050
X1.46000 Y-0.42050
X1.46000 Y-0.42350
X1.46100 Y-0.42350
X1.46100 Y-0.42850
X1.46200 Y-0.42850
X1.46200 Y-0.44950
X1.46100 Y-0.44950
X1.46100 Y-0.45450
X1.46000 Y-0.45450
X1.46000 Y-0.45750
X1.45900 Y-0.45750
X1.45900 Y-0.45850
X1.45800 Y-0.45850
X1.45800 Y-0.46050
X1.45700 Y-0.46050
X1.45700 Y-0.46150
X1.45600 Y-0.46150
X1.45600 Y-0.46250
X1.45500 Y-0.46250
X1.45500 Y-0.46450
X1.45400 Y-0.46450
X1.45400 Y-0.46550
X1.45200 Y-0.46550
X1.45200 Y-0.46650
X1.45100 Y-0.46650
X1.45100 Y-0.46750
X1.44900 Y-0.46750
X1.44900 Y-0.46850
X1.44700 Y-0.46850
X1.44700 Y-0.46950
X1.44600 Y-0.46950
X1.44600 Y-0.47050
X1.44100 Y-0.47050
X1.44100 Y-0.47150
X1.41800 Y-0.47150
X1.41800 Y-0.47050
X1.41300 Y-0.47050
X1.41300 Y-0.46950
X1.41200 Y-0.46950
X1.41200 Y-0.46850
X1.41000 Y-0.46850
X1.41000 Y-0.46750
X1.40800 Y-0.46750
X1.40800 Y-0.46650
X1.40700 Y-0.46650
X1.40700 Y-0.46550
X1.40500 Y-0.46550
X1.40500 Y-0.46450
X1.40400 Y-0.46450
X1.40400 Y-0.46250
X1.40300 Y-0.46250
X1.40300 Y-0.46150
X1.40200 Y-0.46150
X1.40200 Y-0.46050
X1.40100 Y-0.46050
X1.40100 Y-0.45850
X1.40000 Y-0.45850
X1.40000 Y-0.45750
X1.39900 Y-0.45750
X1.39900 Y-0.45450
X1.39800 Y-0.45450
X1.39800 Y-0.44950
X1.39700 Y-0.44950
X1.39700 Y-0.42850
X1.39800 Y-0.42850
X1.39800 Y-0.42350
X1.39900 Y-0.42350
X1.39900 Y-0.42050
X1.40000 Y-0.42050
X1.40000 Y-0.41950
X1.40100 Y-0.41950
X1.40100 Y-0.41750
X1.40200 Y-0.41750
X1.40200 Y-0.41650
X1.40300 Y-0.41650
X1.40300 Y-0.41550
X1.40400 Y-0.41550
X1.40400 Y-0.41350
X1.40500 Y-0.41350
X1.40500 Y-0.41250
X1.40700 Y-0.41250
X1.40700 Y-0.41150
X1.40800 Y-0.41150
X1.40800 Y-0.41050
X1.41000 Y-0.41050
X1.41000 Y-0.40950
X1.41200 Y-0.40950
X1.41200 Y-0.40850
X1.41300 Y-0.40850
X1.41300 Y-0.40750
X1.41800 Y-0.40750
X1.41800 Y-0.40650
X1.44100 Y-0.40650
X1.44100 Y-0.40750
X1.44600 Y-0.40750
X1.44600 Y-0.40850
X1.44700 Y-0.40850
X1.44700 Y-0.40950
X1.44900 Y-0.40950
X1.44900 Y-0.41050
X1.45100 Y-0.41050
X1.45100 Y-0.41150
X1.45200 Y-0.41150
X1.45200 Y-0.41250
G04 P0 ( dwell for no time -- G64 should not smooth over this point )
G00 Z0.10000 ( retract )

G00 X1.66700 Y-0.51750 ( rapid move to begin. )
G01 Z-0.00500 F100.00000 ( plunge. )
G04 P0 ( dwell for no time -- G64 should not smooth over this point )
X1.66700 Y-0.51750
X1.66900 Y-0.51750
X1.66900 Y-0.51850
X1.67000 Y-0.51850
X1.67000 Y-0.52050
X1.67100 Y-0.52050
X1.67100 Y-0.52150
X1.67200 Y-0.52150
X1.67200 Y-0.52250
X1.67300 Y-0.52250
X1.67300 Y-0.52450
X1.67400 Y-0.52450
X1.67400 Y-0.52550
X1.67500 Y-0.52550
X1.67500 Y-0.52850
X1.67600 Y-0.52850
X1.67600 Y-0.53350
X1.67700 Y-0.53350
X1.67700 Y-0.55450
X1.67600 Y-0.55450
X1.67600 Y-0.55950
X1.67500 Y-0.55950
X1.67500 Y-0.56250
X1.67400 Y-0.56250
X1.67400 Y-0.56350
X1.67300 Y-0.56350
X1.67300 Y-0.56550
X1.67200 Y-0.56550
X1.67200 Y-0.56650
X1.67100 Y-0.56650
X1.67100 Y-0.56750
X1.67000 Y-0.56750
X1.67000 Y-0.56950
X1.66900 Y-0.56950
X1.66900 Y-0.57050
X1.66700 Y-0.57050
X1.66700 Y-0.57150
X1.66600 Y-0.57150
X1.66600 Y-0.57250
X1.66400 Y-0.57250
X1.66400 Y-0.57350
X1.66200 Y-0.57350
X1.66200 Y-0.57450
X1.66100 Y-0.57450
X1.66100 Y-0.57550
X1.65600 Y-0.57550
X1.65600 Y-0.57650
X1.63300 Y-0.57650
X1.63300 Y-0.57550
X1.62800 Y-0.57550
X1.62800 Y-0.57450
X1.62700 Y-0.57450
X1.62700 Y-0.57350
X1.62500 Y-0.57350
X1.62500 Y-0.57250
X1.62300 Y-0.57250
X1.62300 Y-0.57150
X1.62200 Y-0.57150
X1.62200 Y-0.57050
X1.62000 Y-0.57050
X1.62000 Y-0.56950
X1.61900 Y-0.56950
X1.61900 Y-0.56750
X1.61800 Y-0.56750
X1.61800 Y-0.56650
X1.61700 Y-0.56650
X1.61700 Y-0.56550
X1.61600 Y-0.56550
X1.61600 Y-0.56350
X1.61500 Y-0.56350
X1.61500 Y-0.56250
X1.61400 Y-0.56250
X1.61400 Y-0.55950
X1.61300 Y-0.55950
X1.61300 Y-0.55450
X1.61200 Y-0.55450
X1.61200 Y-0.53350
X1.61300 Y-0.53350
X1.61300 Y-0.52850
X1.61400 Y-0.52850
X1.61400 Y-0.52550
X1.61500 Y-0.52550
X1.61500 Y-0.52450
X1.61600 Y-0.52450
X1.61600 Y-0.52250
X1.61700 Y-0.52250
X1.61700 Y-0.52150
X1.61800 Y-0.52150
X1.61800 Y-0.52050
X1.61900 Y-0.52050
X1.61900 Y-0.51850
X1.62000 Y-0.51850
X1.62000 Y-0.51750
X1.62200 Y-0.51750
X1.62200 Y-0.51650
X1.62300 Y-0.51650
X1.62300 Y-0.51550
X1.62500 Y-0.51550
X1.62500 Y-0.51450
X1.62700 Y-0.51450
X1.62700 Y-0.51350
X1.62800 Y-0.51350
X1.62800 Y-0.51250
X1.63300 Y-0.51250
X1.63300 Y-0.51150
X1.65600 Y-0.51150
X1.65600 Y-0.51250
X1.66100 Y-0.51250
X1.66100 Y-0.51350
X1.66200 Y-0.51350
X1.66200 Y-0.51450
X1.66400 Y-0.51450
X1.66400 Y-0.51550
X1.66600 Y-0.51550
X1.66600 Y-0.51650
X1.66700 Y-0.51650
X1.66700 Y-0.51750
G04 P0 ( dwell for no time -- G64 should not smooth over this point )
G00 Z0.10000 ( retract )

G00 X0.17700 Y-0.52750 ( rapid move to begin. )
G01 Z-0.00500 F100.00000 ( plunge. )
G04 P0 ( dwell for no time -- G64 should not smooth over this point )
X0.17700 Y-0.52750
X0.17700 Y-0.58650
X0.11200 Y-0.58650
X0.11200 Y-0.52150
X0.17700 Y-0.52150
X0.17700 Y-0.52750
G04 P0 ( dwell for no time -- G64 should not smooth over this point )
G00 Z0.10000 ( retract )

G00 X0.26700 Y-0.52750 ( rapid move to begin. )
G01 Z-0.00500 F100.00000 ( plunge. )
G04 P0 ( dwell for no time -- G64 should not smooth over this point )
X0.26700 Y-0.52750
X0.26900 Y-0.52750
X0.26900 Y-0.52850
X0.27000 Y-0.52850
X0.27000 Y-0.53050
X0.27100 Y-0.53050
X0.27100 Y-0.53150
X0.27200 Y-0.53150
X0.27200 Y-0.53250
X0.27300 Y-0.53250
X0.27300 Y-0.53450
X0.27400 Y-0.53450
X0.27400 Y-0.53550
X0.27500 Y-0.53550
X0.27500 Y-0.53850
X0.27600 Y-0.53850
X0.27600 Y-0.54350
X0.27700 Y-0.54350
X0.27700 Y-0.56450
X0.27600 Y-0.56450
X0.27600 Y-0.56950
X0.27500 Y-0.56950
X0.27500 Y-0.57250
X0.27400 Y-0.57250
X0.27400 Y-0.57350
X0.27300 Y-0.57350
X0.27300 Y-0.57550
X0.27200 Y-0.57550
X0.27200 Y-0.57650
X0.27100 Y-0.57650
X0.27100 Y-0.57750
X0.27000 Y-0.57750
X0.27000 Y-0.57950
X0.26900 Y-0.57950
X0.26900 Y-0.58050
X0.26700 Y-0.58050
X0.26700 Y-0.58150
X0.26600 Y-0.58150
X0.26600 Y-0.58250
X0.26400 Y-0.58250
X0.26400 Y-0.58350
X0.26200 Y-0.58350
X0.26200 Y-0.58450
X0.26100 Y-0.58450
X0.26100 Y-0.58550
X0.25600 Y-0.58550
X0.25600 Y-0.58650
X0.23300 Y-0.58650
X0.23300 Y-0.58550
X0.22800 Y-0.58550
X0.22800 Y-0.58450
X0.22700 Y-0.58450
X0.22700 Y-0.58350
X0.22500 Y-0.58350
X0.22500 Y-0.58250
X0.22300 Y-0.58250
X0.22300 Y-0.58150
X0.22200 Y-0.58150
X0.22200 Y-0.58050
X0.22000 Y-0.58050
X0.22000 Y-0.57950
X0.21900 Y-0.57950
X0.21900 Y-0.57750
X0.21800 Y-0.57750
X0.21800 Y-0.57650
X0.21700 Y-0.57650
X0.21700 Y-0.57550
X0.21600 Y-0.57550
X0.21600 Y-0.57350
X0.21500 Y-0.57350
X0.21500 Y-0.57250
X0.21400 Y-0.57250
X0.21400 Y-0.56950
X0.21300 Y-0.56950
X0.21300 Y-0.56450
X0.21200 Y-0.56450
X0.21200 Y-0.54350
X0.21300 Y-0.54350
X0.21300 Y-0.53850
X0.21400 Y-0.53850
X0.21400 Y-0.53550
X0.21500 Y-0.53550
X0.21500 Y-0.53450
X0.21600 Y-0.53450
X0.21600 Y-0.53250
X0.21700 Y-0.53250
X0.21700 Y-0.53150
X0.21800 Y-0.53150
X0.21800 Y-0.53050
X0.21900 Y-0.53050
X0.21900 Y-0.52850
X0.22000 Y-0.52850
X0.22000 Y-0.52750
X0.22200 Y-0.52750
X0.22200 Y-0.52650
X0.22300 Y-0.52650
X0.22300 Y-0.52550
X0.22500 Y-0.52550
X0.22500 Y-0.52450
X0.22700 Y-0.52450
X0.22700 Y-0.52350
X0.22800 Y-0.52350
X0.22800 Y-0.52250
X0.23300 Y-0.52250
X0.23300 Y-0.52150
X0.25600 Y-0.52150
X0.25600 Y-0.52250
X0.26100 Y-0.52250
X0.26100 Y-0.52350
X0.26200 Y-0.52350
X0.26200 Y-0.52450
X0.26400 Y-0.52450
X0.26400 Y-0.52550
X0.26600 Y-0.52550
X0.26600 Y-0.52650
X0.26700 Y-0.52650
X0.26700 Y-0.52750
G04 P0 ( dwell for no time -- G64 should not smooth over this point )
G00 Z0.10000 ( retract )

G00 X1.15200 Y-0.53750 ( rapid move to begin. )
G01 Z-0.00500 F100.00000 ( plunge. )
G04 P0 ( dwell for no time -- G64 should not smooth over this point )
X1.15200 Y-0.53750
X1.15400 Y-0.53750
X1.15400 Y-0.53850
X1.15500 Y-0.53850
X1.15500 Y-0.54050
X1.15600 Y-0.54050
X1.15600 Y-0.54150
X1.15700 Y-0.54150
X1.15700 Y-0.54250
X1.15800 Y-0.54250
X1.15800 Y-0.54450
X1.15900 Y-0.54450
X1.15900 Y-0.54550
X1.16000 Y-0.54550
X1.16000 Y-0.54850
X1.16100 Y-0.54850
X1.16100 Y-0.55350
X1.16200 Y-0.55350
X1.16200 Y-0.57450
X1.16100 Y-0.57450
X1.16100 Y-0.57950
X1.16000 Y-0.57950
X1.16000 Y-0.58250
X1.15900 Y-0.58250
X1.15900 Y-0.58350
X1.15800 Y-0.58350
X1.15800 Y-0.58550
X1.15700 Y-0.58550
X1.15700 Y-0.58650
X1.15600 Y-0.58650
X1.15600 Y-0.58750
X1.15500 Y-0.58750
X1.15500 Y-0.58950
X1.15400 Y-0.58950
X1.15400 Y-0.59050
X1.15200 Y-0.59050
X1.15200 Y-0.59150
X1.15100 Y-0.59150
X1.15100 Y-0.59250
X1.14900 Y-0.59250
X1.14900 Y-0.59350
X1.14700 Y-0.59350
X1.14700 Y-0.59450
X1.14600 Y-0.59450
X1.14600 Y-0.59550
X1.14100 Y-0.59550
X1.14100 Y-0.59650
X1.11800 Y-0.59650
X1.11800 Y-0.59550
X1.11300 Y-0.59550
X1.11300 Y-0.59450
X1.11200 Y-0.59450
X1.11200 Y-0.59350
X1.11000 Y-0.59350
X1.11000 Y-0.59250
X1.10800 Y-0.59250
X1.10800 Y-0.59150
X1.10700 Y-0.59150
X1.10700 Y-0.59050
X1.10500 Y-0.59050
X1.10500 Y-0.58950
X1.10400 Y-0.58950
X1.10400 Y-0.58750
X1.10300 Y-0.58750
X1.10300 Y-0.58650
X1.10200 Y-0.58650
X1.10200 Y-0.58550
X1.10100 Y-0.58550
X1.10100 Y-0.58350
X1.10000 Y-0.58350
X1.10000 Y-0.58250
X1.09900 Y-0.58250
X1.09900 Y-0.57950
X1.09800 Y-0.57950
X1.09800 Y-0.57450
X1.09700 Y-0.57450
X1.09700 Y-0.55350
X1.09800 Y-0.55350
X1.09800 Y-0.54850
X1.09900 Y-0.54850
X1.09900 Y-0.54550
X1.10000 Y-0.54550
X1.10000 Y-0.54450
X1.10100 Y-0.54450
X1.10100 Y-0.54250
X1.10200 Y-0.54250
X1.10200 Y-0.54150
X1.10300 Y-0.54150
X1.10300 Y-0.54050
X1.10400 Y-0.54050
X1.10400 Y-0.53850
X1.10500 Y-0.53850
X1.10500 Y-0.53750
X1.10700 Y-0.53750
X1.10700 Y-0.53650
X1.10800 Y-0.53650
X1.10800 Y-0.53550
X1.11000 Y-0.53550
X1.11000 Y-0.53450
X1.11200 Y-0.53450
X1.11200 Y-0.53350
X1.11300 Y-0.53350
X1.11300 Y-0.53250
X1.11800 Y-0.53250
X1.11800 Y-0.53150
X1.14100 Y-0.53150
X1.14100 Y-0.53250
X1.14600 Y-0.53250
X1.14600 Y-0.53350
X1.14700 Y-0.53350
X1.14700 Y-0.53450
X1.14900 Y-0.53450
X1.14900 Y-0.53550
X1.15100 Y-0.53550
X1.15100 Y-0.53650
X1.15200 Y-0.53650
X1.15200 Y-0.53750
G04 P0 ( dwell for no time -- G64 should not smooth over this point )
G00 Z0.10000 ( retract )

G00 X1.45200 Y-0.53750 ( rapid move to begin. )
G01 Z-0.00500 F100.00000 ( plunge. )
G04 P0 ( dwell for no time -- G64 should not smooth over this point )
X1.45200 Y-0.53750
X1.45400 Y-0.53750
X1.45400 Y-0.53850
X1.45500 Y-0.53850
X1.45500 Y-0.54050
X1.45600 Y-0.54050
X1.45600 Y-0.54150
X1.45700 Y-0.54150
X1.45700 Y-0.54250
X1.45800 Y-0.54250
X1.45800 Y-0.54450
X1.45900 Y-0.54450
X1.45900 Y-0.54550
X1.46000 Y-0.54550
X1.46000 Y-0.54850
X1.46100 Y-0.54850
X1.46100 Y-0.55350
X1.46200 Y-0.55350
X1.46200 Y-0.57450
X1.46100 Y-0.57450
X1.46100 Y-0.57950
X1.46000 Y-0.57950
X1.46000 Y-0.58250
X1.45900 Y-0.58250
X1.45900 Y-0.58350
X1.45800 Y-0.58350
X1.45800 Y-0.58550
X1.45700 Y-0.58550
X1.45700 Y-0.58650
X1.45600 Y-0.58650
X1.45600 Y-0.58750
X1.45500 Y-0.58750
X1.45500 Y-0.58950
X1.45400 Y-0.58950
X1.45400 Y-0.59050
X1.45200 Y-0.59050
X1.45200 Y-0.59150
X1.45100 Y-0.59150
X1.45100 Y-0.59250
X1.44900 Y-0.59250
X1.44900 Y-0.59350
X1.44700 Y-0.59350
X1.44700 Y-0.59450
X1.44600 Y-0.59450
X1.44600 Y-0.59550
X1.44100 Y-0.59550
X1.44100 Y-0.59650
X1.41800 Y-0.59650
X1.41800 Y-0.59550
X1.41300 Y-0.59550
X1.41300 Y-0.59450
X1.41200 Y-0.59450
X1.41200 Y-0.59350
X1.41000 Y-0.59350
X1.41000 Y-0.59250
X1.40800 Y-0.59250
X1.40800 Y-0.59150
X1.40700 Y-0.59150
X1.40700 Y-0.59050
X1.40500 Y-0.59050
X1.40500 Y-0.58950
X1.40400 Y-0.58950
X1.40400 Y-0.58750
X1.40300 Y-0.58750
X1.40300 Y-0.58650
X1.40200 Y-0.58650
X1.40200 Y-0.58550
X1.40100 Y-0.58550
X1.40100 Y-0.58350
X1.40000 Y-0.58350
X1.40000 Y-0.58250
X1.39900 Y-0.58250
X1.39900 Y-0.57950
X1.39800 Y-0.57950
X1.39800 Y-0.57450
X1.39700 Y-0.57450
X1.39700 Y-0.55350
X1.39800 Y-0.55350
X1.39800 Y-0.54850
X1.39900 Y-0.54850
X1.39900 Y-0.54550
X1.40000 Y-0.54550
X1.40000 Y-0.54450
X1.40100 Y-0.54450
X1.40100 Y-0.54250
X1.40200 Y-0.54250
X1.40200 Y-0.54150
X1.40300 Y-0.54150
X1.40300 Y-0.54050
X1.40400 Y-0.54050
X1.40400 Y-0.53850
X1.40500 Y-0.53850
X1.40500 Y-0.53750
X1.40700 Y-0.53750
X1.40700 Y-0.53650
X1.40800 Y-0.53650
X1.40800 Y-0.53550
X1.41000 Y-0.53550
X1.41000 Y-0.53450
X1.41200 Y-0.53450
X1.41200 Y-0.53350
X1.41300 Y-0.53350
X1.41300 Y-0.53250
X1.41800 Y-0.53250
X1.41800 Y-0.53150
X1.44100 Y-0.53150
X1.44100 Y-0.53250
X1.44600 Y-0.53250
X1.44600 Y-0.53350
X1.44700 Y-0.53350
X1.44700 Y-0.53450
X1.44900 Y-0.53450
X1.44900 Y-0.53550
X1.45100 Y-0.53550
X1.45100 Y-0.53650
X1.45200 Y-0.53650
X1.45200 Y-0.53750
G04 P0 ( dwell for no time -- G64 should not smooth over this point )
G00 Z0.10000 ( retract )

G00 X0.64600 Y-0.68950 ( rapid move to begin. )
G01 Z-0.00500 F100.00000 ( plunge. )
G04 P0 ( dwell for no time -- G64 should not smooth over this point )
X0.64600 Y-0.68950
X0.64600 Y-0.78450
X0.57300 Y-0.78450
X0.57300 Y-0.68350
X0.64600 Y-0.68350
X0.64600 Y-0.68950
G04 P0 ( dwell for no time -- G64 should not smooth over this point )
G00 Z0.10000 ( retract )

G00 X0.73200 Y-0.68950 ( rapid move to begin. )
G01 Z-0.00500 F100.00000 ( plunge. )
G04 P0 ( dwell for no time -- G64 should not smooth over this point )
X0.73200 Y-0.68950
X0.73400 Y-0.68950
X0.73400 Y-0.69050
X0.73600 Y-0.69050
X0.73600 Y-0.69150
X0.73700 Y-0.69150
X0.73700 Y-0.69250
X0.73800 Y-0.69250
X0.73800 Y-0.69450
X0.73900 Y-0.69450
X0.73900 Y-0.69550
X0.74000 Y-0.69550
X0.74000 Y-0.69750
X0.74100 Y-0.69750
X0.74100 Y-0.69850
X0.74200 Y-0.69850
X0.74200 Y-0.69950
X0.74300 Y-0.69950
X0.74300 Y-0.70150
X0.74400 Y-0.70150
X0.74400 Y-0.70650
X0.74500 Y-0.70650
X0.74500 Y-0.71150
X0.74600 Y-0.71150
X0.74600 Y-0.75650
X0.74500 Y-0.75650
X0.74500 Y-0.76150
X0.74400 Y-0.76150
X0.74400 Y-0.76650
X0.74300 Y-0.76650
X0.74300 Y-0.76850
X0.74200 Y-0.76850
X0.74200 Y-0.76950
X0.74100 Y-0.76950
X0.74100 Y-0.77050
X0.74000 Y-0.77050
X0.74000 Y-0.77250
X0.73900 Y-0.77250
X0.73900 Y-0.77350
X0.73800 Y-0.77350
X0.73800 Y-0.77550
X0.73700 Y-0.77550
X0.73700 Y-0.77650
X0.73600 Y-0.77650
X0.73600 Y-0.77750
X0.73400 Y-0.77750
X0.73400 Y-0.77850
X0.73200 Y-0.77850
X0.73200 Y-0.77950
X0.73100 Y-0.77950
X0.73100 Y-0.78050
X0.72900 Y-0.78050
X0.72900 Y-0.78150
X0.72700 Y-0.78150
X0.72700 Y-0.78250
X0.72400 Y-0.78250
X0.72400 Y-0.78350
X0.71800 Y-0.78350
X0.71800 Y-0.78450
X0.70100 Y-0.78450
X0.70100 Y-0.78350
X0.69500 Y-0.78350
X0.69500 Y-0.78250
X0.69200 Y-0.78250
X0.69200 Y-0.78150
X0.69000 Y-0.78150
X0.69000 Y-0.78050
X0.68800 Y-0.78050
X0.68800 Y-0.77950
X0.68700 Y-0.77950
X0.68700 Y-0.77850
X0.68500 Y-0.77850
X0.68500 Y-0.77750
X0.68300 Y-0.77750
X0.68300 Y-0.77650
X0.68200 Y-0.77650
X0.68200 Y-0.77550
X0.68100 Y-0.77550
X0.68100 Y-0.77350
X0.68000 Y-0.77350
X0.68000 Y-0.77250
X0.67900 Y-0.77250
X0.67900 Y-0.77050
X0.67800 Y-0.77050
X0.67800 Y-0.76950
X0.67700 Y-0.76950
X0.67700 Y-0.76850
X0.67600 Y-0.76850
X0.67600 Y-0.76650
X0.67500 Y-0.76650
X0.67500 Y-0.76150
X0.67400 Y-0.76150
X0.67400 Y-0.75650
X0.67300 Y-0.75650
X0.67300 Y-0.71150
X0.67400 Y-0.71150
X0.67400 Y-0.70650
X0.67500 Y-0.70650
X0.67500 Y-0.70150
X0.67600 Y-0.70150
X0.67600 Y-0.69950
X0.67700 Y-0.69950
X0.67700 Y-0.69850
X0.67800 Y-0.69850
X0.67800 Y-0.69750
X0.67900 Y-0.69750
X0.67900 Y-0.69550
X0.68000 Y-0.69550
X0.68000 Y-0.69450
X0.68100 Y-0.69450
X0.68100 Y-0.69250
X0.68200 Y-0.69250
X0.68200 Y-0.69150
X0.68300 Y-0.69150
X0.68300 Y-0.69050
X0.68500 Y-0.69050
X0.68500 Y-0.68950
X0.68700 Y-0.68950
X0.68700 Y-0.68850
X0.68800 Y-0.68850
X0.68800 Y-0.68750
X0.69000 Y-0.68750
X0.69000 Y-0.68650
X0.69200 Y-0.68650
X0.69200 Y-0.68550
X0.69500 Y-0.68550
X0.69500 Y-0.68450
X0.70100 Y-0.68450
X0.70100 Y-0.68350
X0.71800 Y-0.68350
X0.71800 Y-0.68450
X0.72400 Y-0.68450
X0.72400 Y-0.68550
X0.72700 Y-0.68550
X0.72700 Y-0.68650
X0.72900 Y-0.68650
X0.72900 Y-0.68750
X0.73100 Y-0.68750
X0.73100 Y-0.68850
X0.73200 Y-0.68850
X0.73200 Y-0.68950
G04 P0 ( dwell for no time -- G64 should not smooth over this point )
G00 Z0.10000 ( retract )

G00 X0.83200 Y-0.68950 ( rapid move to begin. )
G01 Z-0.00500 F100.00000 ( plunge. )
G04 P0 ( dwell for no time -- G64 should not smooth over this point )
X0.83200 Y-0.68950
X0.83400 Y-0.68950
X0.83400 Y-0.69050
X0.83600 Y-0.69050
X0.83600 Y-0.69150
X0.83700 Y-0.69150
X0.83700 Y-0.69250
X0.83800 Y-0.69250
X0.83800 Y-0.69450
X0.83900 Y-0.69450
X0.83900 Y-0.69550
X0.84000 Y-0.69550
X0.84000 Y-0.69750
X0.84100 Y-0.69750
X0.84100 Y-0.69850
X0.84200 Y-0.69850
X0.84200 Y-0.69950
X0.84300 Y-0.69950
X0.84300 Y-0.70150
X0.84400 Y-0.70150
X0.84400 Y-0.70650
X0.84500 Y-0.70650
X0.84500 Y-0.71150
X0.84600 Y-0.71150
X0.84600 Y-0.75650
X0.84500 Y-0.75650
X0.84500 Y-0.76150
X0.84400 Y-0.76150
X0.84400 Y-0.76650
X0.84300 Y-0.76650
X0.84300 Y-0.76850
X0.84200 Y-0.76850
X0.84200 Y-0.76950
X0.84100 Y-0.76950
X0.84100 Y-0.77050
X0.84000 Y-0.77050
X0.84000 Y-0.77250
X0.83900 Y-0.77250
X0.83900 Y-0.77350
X0.83800 Y-0.77350
X0.83800 Y-0.77550
X0.83700 Y-0.77550
X0.83700 Y-0.77650
X0.83600 Y-0.77650
X0.83600 Y-0.77750
X0.83400 Y-0.77750
X0.83400 Y-0.77850
X0.83200 Y-0.77850
X0.83200 Y-0.77950
X0.83100 Y-0.77950
X0.83100 Y-0.78050
X0.82900 Y-0.78050
X0.82900 Y-0.78150
X0.82700 Y-0.78150
X0.82700 Y-0.78250
X0.82400 Y-0.78250
X0.82400 Y-0.78350
X0.81800 Y-0.78350
X0.81800 Y-0.78450
X0.80100 Y-0.78450
X0.80100 Y-0.78350
X0.79500 Y-0.78350
X0.79500 Y-0.78250
X0.79200 Y-0.78250
X0.79200 Y-0.78150
X0.79000 Y-0.78150
X0.79000 Y-0.78050
X0.78800 Y-0.78050
X0.78800 Y-0.77950
X0.78700 Y-0.77950
X0.78700 Y-0.77850
X0.78500 Y-0.77850
X0.78500 Y-0.77750
X0.78300 Y-0.77750
X0.78300 Y-0.77650
X0.78200 Y-0.77650
X0.78200 Y-0.77550
X0.78100 Y-0.77550
X0.78100 Y-0.77350
X0.78000 Y-0.77350
X0.78000 Y-0.77250
X0.77900 Y-0.77250
X0.77900 Y-0.77050
X0.77800 Y-0.77050
X0.77800 Y-0.76950
X0.77700 Y-0.76950
X0.77700 Y-0.76850
X0.77600 Y-0.76850
X0.77600 Y-0.76650
X0.77500 Y-0.76650
X0.77500 Y-0.76150
X0.77400 Y-0.76150
X0.77400 Y-0.75650
X0.77300 Y-0.75650
X0.77300 Y-0.71150
X0.77400 Y-0.71150
X0.77400 Y-0.70650
X0.77500 Y-0.70650
X0.77500 Y-0.70150
X0.77600 Y-0.70150
X0.77600 Y-0.69950
X0.77700 Y-0.69950
X0.77700 Y-0.69850
X0.77800 Y-0.69850
X0.77800 Y-0.69750
X0.77900 Y-0.69750
X0.77900 Y-0.69550
X0.78000 Y-0.69550
X0.78000 Y-0.69450
X0.78100 Y-0.69450
X0.78100 Y-0.69250
X0.78200 Y-0.69250
X0.78200 Y-0.69150
X0.78300 Y-0.69150
X0.78300 Y-0.69050
X0.78500 Y-0.69050
X0.78500 Y-0.68950
X0.78700 Y-0.68950
X0.78700 Y-0.68850
X0.78800 Y-0.68850
X0.78800 Y-0.68750
X0.79000 Y-0.68750
X0.79000 Y-0.68650
X0.79200 Y-0.68650
X0.79200 Y-0.68550
X0.79500 Y-0.68550
X0.79500 Y-0.68450
X0.80100 Y-0.68450
X0.80100 Y-0.68350
X0.81800 Y-0.68350
X0.81800 Y-0.68450
X0.82400 Y-0.68450
X0.82400 Y-0.68550
X0.82700 Y-0.68550
X0.82700 Y-0.68650
X0.82900 Y-0.68650
X0.82900 Y-0.68750
X0.83100 Y-0.68750
X0.83100 Y-0.68850
X0.83200 Y-0.68850
X0.83200 Y-0.68950
G04 P0 ( dwell for no time -- G64 should not smooth over this point )
G00 Z0.10000 ( retract )

G00 X0.93200 Y-0.68950 ( rapid move to begin. )
G01 Z-0.00500 F100.00000 ( plunge. )
G04 P0 ( dwell for no time -- G64 should not smooth over this point )
X0.93200 Y-0.68950
X0.93400 Y-0.68950
X0.93400 Y-0.69050
X0.93600 Y-0.69050
X0.93600 Y-0.69150
X0.93700 Y-0.69150
X0.93700 Y-0.69250
X0.93800 Y-0.69250
X0.93800 Y-0.69450
X0.93900 Y-0.69450
X0.93900 Y-0.69550
X0.94000 Y-0.69550
X0.94000 Y-0.69750
X0.94100 Y-0.69750
X0.94100 Y-0.69850
X0.94200 Y-0.69850
X0.94200 Y-0.69950
X0.94300 Y-0.69950
X0.94300 Y-0.70150
X0.94400 Y-0.70150
X0.94400 Y-0.70650
X0.94500 Y-0.70650
X0.94500 Y-0.71150
X0.94600 Y-0.71150
X0.94600 Y-0.75650
X0.94500 Y-0.75650
X0.94500 Y-0.76150
X0.94400 Y-0.76150
X0.94400 Y-0.76650
X0.94300 Y-0.76650
X0.94300 Y-0.76850
X0.94200 Y-0.76850
X0.94200 Y-0.76950
X0.94100 Y-0.76950
X0.94100 Y-0.77050
X0.94000 Y-0.77050
X0.94000 Y-0.77250
X0.93900 Y-0.77250
X0.93900 Y-0.77350
X0.93800 Y-0.77350
X0.93800 Y-0.77550
X0.93700 Y-0.77550
X0.93700 Y-0.77650
X0.93600 Y-0.77650
X0.93600 Y-0.77750
X0.93400 Y-0.77750
X0.93400 Y-0.77850
X0.93200 Y-0.77850
X0.93200 Y-0.77950
X0.93100 Y-0.77950
X0.93100 Y-0.78050
X0.92900 Y-0.78050
X0.92900 Y-0.78150
X0.92700 Y-0.78150
X0.92700 Y-0.78250
X0.92400 Y-0.78250
X0.92400 Y-0.78350
X0.91800 Y-0.78350
X0.91800 Y-0.78450
X0.90100 Y-0.78450
X0.90100 Y-0.78350
X0.89500 Y-0.78350
X0.89500 Y-0.78250
X0.89200 Y-0.78250
X0.89200 Y-0.78150
X0.89000 Y-0.78150
X0.89000 Y-0.78050
X0.88800 Y-0.78050
X0.88800 Y-0.77950
X0.88700 Y-0.77950
X0.88700 Y-0.77850
X0.88500 Y-0.77850
X0.88500 Y-0.77750
X0.88300 Y-0.77750
X0.88300 Y-0.77650
X0.88200 Y-0.77650
X0.88200 Y-0.77550
X0.88100 Y-0.77550
X0.88100 Y-0.77350
X0.88000 Y-0.77350
X0.88000 Y-0.77250
X0.87900 Y-0.77250
X0.87900 Y-0.77050
X0.87800 Y-0.77050
X0.87800 Y-0.76950
X0.87700 Y-0.76950
X0.87700 Y-0.76850
X0.87600 Y-0.76850
X0.87600 Y-0.76650
X0.87500 Y-0.76650
X0.87500 Y-0.76150
X0.87400 Y-0.76150
X0.87400 Y-0.75650
X0.87300 Y-0.75650
X0.87300 Y-0.71150
X0.87400 Y-0.71150
X0.87400 Y-0.70650
X0.87500 Y-0.70650
X0.87500 Y-0.70150
X0.87600 Y-0.70150
X0.87600 Y-0.69950
X0.87700 Y-0.69950
X0.87700 Y-0.69850
X0.87800 Y-0.69850
X0.87800 Y-0.69750
X0.87900 Y-0.69750
X0.87900 Y-0.69550
X0.88000 Y-0.69550
X0.88000 Y-0.69450
X0.88100 Y-0.69450
X0.88100 Y-0.69250
X0.88200 Y-0.69250
X0.88200 Y-0.69150
X0.88300 Y-0.69150
X0.88300 Y-0.69050
X0.88500 Y-0.69050
X0.88500 Y-0.68950
X0.88700 Y-0.68950
X0.88700 Y-0.68850
X0.88800 Y-0.68850
X0.88800 Y-0.68750
X0.89000 Y-0.68750
X0.89000 Y-0.68650
X0.89200 Y-0.68650
X0.89200 Y-0.68550
X0.89500 Y-0.68550
X0.89500 Y-0.68450
X0.90100 Y-0.68450
X0.90100 Y-0.68350
X0.91800 Y-0.68350
X0.91800 Y-0.68450
X0.92400 Y-0.68450
X0.92400 Y-0.68550
X0.92700 Y-0.68550
X0.92700 Y-0.68650
X0.92900 Y-0.68650
X0.92900 Y-0.68750
X0.93100 Y-0.68750
X0.93100 Y-0.68850
X0.93200 Y-0.68850
X0.93200 Y-0.68950
G04 P0 ( dwell for no time -- G64 should not smooth over this point )
G00 Z0.10000 ( retract )

G00 X1.36700 Y-0.82250 ( rapid move to begin. )
G01 Z-0.00500 F100.00000 ( plunge. )
G04 P0 ( dwell for no time -- G64 should not smooth over this point )
X1.36700 Y-0.82250
X1.36900 Y-0.82250
X1.36900 Y-0.82350
X1.37000 Y-0.82350
X1.37000 Y-0.82550
X1.37100 Y-0.82550
X1.37100 Y-0.82650
X1.37200 Y-0.82650
X1.37200 Y-0.82750
X1.37300 Y-0.82750
X1.37300 Y-0.82950
X1.37400 Y-0.82950
X1.37400 Y-0.83050
X1.37500 Y-0.83050
X1.37500 Y-0.83350
X1.37600 Y-0.83350
X1.37600 Y-0.83850
X1.37700 Y-0.83850
X1.37700 Y-0.85950
X1.37600 Y-0.85950
X1.37600 Y-0.86450
X1.37500 Y-0.86450
X1.37500 Y-0.86750
X1.37400 Y-0.86750
X1.37400 Y-0.86850
X1.37300 Y-0.86850
X1.37300 Y-0.87050
X1.37200 Y-0.87050
X1.37200 Y-0.87150
X1.37100 Y-0.87150
X1.37100 Y-0.87250
X1.37000 Y-0.87250
X1.37000 Y-0.87450
X1.36900 Y-0.87450
X1.36900 Y-0.87550
X1.36700 Y-0.87550
X1.36700 Y-0.87650
X1.36600 Y-0.87650
X1.36600 Y-0.87750
X1.36400 Y-0.87750
X1.36400 Y-0.87850
X1.36200 Y-0.87850
X1.36200 Y-0.87950
X1.36100 Y-0.87950
X1.36100 Y-0.88050
X1.35600 Y-0.88050
X1.35600 Y-0.88150
X1.33300 Y-0.88150
X1.33300 Y-0.88050
X1.32800 Y-0.88050
X1.32800 Y-0.87950
X1.32700 Y-0.87950
X1.32700 Y-0.87850
X1.32500 Y-0.87850
X1.32500 Y-0.87750
X1.32300 Y-0.87750
X1.32300 Y-0.87650
X1.32200 Y-0.87650
X1.32200 Y-0.87550
X1.32000 Y-0.87550
X1.32000 Y-0.87450
X1.31900 Y-0.87450
X1.31900 Y-0.87250
X1.31800 Y-0.87250
X1.31800 Y-0.87150
X1.31700 Y-0.87150
X1.31700 Y-0.87050
X1.31600 Y-0.87050
X1.31600 Y-0.86850
X1.31500 Y-0.86850
X1.31500 Y-0.86750
X1.31400 Y-0.86750
X1.31400 Y-0.86450
X1.31300 Y-0.86450
X1.31300 Y-0.85950
X1.31200 Y-0.85950
X1.31200 Y-0.83850
X1.31300 Y-0.83850
X1.31300 Y-0.83350
X1.31400 Y-0.83350
X1.31400 Y-0.83050
X1.31500 Y-0.83050
X1.31500 Y-0.82950
X1.31600 Y-0.82950
X1.31600 Y-0.82750
X1.31700 Y-0.82750
X1.31700 Y-0.82650
X1.31800 Y-0.82650
X1.31800 Y-0.82550
X1.31900 Y-0.82550
X1.31900 Y-0.82350
X1.32000 Y-0.82350
X1.32000 Y-0.82250
X1.32200 Y-0.82250
X1.32200 Y-0.82150
X1.32300 Y-0.82150
X1.32300 Y-0.82050
X1.32500 Y-0.82050
X1.32500 Y-0.81950
X1.32700 Y-0.81950
X1.32700 Y-0.81850
X1.32800 Y-0.81850
X1.32800 Y-0.81750
X1.33300 Y-0.81750
X1.33300 Y-0.81650
X1.35600 Y-0.81650
X1.35600 Y-0.81750
X1.36100 Y-0.81750
X1.36100 Y-0.81850
X1.36200 Y-0.81850
X1.36200 Y-0.81950
X1.36400 Y-0.81950
X1.36400 Y-0.82050
X1.36600 Y-0.82050
X1.36600 Y-0.82150
X1.36700 Y-0.82150
X1.36700 Y-0.82250
G04 P0 ( dwell for no time -- G64 should not smooth over this point )
G00 Z0.10000 ( retract )

G00 X1.46700 Y-0.82250 ( rapid move to begin. )
G01 Z-0.00500 F100.00000 ( plunge. )
G04 P0 ( dwell for no time -- G64 should not smooth over this point )
X1.46700 Y-0.82250
X1.46900 Y-0.82250
X1.46900 Y-0.82350
X1.47000 Y-0.82350
X1.47000 Y-0.82550
X1.47100 Y-0.82550
X1.47100 Y-0.82650
X1.47200 Y-0.82650
X1.47200 Y-0.82750
X1.47300 Y-0.82750
X1.47300 Y-0.82950
X1.47400 Y-0.82950
X1.47400 Y-0.83050
X1.47500 Y-0.83050
X1.47500 Y-0.83350
X1.47600 Y-0.83350
X1.47600 Y-0.83850
X1.47700 Y-0.83850
X1.47700 Y-0.85950
X1.47600 Y-0.85950
X1.47600 Y-0.86450
X1.47500 Y-0.86450
X1.47500 Y-0.86750
X1.47400 Y-0.86750
X1.47400 Y-0.86850
X1.47300 Y-0.86850
X1.47300 Y-0.87050
X1.47200 Y-0.87050
X1.47200 Y-0.87150
X1.47100 Y-0.87150
X1.47100 Y-0.87250
X1.47000 Y-0.87250
X1.47000 Y-0.87450
X1.46900 Y-0.87450
X1.46900 Y-0.87550
X1.46700 Y-0.87550
X1.46700 Y-0.87650
X1.46600 Y-0.87650
X1.46600 Y-0.87750
X1.46400 Y-0.87750
X1.46400 Y-0.87850
X1.46200 Y-0.87850
X1.46200 Y-0.87950
X1.46100 Y-0.87950
X1.46100 Y-0.88050
X1.45600 Y-0.88050
X1.45600 Y-0.88150
X1.43300 Y-0.88150
X1.43300 Y-0.88050
X1.42800 Y-0.88050
X1.42800 Y-0.87950
X1.42700 Y-0.87950
X1.42700 Y-0.87850
X1.42500 Y-0.87850
X1.42500 Y-0.87750
X1.42300 Y-0.87750
X1.42300 Y-0.87650
X1.42200 Y-0.87650
X1.42200 Y-0.87550
X1.42000 Y-0.87550
X1.42000 Y-0.87450
X1.41900 Y-0.87450
X1.41900 Y-0.87250
X1.41800 Y-0.87250
X1.41800 Y-0.87150
X1.41700 Y-0.87150
X1.41700 Y-0.87050
X1.41600 Y-0.87050
X1.41600 Y-0.86850
X1.41500 Y-0.86850
X1.41500 Y-0.86750
X1.41400 Y-0.86750
X1.41400 Y-0.86450
X1.41300 Y-0.86450
X1.41300 Y-0.85950
X1.41200 Y-0.85950
X1.41200 Y-0.83850
X1.41300 Y-0.83850
X1.41300 Y-0.83350
X1.41400 Y-0.83350
X1.41400 Y-0.83050
X1.41500 Y-0.83050
X1.41500 Y-0.82950
X1.41600 Y-0.82950
X1.41600 Y-0.82750
X1.41700 Y-0.82750
X1.41700 Y-0.82650
X1.41800 Y-0.82650
X1.41800 Y-0.82550
X1.41900 Y-0.82550
X1.41900 Y-0.82350
X1.42000 Y-0.82350
X1.42000 Y-0.82250
X1.42200 Y-0.82250
X1.42200 Y-0.82150
X1.42300 Y-0.82150
X1.42300 Y-0.82050
X1.42500 Y-0.82050
X1.42500 Y-0.81950
X1.42700 Y-0.81950
X1.42700 Y-0.81850
X1.42800 Y-0.81850
X1.42800 Y-0.81750
X1.43300 Y-0.81750
X1.43300 Y-0.81650
X1.45600 Y-0.81650
X1.45600 Y-0.81750
X1.46100 Y-0.81750
X1.46100 Y-0.81850
X1.46200 Y-0.81850
X1.46200 Y-0.81950
X1.46400 Y-0.81950
X1.46400 Y-0.82050
X1.46600 Y-0.82050
X1.46600 Y-0.82150
X1.46700 Y-0.82150
X1.46700 Y-0.82250
G04 P0 ( dwell for no time -- G64 should not smooth over this point )
G00 Z0.10000 ( retract )

G00 X1.56700 Y-0.82250 ( rapid move to begin. )
G01 Z-0.00500 F100.00000 ( plunge. )
G04 P0 ( dwell for no time -- G64 should not smooth over this point )
X1.56700 Y-0.82250
X1.56900 Y-0.82250
X1.56900 Y-0.82350
X1.57000 Y-0.82350
X1.57000 Y-0.82550
X1.57100 Y-0.82550
X1.57100 Y-0.82650
X1.57200 Y-0.82650
X1.57200 Y-0.82750
X1.57300 Y-0.82750
X1.57300 Y-0.82950
X1.57400 Y-0.82950
X1.57400 Y-0.83050
X1.57500 Y-0.83050
X1.57500 Y-0.83350
X1.57600 Y-0.83350
X1.57600 Y-0.83850
X1.57700 Y-0.83850
X1.57700 Y-0.85950
X1.57600 Y-0.85950
X1.57600 Y-0.86450
X1.57500 Y-0.86450
X1.57500 Y-0.86750
X1.57400 Y-0.86750
X1.57400 Y-0.86850
X1.57300 Y-0.86850
X1.57300 Y-0.87050
X1.57200 Y-0.87050
X1.57200 Y-0.87150
X1.57100 Y-0.87150
X1.57100 Y-0.87250
X1.57000 Y-0.87250
X1.57000 Y-0.87450
X1.56900 Y-0.87450
X1.56900 Y-0.87550
X1.56700 Y-0.87550
X1.56700 Y-0.87650
X1.56600 Y-0.87650
X1.56600 Y-0.87750
X1.56400 Y-0.87750
X1.56400 Y-0.87850
X1.56200 Y-0.87850
X1.56200 Y-0.87950
X1.56100 Y-0.87950
X1.56100 Y-0.88050
X1.55600 Y-0.88050
X1.55600 Y-0.88150
X1.53300 Y-0.88150
X1.53300 Y-0.88050
X1.52800 Y-0.88050
X1.52800 Y-0.87950
X1.52700 Y-0.87950
X1.52700 Y-0.87850
X1.52500 Y-0.87850
X1.52500 Y-0.87750
X1.52300 Y-0.87750
X1.52300 Y-0.87650
X1.52200 Y-0.87650
X1.52200 Y-0.87550
X1.52000 Y-0.87550
X1.52000 Y-0.87450
X1.51900 Y-0.87450
X1.51900 Y-0.87250
X1.51800 Y-0.87250
X1.51800 Y-0.87150
X1.51700 Y-0.87150
X1.51700 Y-0.87050
X1.51600 Y-0.87050
X1.51600 Y-0.86850
X1.51500 Y-0.86850
X1.51500 Y-0.86750
X1.51400 Y-0.86750
X1.51400 Y-0.86450
X1.51300 Y-0.86450
X1.51300 Y-0.85950
X1.51200 Y-0.85950
X1.51200 Y-0.83850
X1.51300 Y-0.83850
X1.51300 Y-0.83350
X1.51400 Y-0.83350
X1.51400 Y-0.83050
X1.51500 Y-0.83050
X1.51500 Y-0.82950
X1.51600 Y-0.82950
X1.51600 Y-0.82750
X1.51700 Y-0.82750
X1.51700 Y-0.82650
X1.51800 Y-0.82650
X1.51800 Y-0.82550
X1.51900 Y-0.82550
X1.51900 Y-0.82350
X1.52000 Y-0.82350
X1.52000 Y-0.82250
X1.52200 Y-0.82250
X1.52200 Y-0.82150
X1.52300 Y-0.82150
X1.52300 Y-0.82050
X1.52500 Y-0.82050
X1.52500 Y-0.81950
X1.52700 Y-0.81950
X1.52700 Y-0.81850
X1.52800 Y-0.81850
X1.52800 Y-0.81750
X1.53300 Y-0.81750
X1.53300 Y-0.81650
X1.55600 Y-0.81650
X1.55600 Y-0.81750
X1.56100 Y-0.81750
X1.56100 Y-0.81850
X1.56200 Y-0.81850
X1.56200 Y-0.81950
X1.56400 Y-0.81950
X1.56400 Y-0.82050
X1.56600 Y-0.82050
X1.56600 Y-0.82150
X1.56700 Y-0.82150
X1.56700 Y-0.82250
G04 P0 ( dwell for no time -- G64 should not smooth over this point )
G00 Z0.10000 ( retract )

G00 X1.67700 Y-0.82250 ( rapid move to begin. )
G01 Z-0.00500 F100.00000 ( plunge. )
G04 P0 ( dwell for no time -- G64 should not smooth over this point )
X1.67700 Y-0.82250
X1.67700 Y-0.88150
X1.61200 Y-0.88150
X1.61200 Y-0.81650
X1.67700 Y-0.81650
X1.67700 Y-0.82250
G04 P0 ( dwell for no time -- G64 should not smooth over this point )
G00 Z0.10000 ( retract )

G00 X0.17700 Y-0.91250 ( rapid move to begin. )
G01 Z-0.00500 F100.00000 ( plunge. )
G04 P0 ( dwell for no time -- G64 should not smooth over this point )
X0.17700 Y-0.91250
X0.17700 Y-0.97150
X0.11200 Y-0.97150
X0.11200 Y-0.90650
X0.17700 Y-0.90650
X0.17700 Y-0.91250
G04 P0 ( dwell for no time -- G64 should not smooth over this point )
G00 Z0.10000 ( retract )

G00 X0.26700 Y-0.91250 ( rapid move to begin. )
G01 Z-0.00500 F100.00000 ( plunge. )
G04 P0 ( dwell for no time -- G64 should not smooth over this point )
X0.26700 Y-0.91250
X0.26900 Y-0.91250
X0.26900 Y-0.91350
X0.27000 Y-0.91350
X0.27000 Y-0.91550
X0.27100 Y-0.91550
X0.27100 Y-0.91650
X0.27200 Y-0.91650
X0.27200 Y-0.91750
X0.27300 Y-0.91750
X0.27300 Y-0.91950
X0.27400 Y-0.91950
X0.27400 Y-0.92050
X0.27500 Y-0.92050
X0.27500 Y-0.92350
X0.27600 Y-0.92350
X0.27600 Y-0.92850
X0.27700 Y-0.92850
X0.27700 Y-0.94950
X0.27600 Y-0.94950
X0.27600 Y-0.95450
X0.27500 Y-0.95450
X0.27500 Y-0.95750
X0.27400 Y-0.95750
X0.27400 Y-0.95850
X0.27300 Y-0.95850
X0.27300 Y-0.96050
X0.27200 Y-0.96050
X0.27200 Y-0.96150
X0.27100 Y-0.96150
X0.27100 Y-0.96250
X0.27000 Y-0.96250
X0.27000 Y-0.96450
X0.26900 Y-0.96450
X0.26900 Y-0.96550
X0.26700 Y-0.96550
X0.26700 Y-0.96650
X0.26600 Y-0.96650
X0.26600 Y-0.96750
X0.26400 Y-0.96750
X0.26400 Y-0.96850
X0.26200 Y-0.96850
X0.26200 Y-0.96950
X0.26100 Y-0.96950
X0.26100 Y-0.97050
X0.25600 Y-0.97050
X0.25600 Y-0.97150
X0.23300 Y-0.97150
X0.23300 Y-0.97050
X0.22800 Y-0.97050
X0.22800 Y-0.96950
X0.22700 Y-0.96950
X0.22700 Y-0.96850
X0.22500 Y-0.96850
X0.22500 Y-0.96750
X0.22300 Y-0.96750
X0.22300 Y-0.96650
X0.22200 Y-0.96650
X0.22200 Y-0.96550
X0.22000 Y-0.96550
X0.22000 Y-0.96450
X0.21900 Y-0.96450
X0.21900 Y-0.96250
X0.21800 Y-0.96250
X0.21800 Y-0.96150
X0.21700 Y-0.96150
X0.21700 Y-0.96050
X0.21600 Y-0.96050
X0.21600 Y-0.95850
X0.21500 Y-0.95850
X0.21500 Y-0.95750
X0.21400 Y-0.95750
X0.21400 Y-0.95450
X0.21300 Y-0.95450
X0.21300 Y-0.94950
X0.21200 Y-0.94950
X0.21200 Y-0.92850
X0.21300 Y-0.92850
X0.21300 Y-0.92350
X0.21400 Y-0.92350
X0.21400 Y-0.92050
X0.21500 Y-0.92050
X0.21500 Y-0.91950
X0.21600 Y-0.91950
X0.21600 Y-0.91750
X0.21700 Y-0.91750
X0.21700 Y-0.91650
X0.21800 Y-0.91650
X0.21800 Y-0.91550
X0.21900 Y-0.91550
X0.21900 Y-0.91350
X0.22000 Y-0.91350
X0.22000 Y-0.91250
X0.22200 Y-0.91250
X0.22200 Y-0.91150
X0.22300 Y-0.91150
X0.22300 Y-0.91050
X0.22500 Y-0.91050
X0.22500 Y-0.90950
X0.22700 Y-0.90950
X0.22700 Y-0.90850
X0.22800 Y-0.90850
X0.22800 Y-0.90750
X0.23300 Y-0.90750
X0.23300 Y-0.90650
X0.25600 Y-0.90650
X0.25600 Y-0.90750
X0.26100 Y-0.90750
X0.26100 Y-0.90850
X0.26200 Y-0.90850
X0.26200 Y-0.90950
X0.26400 Y-0.90950
X0.26400 Y-0.91050
X0.26600 Y-0.91050
X0.26600 Y-0.91150
X0.26700 Y-0.91150
X0.26700 Y-0.91250
G04 P0 ( dwell for no time -- G64 should not smooth over this point )
G00 Z0.10000 ( retract )

G00 X0.36700 Y-0.91250 ( rapid move to begin. )
G01 Z-0.00500 F100.00000 ( plunge. )
G04 P0 ( dwell for no time -- G64 should not smooth over this point )
X0.36700 Y-0.91250
X0.36900 Y-0.91250
X0.36900 Y-0.91350
X0.37000 Y-0.91350
X0.37000 Y-0.91550
X0.37100 Y-0.91550
X0.37100 Y-0.91650
X0.37200 Y-0.91650
X0.37200 Y-0.91750
X0.37300 Y-0.91750
X0.37300 Y-0.91950
X0.37400 Y-0.91950
X0.37400 Y-0.92050
X0.37500 Y-0.92050
X0.37500 Y-0.92350
X0.37600 Y-0.92350
X0.37600 Y-0.92850
X0.37700 Y-0.92850
X0.37700 Y-0.94950
X0.37600 Y-0.94950
X0.37600 Y-0.95450
X0.37500 Y-0.95450
X0.37500 Y-0.95750
X0.37400 Y-0.95750
X0.37400 Y-0.95850
X0.37300 Y-0.95850
X0.37300 Y-0.96050
X0.37200 Y-0.96050
X0.37200 Y-0.96150
X0.37100 Y-0.96150
X0.37100 Y-0.96250
X0.37000 Y-0.96250
X0.37000 Y-0.96450
X0.36900 Y-0.96450
X0.36900 Y-0.96550
X0.36700 Y-0.96550
X0.36700 Y-0.96650
X0.36600 Y-0.96650
X0.36600 Y-0.96750
X0.36400 Y-0.96750
X0.36400 Y-0.96850
X0.36200 Y-0.96850
X0.36200 Y-0.96950
X0.36100 Y-0.96950
X0.36100 Y-0.97050
X0.35600 Y-0.97050
X0.35600 Y-0.97150
X0.33300 Y-0.97150
X0.33300 Y-0.97050
X0.32800 Y-0.97050
X0.32800 Y-0.96950
X0.32700 Y-0.96950
X0.32700 Y-0.96850
X0.32500 Y-0.96850
X0.32500 Y-0.96750
X0.32300 Y-0.96750
X0.32300 Y-0.96650
X0.32200 Y-0.96650
X0.32200 Y-0.96550
X0.32000 Y-0.96550
X0.32000 Y-0.96450
X0.31900 Y-0.96450
X0.31900 Y-0.96250
X0.31800 Y-0.96250
X0.31800 Y-0.96150
X0.31700 Y-0.96150
X0.31700 Y-0.96050
X0.31600 Y-0.96050
X0.31600 Y-0.95850
X0.31500 Y-0.95850
X0.31500 Y-0.95750
X0.31400 Y-0.95750
X0.31400 Y-0.95450
X0.31300 Y-0.95450
X0.31300 Y-0.94950
X0.31200 Y-0.94950
X0.31200 Y-0.92850
X0.31300 Y-0.92850
X0.31300 Y-0.92350
X0.31400 Y-0.92350
X0.31400 Y-0.92050
X0.31500 Y-0.92050
X0.31500 Y-0.91950
X0.31600 Y-0.91950
X0.31600 Y-0.91750
X0.31700 Y-0.91750
X0.31700 Y-0.91650
X0.31800 Y-0.91650
X0.31800 Y-0.91550
X0.31900 Y-0.91550
X0.31900 Y-0.91350
X0.32000 Y-0.91350
X0.32000 Y-0.91250
X0.32200 Y-0.91250
X0.32200 Y-0.91150
X0.32300 Y-0.91150
X0.32300 Y-0.91050
X0.32500 Y-0.91050
X0.32500 Y-0.90950
X0.32700 Y-0.90950
X0.32700 Y-0.90850
X0.32800 Y-0.90850
X0.32800 Y-0.90750
X0.33300 Y-0.90750
X0.33300 Y-0.90650
X0.35600 Y-0.90650
X0.35600 Y-0.90750
X0.36100 Y-0.90750
X0.36100 Y-0.90850
X0.36200 Y-0.90850
X0.36200 Y-0.90950
X0.36400 Y-0.90950
X0.36400 Y-0.91050
X0.36600 Y-0.91050
X0.36600 Y-0.91150
X0.36700 Y-0.91150
X0.36700 Y-0.91250
G04 P0 ( dwell for no time -- G64 should not smooth over this point )
G00 Z0.10000 ( retract )

G00 X0.46700 Y-0.91250 ( rapid move to begin. )
G01 Z-0.00500 F100.00000 ( plunge. )
G04 P0 ( dwell for no time -- G64 should not smooth over this point )
X0.46700 Y-0.91250
X0.46900 Y-0.91250
X0.46900 Y-0.91350
X0.47000 Y-0.91350
X0.47000 Y-0.91550
X0.47100 Y-0.91550
X0.47100 Y-0.91650
X0.47200 Y-0.91650
X0.47200 Y-0.91750
X0.47300 Y-0.91750
X0.47300 Y-0.91950
X0.47400 Y-0.91950
X0.47400 Y-0.92050
X0.47500 Y-0.92050
X0.47500 Y-0.92350
X0.47600 Y-0.92350
X0.47600 Y-0.92850
X0.47700 Y-0.92850
X0.47700 Y-0.94950
X0.47600 Y-0.94950
X0.47600 Y-0.95450
X0.47500 Y-0.95450
X0.47500 Y-0.95750
X0.47400 Y-0.95750
X0.47400 Y-0.95850
X0.47300 Y-0.95850
X0.47300 Y-0.96050
X0.47200 Y-0.96050
X0.47200 Y-0.96150
X0.47100 Y-0.96150
X0.47100 Y-0.96250
X0.47000 Y-0.96250
X0.47000 Y-0.96450
X0.46900 Y-0.96450
X0.46900 Y-0.96550
X0.46700 Y-0.96550
X0.46700 Y-0.96650
X0.46600 Y-0.96650
X0.46600 Y-0.96750
X0.46400 Y-0.96750
X0.46400 Y-0.96850
X0.46200 Y-0.96850
X0.46200 Y-0.96950
X0.46100 Y-0.96950
X0.46100 Y-0.97050
X0.45600 Y-0.97050
X0.45600 Y-0.97150
X0.43300 Y-0.97150
X0.43300 Y-0.97050
X0.42800 Y-0.97050
X0.42800 Y-0.96950
X0.42700 Y-0.96950
X0.42700 Y-0.96850
X0.42500 Y-0.96850
X0.42500 Y-0.96750
X0.42300 Y-0.96750
X0.42300 Y-0.96650
X0.42200 Y-0.96650
X0.42200 Y-0.96550
X0.42000 Y-0.96550
X0.42000 Y-0.96450
X0.41900 Y-0.96450
X0.41900 Y-0.96250
X0.41800 Y-0.96250
X0.41800 Y-0.96150
X0.41700 Y-0.96150
X0.41700 Y-0.96050
X0.41600 Y-0.96050
X0.41600 Y-0.95850
X0.41500 Y-0.95850
X0.41500 Y-0.95750
X0.41400 Y-0.95750
X0.41400 Y-0.95450
X0.41300 Y-0.95450
X0.41300 Y-0.94950
X0.41200 Y-0.94950
X0.41200 Y-0.92850
X0.41300 Y-0.92850
X0.41300 Y-0.92350
X0.41400 Y-0.92350
X0.41400 Y-0.92050
X0.41500 Y-0.92050
X0.41500 Y-0.91950
X0.41600 Y-0.91950
X0.41600 Y-0.91750
X0.41700 Y-0.91750
X0.41700 Y-0.91650
X0.41800 Y-0.91650
X0.41800 Y-0.91550
X0.41900 Y-0.91550
X0.41900 Y-0.91350
X0.42000 Y-0.91350
X0.42000 Y-0.91250
X0.42200 Y-0.91250
X0.42200 Y-0.91150
X0.42300 Y-0.91150
X0.42300 Y-0.91050
X0.42500 Y-0.91050
X0.42500 Y-0.90950
X0.42700 Y-0.90950
X0.42700 Y-0.90850
X0.42800 Y-0.90850
X0.42800 Y-0.90750
X0.43300 Y-0.90750
X0.43300 Y-0.90650
X0.45600 Y-0.90650
X0.45600 Y-0.90750
X0.46100 Y-0.90750
X0.46100 Y-0.90850
X0.46200 Y-0.90850
X0.46200 Y-0.90950
X0.46400 Y-0.90950
X0.46400 Y-0.91050
X0.46600 Y-0.91050
X0.46600 Y-0.91150
X0.46700 Y-0.91150
X0.46700 Y-0.91250
G04 P0 ( dwell for no time -- G64 should not smooth over this point )
G00 Z0.10000 ( retract )

G00 X0.56700 Y-0.91250 ( rapid move to begin. )
G01 Z-0.00500 F100.00000 ( plunge. )
G04 P0 ( dwell for no time -- G64 should not smooth over this point )
X0.56700 Y-0.91250
X0.56900 Y-0.91250
X0.56900 Y-0.91350
X0.57000 Y-0.91350
X0.57000 Y-0.91550
X0.57100 Y-0.91550
X0.57100 Y-0.91650
X0.57200 Y-0.91650
X0.57200 Y-0.91750
X0.57300 Y-0.91750
X0.57300 Y-0.91950
X0.57400 Y-0.91950
X0.57400 Y-0.92050
X0.57500 Y-0.92050
X0.57500 Y-0.92350
X0.57600 Y-0.92350
X0.57600 Y-0.92850
X0.57700 Y-0.92850
X0.57700 Y-0.94950
X0.57600 Y-0.94950
X0.57600 Y-0.95450
X0.57500 Y-0.95450
X0.57500 Y-0.95750
X0.57400 Y-0.95750
X0.57400 Y-0.95850
X0.57300 Y-0.95850
X0.57300 Y-0.96050
X0.57200 Y-0.96050
X0.57200 Y-0.96150
X0.57100 Y-0.96150
X0.57100 Y-0.96250
X0.57000 Y-0.96250
X0.57000 Y-0.96450
X0.56900 Y-0.96450
X0.56900 Y-0.96550
X0.56700 Y-0.96550
X0.56700 Y-0.96650
X0.56600 Y-0.96650
X0.56600 Y-0.96750
X0.56400 Y-0.96750
X0.56400 Y-0.96850
X0.56200 Y-0.96850
X0.56200 Y-0.96950
X0.56100 Y-0.96950
X0.56100 Y-0.97050
X0.55600 Y-0.97050
X0.55600 Y-0.97150
X0.53300 Y-0.97150
X0.53300 Y-0.97050
X0.52800 Y-0.97050
X0.52800 Y-0.96950
X0.52700 Y-0.96950
X0.52700 Y-0.96850
X0.52500 Y-0.96850
X0.52500 Y-0.96750
X0.52300 Y-0.96750
X0.52300 Y-0.96650
X0.52200 Y-0.96650
X0.52200 Y-0.96550
X0.52000 Y-0.96550
X0.52000 Y-0.96450
X0.51900 Y-0.96450
X0.51900 Y-0.96250
X0.51800 Y-0.96250
X0.51800 Y-0.96150
X0.51700 Y-0.96150
X0.51700 Y-0.96050
X0.51600 Y-0.96050
X0.51600 Y-0.95850
X0.51500 Y-0.95850
X0.51500 Y-0.95750
X0.51400 Y-0.95750
X0.51400 Y-0.95450
X0.51300 Y-0.95450
X0.51300 Y-0.94950
X0.51200 Y-0.94950
X0.51200 Y-0.92850
X0.51300 Y-0.92850
X0.51300 Y-0.92350
X0.51400 Y-0.92350
X0.51400 Y-0.92050
X0.51500 Y-0.92050
X0.51500 Y-0.91950
X0.51600 Y-0.91950
X0.51600 Y-0.91750
X0.51700 Y-0.91750
X0.51700 Y-0.91650
X0.51800 Y-0.91650
X0.51800 Y-0.91550
X0.51900 Y-0.91550
X0.51900 Y-0.91350
X0.52000 Y-0.91350
X0.52000 Y-0.91250
X0.52200 Y-0.91250
X0.52200 Y-0.91150
X0.52300 Y-0.91150
X0.52300 Y-0.91050
X0.52500 Y-0.91050
X0.52500 Y-0.90950
X0.52700 Y-0.90950
X0.52700 Y-0.90850
X0.52800 Y-0.90850
X0.52800 Y-0.90750
X0.53300 Y-0.90750
X0.53300 Y-0.90650
X0.55600 Y-0.90650
X0.55600 Y-0.90750
X0.56100 Y-0.90750
X0.56100 Y-0.90850
X0.56200 Y-0.90850
X0.56200 Y-0.90950
X0.56400 Y-0.90950
X0.56400 Y-0.91050
X0.56600 Y-0.91050
X0.56600 Y-0.91150
X0.56700 Y-0.91150
X0.56700 Y-0.91250
G04 P0 ( dwell for no time -- G64 should not smooth over this point )
G00 Z0.10000 ( retract )

G00 X0.66700 Y-0.91250 ( rapid move to begin. )
G01 Z-0.00500 F100.00000 ( plunge. )
G04 P0 ( dwell for no time -- G64 should not smooth over this point )
X0.66700 Y-0.91250
X0.66900 Y-0.91250
X0.66900 Y-0.91350
X0.67000 Y-0.91350
X0.67000 Y-0.91550
X0.67100 Y-0.91550
X0.67100 Y-0.91650
X0.67200 Y-0.91650
X0.67200 Y-0.91750
X0.67300 Y-0.91750
X0.67300 Y-0.91950
X0.67400 Y-0.91950
X0.67400 Y-0.92050
X0.67500 Y-0.92050
X0.67500 Y-0.92350
X0.67600 Y-0.92350
X0.67600 Y-0.92850
X0.67700 Y-0.92850
X0.67700 Y-0.94950
X0.67600 Y-0.94950
X0.67600 Y-0.95450
X0.67500 Y-0.95450
X0.67500 Y-0.95750
X0.67400 Y-0.95750
X0.67400 Y-0.95850
X0.67300 Y-0.95850
X0.67300 Y-0.96050
X0.67200 Y-0.96050
X0.67200 Y-0.96150
X0.67100 Y-0.96150
X0.67100 Y-0.96250
X0.67000 Y-0.96250
X0.67000 Y-0.96450
X0.66900 Y-0.96450
X0.66900 Y-0.96550
X0.66700 Y-0.96550
X0.66700 Y-0.96650
X0.66600 Y-0.96650
X0.66600 Y-0.96750
X0.66400 Y-0.96750
X0.66400 Y-0.96850
X0.66200 Y-0.96850
X0.66200 Y-0.96950
X0.66100 Y-0.96950
X0.66100 Y-0.97050
X0.65600 Y-0.97050
X0.65600 Y-0.97150
X0.63300 Y-0.97150
X0.63300 Y-0.97050
X0.62800 Y-0.97050
X0.62800 Y-0.96950
X0.62700 Y-0.96950
X0.62700 Y-0.96850
X0.62500 Y-0.96850
X0.62500 Y-0.96750
X0.62300 Y-0.96750
X0.62300 Y-0.96650
X0.62200 Y-0.96650
X0.62200 Y-0.96550
X0.62000 Y-0.96550
X0.62000 Y-0.96450
X0.61900 Y-0.96450
X0.61900 Y-0.96250
X0.61800 Y-0.96250
X0.61800 Y-0.96150
X0.61700 Y-0.96150
X0.61700 Y-0.96050
X0.61600 Y-0.96050
X0.61600 Y-0.95850
X0.61500 Y-0.95850
X0.61500 Y-0.95750
X0.61400 Y-0.95750
X0.61400 Y-0.95450
X0.61300 Y-0.95450
X0.61300 Y-0.94950
X0.61200 Y-0.94950
X0.61200 Y-0.92850
X0.61300 Y-0.92850
X0.61300 Y-0.92350
X0.61400 Y-0.92350
X0.61400 Y-0.92050
X0.61500 Y-0.92050
X0.61500 Y-0.91950
X0.61600 Y-0.91950
X0.61600 Y-0.91750
X0.61700 Y-0.91750
X0.61700 Y-0.91650
X0.61800 Y-0.91650
X0.61800 Y-0.91550
X0.61900 Y-0.91550
X0.61900 Y-0.91350
X0.62000 Y-0.91350
X0.62000 Y-0.91250
X0.62200 Y-0.91250
X0.62200 Y-0.91150
X0.62300 Y-0.91150
X0.62300 Y-0.91050
X0.62500 Y-0.91050
X0.62500 Y-0.90950
X0.62700 Y-0.90950
X0.62700 Y-0.90850
X0.62800 Y-0.90850
X0.62800 Y-0.90750
X0.63300 Y-0.90750
X0.63300 Y-0.90650
X0.65600 Y-0.90650
X0.65600 Y-0.90750
X0.66100 Y-0.90750
X0.66100 Y-0.90850
X0.66200 Y-0.90850
X0.66200 Y-0.90950
X0.66400 Y-0.90950
X0.66400 Y-0.91050
X0.66600 Y-0.91050
X0.66600 Y-0.91150
X0.66700 Y-0.91150
X0.66700 Y-0.91250
G04 P0 ( dwell for no time -- G64 should not smooth over this point )
G00 Z0.10000 ( retract )

G00 X0.87700 Y-0.98450 ( rapid move to begin. )
G01 Z-0.00500 F100.00000 ( plunge. )
G04 P0 ( dwell for no time -- G64 should not smooth over this point )
X0.87700 Y-0.98450
X0.87900 Y-0.98450
X0.87900 Y-0.98550
X0.88100 Y-0.98550
X0.88100 Y-0.98650
X0.88200 Y-0.98650
X0.88200 Y-0.98750
X0.88300 Y-0.98750
X0.88300 Y-0.98950
X0.88400 Y-0.98950
X0.88400 Y-0.99050
X0.88500 Y-0.99050
X0.88500 Y-0.99250
X0.88600 Y-0.99250
X0.88600 Y-0.99350
X0.88700 Y-0.99350
X0.88700 Y-0.99450
X0.88800 Y-0.99450
X0.88800 Y-0.99650
X0.88900 Y-0.99650
X0.88900 Y-1.00150
X0.89000 Y-1.00150
X0.89000 Y-1.00650
X0.89100 Y-1.00650
X0.89100 Y-1.05150
X0.89000 Y-1.05150
X0.89000 Y-1.05650
X0.88900 Y-1.05650
X0.88900 Y-1.06150
X0.88800 Y-1.06150
X0.88800 Y-1.06350
X0.88700 Y-1.06350
X0.88700 Y-1.06450
X0.88600 Y-1.06450
X0.88600 Y-1.06550
X0.88500 Y-1.06550
X0.88500 Y-1.06750
X0.88400 Y-1.06750
X0.88400 Y-1.06850
X0.88300 Y-1.06850
X0.88300 Y-1.07050
X0.88200 Y-1.07050
X0.88200 Y-1.07150
X0.88100 Y-1.07150
X0.88100 Y-1.07250
X0.87900 Y-1.07250
X0.87900 Y-1.07350
X0.87700 Y-1.07350
X0.87700 Y-1.07450
X0.87600 Y-1.07450
X0.87600 Y-1.07550
X0.87400 Y-1.07550
X0.87400 Y-1.07650
X0.87200 Y-1.07650
X0.87200 Y-1.07750
X0.86900 Y-1.07750
X0.86900 Y-1.07850
X0.86300 Y-1.07850
X0.86300 Y-1.07950
X0.84600 Y-1.07950
X0.84600 Y-1.07850
X0.84000 Y-1.07850
X0.84000 Y-1.07750
X0.83700 Y-1.07750
X0.83700 Y-1.07650
X0.83500 Y-1.07650
X0.83500 Y-1.07550
X0.83300 Y-1.07550
X0.83300 Y-1.07450
X0.83200 Y-1.07450
X0.83200 Y-1.07350
X0.83000 Y-1.07350
X0.83000 Y-1.07250
X0.82800 Y-1.07250
X0.82800 Y-1.07150
X0.82700 Y-1.07150
X0.82700 Y-1.07050
X0.82600 Y-1.07050
X0.82600 Y-1.06850
X0.82500 Y-1.06850
X0.82500 Y-1.06750
X0.82400 Y-1.06750
X0.82400 Y-1.06550
X0.82300 Y-1.06550
X0.82300 Y-1.06450
X0.82200 Y-1.06450
X0.82200 Y-1.06350
X0.82100 Y-1.06350
X0.82100 Y-1.06150
X0.82000 Y-1.06150
X0.82000 Y-1.05650
X0.81900 Y-1.05650
X0.81900 Y-1.05150
X0.81800 Y-1.05150
X0.81800 Y-1.00650
X0.81900 Y-1.00650
X0.81900 Y-1.00150
X0.82000 Y-1.00150
X0.82000 Y-0.99650
X0.82100 Y-0.99650
X0.82100 Y-0.99450
X0.82200 Y-0.99450
X0.82200 Y-0.99350
X0.82300 Y-0.99350
X0.82300 Y-0.99250
X0.82400 Y-0.99250
X0.82400 Y-0.99050
X0.82500 Y-0.99050
X0.82500 Y-0.98950
X0.82600 Y-0.98950
X0.82600 Y-0.98750
X0.82700 Y-0.98750
X0.82700 Y-0.98650
X0.82800 Y-0.98650
X0.82800 Y-0.98550
X0.83000 Y-0.98550
X0.83000 Y-0.98450
X0.83200 Y-0.98450
X0.83200 Y-0.98350
X0.83300 Y-0.98350
X0.83300 Y-0.98250
X0.83500 Y-0.98250
X0.83500 Y-0.98150
X0.83700 Y-0.98150
X0.83700 Y-0.98050
X0.84000 Y-0.98050
X0.84000 Y-0.97950
X0.84600 Y-0.97950
X0.84600 Y-0.97850
X0.86300 Y-0.97850
X0.86300 Y-0.97950
X0.86900 Y-0.97950
X0.86900 Y-0.98050
X0.87200 Y-0.98050
X0.87200 Y-0.98150
X0.87400 Y-0.98150
X0.87400 Y-0.98250
X0.87600 Y-0.98250
X0.87600 Y-0.98350
X0.87700 Y-0.98350
X0.87700 Y-0.98450
G04 P0 ( dwell for no time -- G64 should not smooth over this point )
G00 Z0.10000 ( retract )

G00 X0.97700 Y-0.98450 ( rapid move to begin. )
G01 Z-0.00500 F100.00000 ( plunge. )
G04 P0 ( dwell for no time -- G64 should not smooth over this point )
X0.97700 Y-0.98450
X0.97900 Y-0.98450
X0.97900 Y-0.98550
X0.98100 Y-0.98550
X0.98100 Y-0.98650
X0.98200 Y-0.98650
X0.98200 Y-0.98750
X0.98300 Y-0.98750
X0.98300 Y-0.98950
X0.98400 Y-0.98950
X0.98400 Y-0.99050
X0.98500 Y-0.99050
X0.98500 Y-0.99250
X0.98600 Y-0.99250
X0.98600 Y-0.99350
X0.98700 Y-0.99350
X0.98700 Y-0.99450
X0.98800 Y-0.99450
X0.98800 Y-0.99650
X0.98900 Y-0.99650
X0.98900 Y-1.00150
X0.99000 Y-1.00150
X0.99000 Y-1.00650
X0.99100 Y-1.00650
X0.99100 Y-1.05150
X0.99000 Y-1.05150
X0.99000 Y-1.05650
X0.98900 Y-1.05650
X0.98900 Y-1.06150
X0.98800 Y-1.06150
X0.98800 Y-1.06350
X0.98700 Y-1.06350
X0.98700 Y-1.06450
X0.98600 Y-1.06450
X0.98600 Y-1.06550
X0.98500 Y-1.06550
X0.98500 Y-1.06750
X0.98400 Y-1.06750
X0.98400 Y-1.06850
X0.98300 Y-1.06850
X0.98300 Y-1.07050
X0.98200 Y-1.07050
X0.98200 Y-1.07150
X0.98100 Y-1.07150
X0.98100 Y-1.07250
X0.97900 Y-1.07250
X0.97900 Y-1.07350
X0.97700 Y-1.07350
X0.97700 Y-1.07450
X0.97600 Y-1.07450
X0.97600 Y-1.07550
X0.97400 Y-1.07550
X0.97400 Y-1.07650
X0.97200 Y-1.07650
X0.97200 Y-1.07750
X0.96900 Y-1.07750
X0.96900 Y-1.07850
X0.96300 Y-1.07850
X0.96300 Y-1.07950
X0.94600 Y-1.07950
X0.94600 Y-1.07850
X0.94000 Y-1.07850
X0.94000 Y-1.07750
X0.93700 Y-1.07750
X0.93700 Y-1.07650
X0.93500 Y-1.07650
X0.93500 Y-1.07550
X0.93300 Y-1.07550
X0.93300 Y-1.07450
X0.93200 Y-1.07450
X0.93200 Y-1.07350
X0.93000 Y-1.07350
X0.93000 Y-1.07250
X0.92800 Y-1.07250
X0.92800 Y-1.07150
X0.92700 Y-1.07150
X0.92700 Y-1.07050
X0.92600 Y-1.07050
X0.92600 Y-1.06850
X0.92500 Y-1.06850
X0.92500 Y-1.06750
X0.92400 Y-1.06750
X0.92400 Y-1.06550
X0.92300 Y-1.06550
X0.92300 Y-1.06450
X0.92200 Y-1.06450
X0.92200 Y-1.06350
X0.92100 Y-1.06350
X0.92100 Y-1.06150
X0.92000 Y-1.06150
X0.92000 Y-1.05650
X0.91900 Y-1.05650
X0.91900 Y-1.05150
X0.91800 Y-1.05150
X0.91800 Y-1.00650
X0.91900 Y-1.00650
X0.91900 Y-1.00150
X0.92000 Y-1.00150
X0.92000 Y-0.99650
X0.92100 Y-0.99650
X0.92100 Y-0.99450
X0.92200 Y-0.99450
X0.92200 Y-0.99350
X0.92300 Y-0.99350
X0.92300 Y-0.99250
X0.92400 Y-0.99250
X0.92400 Y-0.99050
X0.92500 Y-0.99050
X0.92500 Y-0.98950
X0.92600 Y-0.98950
X0.92600 Y-0.98750
X0.92700 Y-0.98750
X0.92700 Y-0.98650
X0.92800 Y-0.98650
X0.92800 Y-0.98550
X0.93000 Y-0.98550
X0.93000 Y-0.98450
X0.93200 Y-0.98450
X0.93200 Y-0.98350
X0.93300 Y-0.98350
X0.93300 Y-0.98250
X0.93500 Y-0.98250
X0.93500 Y-0.98150
X0.93700 Y-0.98150
X0.93700 Y-0.98050
X0.94000 Y-0.98050
X0.94000 Y-0.97950
X0.94600 Y-0.97950
X0.94600 Y-0.97850
X0.96300 Y-0.97850
X0.96300 Y-0.97950
X0.96900 Y-0.97950
X0.96900 Y-0.98050
X0.97200 Y-0.98050
X0.97200 Y-0.98150
X0.97400 Y-0.98150
X0.97400 Y-0.98250
X0.97600 Y-0.98250
X0.97600 Y-0.98350
X0.97700 Y-0.98350
X0.97700 Y-0.98450
G04 P0 ( dwell for no time -- G64 should not smooth over this point )
G00 Z0.10000 ( retract )

G00 X1.07700 Y-0.98450 ( rapid move to begin. )
G01 Z-0.00500 F100.00000 ( plunge. )
G04 P0 ( dwell for no time -- G64 should not smooth over this point )
X1.07700 Y-0.98450
X1.07900 Y-0.98450
X1.07900 Y-0.98550
X1.08100 Y-0.98550
X1.08100 Y-0.98650
X1.08200 Y-0.98650
X1.08200 Y-0.98750
X1.08300 Y-0.98750
X1.08300 Y-0.98950
X1.08400 Y-0.98950
X1.08400 Y-0.99050
X1.08500 Y-0.99050
X1.08500 Y-0.99250
X1.08600 Y-0.99250
X1.08600 Y-0.99350
X1.08700 Y-0.99350
X1.08700 Y-0.99450
X1.08800 Y-0.99450
X1.08800 Y-0.99650
X1.08900 Y-0.99650
X1.08900 Y-1.00150
X1.09000 Y-1.00150
X1.09000 Y-1.00650
X1.09100 Y-1.00650
X1.09100 Y-1.05150
X1.09000 Y-1.05150
X1.09000 Y-1.05650
X1.08900 Y-1.05650
X1.08900 Y-1.06150
X1.08800 Y-1.06150
X1.08800 Y-1.06350
X1.08700 Y-1.06350
X1.08700 Y-1.06450
X1.08600 Y-1.06450
X1.08600 Y-1.06550
X1.08500 Y-1.06550
X1.08500 Y-1.06750
X1.08400 Y-1.06750
X1.08400 Y-1.06850
X1.08300 Y-1.06850
X1.08300 Y-1.07050
X1.08200 Y-1.07050
X1.08200 Y-1.07150
X1.08100 Y-1.07150
X1.08100 Y-1.07250
X1.07900 Y-1.07250
X1.07900 Y-1.07350
X1.07700 Y-1.07350
X1.07700 Y-1.07450
X1.07600 Y-1.07450
X1.07600 Y-1.07550
X1.07400 Y-1.07550
X1.07400 Y-1.07650
X1.07200 Y-1.07650
X1.07200 Y-1.07750
X1.06900 Y-1.07750
X1.06900 Y-1.07850
X1.06300 Y-1.07850
X1.06300 Y-1.07950
X1.04600 Y-1.07950
X1.04600 Y-1.07850
X1.04000 Y-1.07850
X1.04000 Y-1.07750
X1.03700 Y-1.07750
X1.03700 Y-1.07650
X1.03500 Y-1.07650
X1.03500 Y-1.07550
X1.03300 Y-1.07550
X1.03300 Y-1.07450
X1.03200 Y-1.07450
X1.03200 Y-1.07350
X1.03000 Y-1.07350
X1.03000 Y-1.07250
X1.02800 Y-1.07250
X1.02800 Y-1.07150
X1.02700 Y-1.07150
X1.02700 Y-1.07050
X1.02600 Y-1.07050
X1.02600 Y-1.06850
X1.02500 Y-1.06850
X1.02500 Y-1.06750
X1.02400 Y-1.06750
X1.02400 Y-1.06550
X1.02300 Y-1.06550
X1.02300 Y-1.06450
X1.02200 Y-1.06450
X1.02200 Y-1.06350
X1.02100 Y-1.06350
X1.02100 Y-1.06150
X1.02000 Y-1.06150
X1.02000 Y-1.05650
X1.01900 Y-1.05650
X1.01900 Y-1.05150
X1.01800 Y-1.05150
X1.01800 Y-1.00650
X1.01900 Y-1.00650
X1.01900 Y-1.00150
X1.02000 Y-1.00150
X1.02000 Y-0.99650
X1.02100 Y-0.99650
X1.02100 Y-0.99450
X1.02200 Y-0.99450
X1.02200 Y-0.99350
X1.02300 Y-0.99350
X1.02300 Y-0.99250
X1.02400 Y-0.99250
X1.02400 Y-0.99050
X1.02500 Y-0.99050
X1.02500 Y-0.98950
X1.02600 Y-0.98950
X1.02600 Y-0.98750
X1.02700 Y-0.98750
X1.02700 Y-0.98650
X1.02800 Y-0.98650
X1.02800 Y-0.98550
X1.03000 Y-0.98550
X1.03000 Y-0.98450
X1.03200 Y-0.98450
X1.03200 Y-0.98350
X1.03300 Y-0.98350
X1.03300 Y-0.98250
X1.03500 Y-0.98250
X1.03500 Y-0.98150
X1.03700 Y-0.98150
X1.03700 Y-0.98050
X1.04000 Y-0.98050
X1.04000 Y-0.97950
X1.04600 Y-0.97950
X1.04600 Y-0.97850
X1.06300 Y-0.97850
X1.06300 Y-0.97950
X1.06900 Y-0.97950
X1.06900 Y-0.98050
X1.07200 Y-0.98050
X1.07200 Y-0.98150
X1.07400 Y-0.98150
X1.07400 Y-0.98250
X1.07600 Y-0.98250
X1.07600 Y-0.98350
X1.07700 Y-0.98350
X1.07700 Y-0.98450
G04 P0 ( dwell for no time -- G64 should not smooth over this point )
G00 Z0.10000 ( retract )

G00 X1.17700 Y-0.98450 ( rapid move to begin. )
G01 Z-0.00500 F100.00000 ( plunge. )
G04 P0 ( dwell for no time -- G64 should not smooth over this point )
X1.17700 Y-0.98450
X1.17900 Y-0.98450
X1.17900 Y-0.98550
X1.18100 Y-0.98550
X1.18100 Y-0.98650
X1.18200 Y-0.98650
X1.18200 Y-0.98750
X1.18300 Y-0.98750
X1.18300 Y-0.98950
X1.18400 Y-0.98950
X1.18400 Y-0.99050
X1.18500 Y-0.99050
X1.18500 Y-0.99250
X1.18600 Y-0.99250
X1.18600 Y-0.99350
X1.18700 Y-0.99350
X1.18700 Y-0.99450
X1.18800 Y-0.99450
X1.18800 Y-0.99650
X1.18900 Y-0.99650
X1.18900 Y-1.00150
X1.19000 Y-1.00150
X1.19000 Y-1.00650
X1.19100 Y-1.00650
X1.19100 Y-1.05150
X1.19000 Y-1.05150
X1.19000 Y-1.05650
X1.18900 Y-1.05650
X1.18900 Y-1.06150
X1.18800 Y-1.06150
X1.18800 Y-1.06350
X1.18700 Y-1.06350
X1.18700 Y-1.06450
X1.18600 Y-1.06450
X1.18600 Y-1.06550
X1.18500 Y-1.06550
X1.18500 Y-1.06750
X1.18400 Y-1.06750
X1.18400 Y-1.06850
X1.18300 Y-1.06850
X1.18300 Y-1.07050
X1.18200 Y-1.07050
X1.18200 Y-1.07150
X1.18100 Y-1.07150
X1.18100 Y-1.07250
X1.17900 Y-1.07250
X1.17900 Y-1.07350
X1.17700 Y-1.07350
X1.17700 Y-1.07450
X1.17600 Y-1.07450
X1.17600 Y-1.07550
X1.17400 Y-1.07550
X1.17400 Y-1.07650
X1.17200 Y-1.07650
X1.17200 Y-1.07750
X1.16900 Y-1.07750
X1.16900 Y-1.07850
X1.16300 Y-1.07850
X1.16300 Y-1.07950
X1.14600 Y-1.07950
X1.14600 Y-1.07850
X1.14000 Y-1.07850
X1.14000 Y-1.07750
X1.13700 Y-1.07750
X1.13700 Y-1.07650
X1.13500 Y-1.07650
X1.13500 Y-1.07550
X1.13300 Y-1.07550
X1.13300 Y-1.07450
X1.13200 Y-1.07450
X1.13200 Y-1.07350
X1.13000 Y-1.07350
X1.13000 Y-1.07250
X1.12800 Y-1.07250
X1.12800 Y-1.07150
X1.12700 Y-1.07150
X1.12700 Y-1.07050
X1.12600 Y-1.07050
X1.12600 Y-1.06850
X1.12500 Y-1.06850
X1.12500 Y-1.06750
X1.12400 Y-1.06750
X1.12400 Y-1.06550
X1.12300 Y-1.06550
X1.12300 Y-1.06450
X1.12200 Y-1.06450
X1.12200 Y-1.06350
X1.12100 Y-1.06350
X1.12100 Y-1.06150
X1.12000 Y-1.06150
X1.12000 Y-1.05650
X1.11900 Y-1.05650
X1.11900 Y-1.05150
X1.11800 Y-1.05150
X1.11800 Y-1.00650
X1.11900 Y-1.00650
X1.11900 Y-1.00150
X1.12000 Y-1.00150
X1.12000 Y-0.99650
X1.12100 Y-0.99650
X1.12100 Y-0.99450
X1.12200 Y-0.99450
X1.12200 Y-0.99350
X1.12300 Y-0.99350
X1.12300 Y-0.99250
X1.12400 Y-0.99250
X1.12400 Y-0.99050
X1.12500 Y-0.99050
X1.12500 Y-0.98950
X1.12600 Y-0.98950
X1.12600 Y-0.98750
X1.12700 Y-0.98750
X1.12700 Y-0.98650
X1.12800 Y-0.98650
X1.12800 Y-0.98550
X1.13000 Y-0.98550
X1.13000 Y-0.98450
X1.13200 Y-0.98450
X1.13200 Y-0.98350
X1.13300 Y-0.98350
X1.13300 Y-0.98250
X1.13500 Y-0.98250
X1.13500 Y-0.98150
X1.13700 Y-0.98150
X1.13700 Y-0.98050
X1.14000 Y-0.98050
X1.14000 Y-0.97950
X1.14600 Y-0.97950
X1.14600 Y-0.97850
X1.16300 Y-0.97850
X1.16300 Y-0.97950
X1.16900 Y-0.97950
X1.16900 Y-0.98050
X1.17200 Y-0.98050
X1.17200 Y-0.98150
X1.17400 Y-0.98150
X1.17400 Y-0.98250
X1.17600 Y-0.98250
X1.17600 Y-0.98350
X1.17700 Y-0.98350
X1.17700 Y-0.98450
G04 P0 ( dwell for no time -- G64 should not smooth over this point )
G00 Z0.10000 ( retract )

G00 X1.46700 Y-1.01750 ( rapid move to begin. )
G01 Z-0.00500 F100.00000 ( plunge. )
G04 P0 ( dwell for no time -- G64 should not smooth over this point )
X1.46700 Y-1.01750
X1.46900 Y-1.01750
X1.46900 Y-1.01850
X1.47000 Y-1.01850
X1.47000 Y-1.02050
X1.47100 Y-1.02050
X1.47100 Y-1.02150
X1.47200 Y-1.02150
X1.47200 Y-1.02250
X1.47300 Y-1.02250
X1.47300 Y-1.02450
X1.47400 Y-1.02450
X1.47400 Y-1.02550
X1.47500 Y-1.02550
X1.47500 Y-1.02850
X1.47600 Y-1.02850
X1.47600 Y-1.03350
X1.47700 Y-1.03350
X1.47700 Y-1.05450
X1.47600 Y-1.05450
X1.47600 Y-1.05950
X1.47500 Y-1.05950
X1.47500 Y-1.06250
X1.47400 Y-1.06250
X1.47400 Y-1.06350
X1.47300 Y-1.06350
X1.47300 Y-1.06550
X1.47200 Y-1.06550
X1.47200 Y-1.06650
X1.47100 Y-1.06650
X1.47100 Y-1.06750
X1.47000 Y-1.06750
X1.47000 Y-1.06950
X1.46900 Y-1.06950
X1.46900 Y-1.07050
X1.46700 Y-1.07050
X1.46700 Y-1.07150
X1.46600 Y-1.07150
X1.46600 Y-1.07250
X1.46400 Y-1.07250
X1.46400 Y-1.07350
X1.46200 Y-1.07350
X1.46200 Y-1.07450
X1.46100 Y-1.07450
X1.46100 Y-1.07550
X1.45600 Y-1.07550
X1.45600 Y-1.07650
X1.43300 Y-1.07650
X1.43300 Y-1.07550
X1.42800 Y-1.07550
X1.42800 Y-1.07450
X1.42700 Y-1.07450
X1.42700 Y-1.07350
X1.42500 Y-1.07350
X1.42500 Y-1.07250
X1.42300 Y-1.07250
X1.42300 Y-1.07150
X1.42200 Y-1.07150
X1.42200 Y-1.07050
X1.42000 Y-1.07050
X1.42000 Y-1.06950
X1.41900 Y-1.06950
X1.41900 Y-1.06750
X1.41800 Y-1.06750
X1.41800 Y-1.06650
X1.41700 Y-1.06650
X1.41700 Y-1.06550
X1.41600 Y-1.06550
X1.41600 Y-1.06350
X1.41500 Y-1.06350
X1.41500 Y-1.06250
X1.41400 Y-1.06250
X1.41400 Y-1.05950
X1.41300 Y-1.05950
X1.41300 Y-1.05450
X1.41200 Y-1.05450
X1.41200 Y-1.03350
X1.41300 Y-1.03350
X1.41300 Y-1.02850
X1.41400 Y-1.02850
X1.41400 Y-1.02550
X1.41500 Y-1.02550
X1.41500 Y-1.02450
X1.41600 Y-1.02450
X1.41600 Y-1.02250
X1.41700 Y-1.02250
X1.41700 Y-1.02150
X1.41800 Y-1.02150
X1.41800 Y-1.02050
X1.41900 Y-1.02050
X1.41900 Y-1.01850
X1.42000 Y-1.01850
X1.42000 Y-1.01750
X1.42200 Y-1.01750
X1.42200 Y-1.01650
X1.42300 Y-1.01650
X1.42300 Y-1.01550
X1.42500 Y-1.01550
X1.42500 Y-1.01450
X1.42700 Y-1.01450
X1.42700 Y-1.01350
X1.42800 Y-1.01350
X1.42800 Y-1.01250
X1.43300 Y-1.01250
X1.43300 Y-1.01150
X1.45600 Y-1.01150
X1.45600 Y-1.01250
X1.46100 Y-1.01250
X1.46100 Y-1.01350
X1.46200 Y-1.01350
X1.46200 Y-1.01450
X1.46400 Y-1.01450
X1.46400 Y-1.01550
X1.46600 Y-1.01550
X1.46600 Y-1.01650
X1.46700 Y-1.01650
X1.46700 Y-1.01750
G04 P0 ( dwell for no time -- G64 should not smooth over this point )
G00 Z0.10000 ( retract )

G00 X1.56700 Y-1.01750 ( rapid move to begin. )
G01 Z-0.00500 F100.00000 ( plunge. )
G04 P0 ( dwell for no time -- G64 should not smooth over this point )
X1.56700 Y-1.01750
X1.56900 Y-1.01750
X1.56900 Y-1.01850
X1.57000 Y-1.01850
X1.57000 Y-1.02050
X1.57100 Y-1.02050
X1.57100 Y-1.02150
X1.57200 Y-1.02150
X1.57200 Y-1.02250
X1.57300 Y-1.02250
X1.57300 Y-1.02450
X1.57400 Y-1.02450
X1.57400 Y-1.02550
X1.57500 Y-1.02550
X1.57500 Y-1.02850
X1.57600 Y-1.02850
X1.57600 Y-1.03350
X1.57700 Y-1.03350
X1.57700 Y-1.05450
X1.57600 Y-1.05450
X1.57600 Y-1.05950
X1.57500 Y-1.05950
X1.57500 Y-1.06250
X1.57400 Y-1.06250
X1.57400 Y-1.06350
X1.57300 Y-1.06350
X1.57300 Y-1.06550
X1.57200 Y-1.06550
X1.57200 Y-1.06650
X1.57100 Y-1.06650
X1.57100 Y-1.06750
X1.57000 Y-1.06750
X1.57000 Y-1.06950
X1.56900 Y-1.06950
X1.56900 Y-1.07050
X1.56700 Y-1.07050
X1.56700 Y-1.07150
X1.56600 Y-1.07150
X1.56600 Y-1.07250
X1.56400 Y-1.07250
X1.56400 Y-1.07350
X1.56200 Y-1.07350
X1.56200 Y-1.07450
X1.56100 Y-1.07450
X1.56100 Y-1.07550
X1.55600 Y-1.07550
X1.55600 Y-1.07650
X1.53300 Y-1.07650
X1.53300 Y-1.07550
X1.52800 Y-1.07550
X1.52800 Y-1.07450
X1.52700 Y-1.07450
X1.52700 Y-1.07350
X1.52500 Y-1.07350
X1.52500 Y-1.07250
X1.52300 Y-1.07250
X1.52300 Y-1.07150
X1.52200 Y-1.07150
X1.52200 Y-1.07050
X1.52000 Y-1.07050
X1.52000 Y-1.06950
X1.51900 Y-1.06950
X1.51900 Y-1.06750
X1.51800 Y-1.06750
X1.51800 Y-1.06650
X1.51700 Y-1.06650
X1.51700 Y-1.06550
X1.51600 Y-1.06550
X1.51600 Y-1.06350
X1.51500 Y-1.06350
X1.51500 Y-1.06250
X1.51400 Y-1.06250
X1.51400 Y-1.05950
X1.51300 Y-1.05950
X1.51300 Y-1.05450
X1.51200 Y-1.05450
X1.51200 Y-1.03350
X1.51300 Y-1.03350
X1.51300 Y-1.02850
X1.51400 Y-1.02850
X1.51400 Y-1.02550
X1.51500 Y-1.02550
X1.51500 Y-1.02450
X1.51600 Y-1.02450
X1.51600 Y-1.02250
X1.51700 Y-1.02250
X1.51700 Y-1.02150
X1.51800 Y-1.02150
X1.51800 Y-1.02050
X1.51900 Y-1.02050
X1.51900 Y-1.01850
X1.52000 Y-1.01850
X1.52000 Y-1.01750
X1.52200 Y-1.01750
X1.52200 Y-1.01650
X1.52300 Y-1.01650
X1.52300 Y-1.01550
X1.52500 Y-1.01550
X1.52500 Y-1.01450
X1.52700 Y-1.01450
X1.52700 Y-1.01350
X1.52800 Y-1.01350
X1.52800 Y-1.01250
X1.53300 Y-1.01250
X1.53300 Y-1.01150
X1.55600 Y-1.01150
X1.55600 Y-1.01250
X1.56100 Y-1.01250
X1.56100 Y-1.01350
X1.56200 Y-1.01350
X1.56200 Y-1.01450
X1.56400 Y-1.01450
X1.56400 Y-1.01550
X1.56600 Y-1.01550
X1.56600 Y-1.01650
X1.56700 Y-1.01650
X1.56700 Y-1.01750
G04 P0 ( dwell for no time -- G64 should not smooth over this point )
G00 Z0.10000 ( retract )

G00 X1.67700 Y-1.01750 ( rapid move to begin. )
G01 Z-0.00500 F100.00000 ( plunge. )
G04 P0 ( dwell for no time -- G64 should not smooth over this point )
X1.67700 Y-1.01750
X1.67700 Y-1.07650
X1.61200 Y-1.07650
X1.61200 Y-1.01150
X1.67700 Y-1.01150
X1.67700 Y-1.01750
G04 P0 ( dwell for no time -- G64 should not smooth over this point )
G00 Z0.10000 ( retract )

G00 X1.46700 Y-1.21750 ( rapid move to begin. )
G01 Z-0.00500 F100.00000 ( plunge. )
G04 P0 ( dwell for no time -- G64 should not smooth over this point )
X1.46700 Y-1.21750
X1.46900 Y-1.21750
X1.46900 Y-1.21850
X1.47000 Y-1.21850
X1.47000 Y-1.22050
X1.47100 Y-1.22050
X1.47100 Y-1.22150
X1.47200 Y-1.22150
X1.47200 Y-1.22250
X1.47300 Y-1.22250
X1.47300 Y-1.22450
X1.47400 Y-1.22450
X1.47400 Y-1.22550
X1.47500 Y-1.22550
X1.47500 Y-1.22850
X1.47600 Y-1.22850
X1.47600 Y-1.23350
X1.47700 Y-1.23350
X1.47700 Y-1.25450
X1.47600 Y-1.25450
X1.47600 Y-1.25950
X1.47500 Y-1.25950
X1.47500 Y-1.26250
X1.47400 Y-1.26250
X1.47400 Y-1.26350
X1.47300 Y-1.26350
X1.47300 Y-1.26550
X1.47200 Y-1.26550
X1.47200 Y-1.26650
X1.47100 Y-1.26650
X1.47100 Y-1.26750
X1.47000 Y-1.26750
X1.47000 Y-1.26950
X1.46900 Y-1.26950
X1.46900 Y-1.27050
X1.46700 Y-1.27050
X1.46700 Y-1.27150
X1.46600 Y-1.27150
X1.46600 Y-1.27250
X1.46400 Y-1.27250
X1.46400 Y-1.27350
X1.46200 Y-1.27350
X1.46200 Y-1.27450
X1.46100 Y-1.27450
X1.46100 Y-1.27550
X1.45600 Y-1.27550
X1.45600 Y-1.27650
X1.43300 Y-1.27650
X1.43300 Y-1.27550
X1.42800 Y-1.27550
X1.42800 Y-1.27450
X1.42700 Y-1.27450
X1.42700 Y-1.27350
X1.42500 Y-1.27350
X1.42500 Y-1.27250
X1.42300 Y-1.27250
X1.42300 Y-1.27150
X1.42200 Y-1.27150
X1.42200 Y-1.27050
X1.42000 Y-1.27050
X1.42000 Y-1.26950
X1.41900 Y-1.26950
X1.41900 Y-1.26750
X1.41800 Y-1.26750
X1.41800 Y-1.26650
X1.41700 Y-1.26650
X1.41700 Y-1.26550
X1.41600 Y-1.26550
X1.41600 Y-1.26350
X1.41500 Y-1.26350
X1.41500 Y-1.26250
X1.41400 Y-1.26250
X1.41400 Y-1.25950
X1.41300 Y-1.25950
X1.41300 Y-1.25450
X1.41200 Y-1.25450
X1.41200 Y-1.23350
X1.41300 Y-1.23350
X1.41300 Y-1.22850
X1.41400 Y-1.22850
X1.41400 Y-1.22550
X1.41500 Y-1.22550
X1.41500 Y-1.22450
X1.41600 Y-1.22450
X1.41600 Y-1.22250
X1.41700 Y-1.22250
X1.41700 Y-1.22150
X1.41800 Y-1.22150
X1.41800 Y-1.22050
X1.41900 Y-1.22050
X1.41900 Y-1.21850
X1.42000 Y-1.21850
X1.42000 Y-1.21750
X1.42200 Y-1.21750
X1.42200 Y-1.21650
X1.42300 Y-1.21650
X1.42300 Y-1.21550
X1.42500 Y-1.21550
X1.42500 Y-1.21450
X1.42700 Y-1.21450
X1.42700 Y-1.21350
X1.42800 Y-1.21350
X1.42800 Y-1.21250
X1.43300 Y-1.21250
X1.43300 Y-1.21150
X1.45600 Y-1.21150
X1.45600 Y-1.21250
X1.46100 Y-1.21250
X1.46100 Y-1.21350
X1.46200 Y-1.21350
X1.46200 Y-1.21450
X1.46400 Y-1.21450
X1.46400 Y-1.21550
X1.46600 Y-1.21550
X1.46600 Y-1.21650
X1.46700 Y-1.21650
X1.46700 Y-1.21750
G04 P0 ( dwell for no time -- G64 should not smooth over this point )
G00 Z0.10000 ( retract )

G00 X1.56700 Y-1.21750 ( rapid move to begin. )
G01 Z-0.00500 F100.00000 ( plunge. )
G04 P0 ( dwell for no time -- G64 should not smooth over this point )
X1.56700 Y-1.21750
X1.56900 Y-1.21750
X1.56900 Y-1.21850
X1.57000 Y-1.21850
X1.57000 Y-1.22050
X1.57100 Y-1.22050
X1.57100 Y-1.22150
X1.57200 Y-1.22150
X1.57200 Y-1.22250
X1.57300 Y-1.22250
X1.57300 Y-1.22450
X1.57400 Y-1.22450
X1.57400 Y-1.22550
X1.57500 Y-1.22550
X1.57500 Y-1.22850
X1.57600 Y-1.22850
X1.57600 Y-1.23350
X1.57700 Y-1.23350
X1.57700 Y-1.25450
X1.57600 Y-1.25450
X1.57600 Y-1.25950
X1.57500 Y-1.25950
X1.57500 Y-1.26250
X1.57400 Y-1.26250
X1.57400 Y-1.26350
X1.57300 Y-1.26350
X1.57300 Y-1.26550
X1.57200 Y-1.26550
X1.57200 Y-1.26650
X1.57100 Y-1.26650
X1.57100 Y-1.26750
X1.57000 Y-1.26750
X1.57000 Y-1.26950
X1.56900 Y-1.26950
X1.56900 Y-1.27050
X1.56700 Y-1.27050
X1.56700 Y-1.27150
X1.56600 Y-1.27150
X1.56600 Y-1.27250
X1.56400 Y-1.27250
X1.56400 Y-1.27350
X1.56200 Y-1.27350
X1.56200 Y-1.27450
X1.56100 Y-1.27450
X1.56100 Y-1.27550
X1.55600 Y-1.27550
X1.55600 Y-1.27650
X1.53300 Y-1.27650
X1.53300 Y-1.27550
X1.52800 Y-1.27550
X1.52800 Y-1.27450
X1.52700 Y-1.27450
X1.52700 Y-1.27350
X1.52500 Y-1.27350
X1.52500 Y-1.27250
X1.52300 Y-1.27250
X1.52300 Y-1.27150
X1.52200 Y-1.27150
X1.52200 Y-1.27050
X1.52000 Y-1.27050
X1.52000 Y-1.26950
X1.51900 Y-1.26950
X1.51900 Y-1.26750
X1.51800 Y-1.26750
X1.51800 Y-1.26650
X1.51700 Y-1.26650
X1.51700 Y-1.26550
X1.51600 Y-1.26550
X1.51600 Y-1.26350
X1.51500 Y-1.26350
X1.51500 Y-1.26250
X1.51400 Y-1.26250
X1.51400 Y-1.25950
X1.51300 Y-1.25950
X1.51300 Y-1.25450
X1.51200 Y-1.25450
X1.51200 Y-1.23350
X1.51300 Y-1.23350
X1.51300 Y-1.22850
X1.51400 Y-1.22850
X1.51400 Y-1.22550
X1.51500 Y-1.22550
X1.51500 Y-1.22450
X1.51600 Y-1.22450
X1.51600 Y-1.22250
X1.51700 Y-1.22250
X1.51700 Y-1.22150
X1.51800 Y-1.22150
X1.51800 Y-1.22050
X1.51900 Y-1.22050
X1.51900 Y-1.21850
X1.52000 Y-1.21850
X1.52000 Y-1.21750
X1.52200 Y-1.21750
X1.52200 Y-1.21650
X1.52300 Y-1.21650
X1.52300 Y-1.21550
X1.52500 Y-1.21550
X1.52500 Y-1.21450
X1.52700 Y-1.21450
X1.52700 Y-1.21350
X1.52800 Y-1.21350
X1.52800 Y-1.21250
X1.53300 Y-1.21250
X1.53300 Y-1.21150
X1.55600 Y-1.21150
X1.55600 Y-1.21250
X1.56100 Y-1.21250
X1.56100 Y-1.21350
X1.56200 Y-1.21350
X1.56200 Y-1.21450
X1.56400 Y-1.21450
X1.56400 Y-1.21550
X1.56600 Y-1.21550
X1.56600 Y-1.21650
X1.56700 Y-1.21650
X1.56700 Y-1.21750
G04 P0 ( dwell for no time -- G64 should not smooth over this point )
G00 Z0.10000 ( retract )

G00 X1.67700 Y-1.21750 ( rapid move to begin. )
G01 Z-0.00500 F100.00000 ( plunge. )
G04 P0 ( dwell for no time -- G64 should not smooth over this point )
X1.67700 Y-1.21750
X1.67700 Y-1.27650
X1.61200 Y-1.27650
X1.61200 Y-1.21150
X1.67700 Y-1.21150
X1.67700 Y-1.21750
G04 P0 ( dwell for no time -- G64 should not smooth over this point )
G00 Z0.10000 ( retract )

G00 X0.16700 Y-1.23250 ( rapid move to begin. )
G01 Z-0.00500 F100.00000 ( plunge. )
G04 P0 ( dwell for no time -- G64 should not smooth over this point )
X0.16700 Y-1.23250
X0.16900 Y-1.23250
X0.16900 Y-1.23350
X0.17000 Y-1.23350
X0.17000 Y-1.23550
X0.17100 Y-1.23550
X0.17100 Y-1.23650
X0.17200 Y-1.23650
X0.17200 Y-1.23750
X0.17300 Y-1.23750
X0.17300 Y-1.23950
X0.17400 Y-1.23950
X0.17400 Y-1.24050
X0.17500 Y-1.24050
X0.17500 Y-1.24350
X0.17600 Y-1.24350
X0.17600 Y-1.24850
X0.17700 Y-1.24850
X0.17700 Y-1.26950
X0.17600 Y-1.26950
X0.17600 Y-1.27450
X0.17500 Y-1.27450
X0.17500 Y-1.27750
X0.17400 Y-1.27750
X0.17400 Y-1.27850
X0.17300 Y-1.27850
X0.17300 Y-1.28050
X0.17200 Y-1.28050
X0.17200 Y-1.28150
X0.17100 Y-1.28150
X0.17100 Y-1.28250
X0.17000 Y-1.28250
X0.17000 Y-1.28450
X0.16900 Y-1.28450
X0.16900 Y-1.28550
X0.16700 Y-1.28550
X0.16700 Y-1.28650
X0.16600 Y-1.28650
X0.16600 Y-1.28750
X0.16400 Y-1.28750
X0.16400 Y-1.28850
X0.16200 Y-1.28850
X0.16200 Y-1.28950
X0.16100 Y-1.28950
X0.16100 Y-1.29050
X0.15600 Y-1.29050
X0.15600 Y-1.29150
X0.13300 Y-1.29150
X0.13300 Y-1.29050
X0.12800 Y-1.29050
X0.12800 Y-1.28950
X0.12700 Y-1.28950
X0.12700 Y-1.28850
X0.12500 Y-1.28850
X0.12500 Y-1.28750
X0.12300 Y-1.28750
X0.12300 Y-1.28650
X0.12200 Y-1.28650
X0.12200 Y-1.28550
X0.12000 Y-1.28550
X0.12000 Y-1.28450
X0.11900 Y-1.28450
X0.11900 Y-1.28250
X0.11800 Y-1.28250
X0.11800 Y-1.28150
X0.11700 Y-1.28150
X0.11700 Y-1.28050
X0.11600 Y-1.28050
X0.11600 Y-1.27850
X0.11500 Y-1.27850
X0.11500 Y-1.27750
X0.11400 Y-1.27750
X0.11400 Y-1.27450
X0.11300 Y-1.27450
X0.11300 Y-1.26950
X0.11200 Y-1.26950
X0.11200 Y-1.24850
X0.11300 Y-1.24850
X0.11300 Y-1.24350
X0.11400 Y-1.24350
X0.11400 Y-1.24050
X0.11500 Y-1.24050
X0.11500 Y-1.23950
X0.11600 Y-1.23950
X0.11600 Y-1.23750
X0.11700 Y-1.23750
X0.11700 Y-1.23650
X0.11800 Y-1.23650
X0.11800 Y-1.23550
X0.11900 Y-1.23550
X0.11900 Y-1.23350
X0.12000 Y-1.23350
X0.12000 Y-1.23250
X0.12200 Y-1.23250
X0.12200 Y-1.23150
X0.12300 Y-1.23150
X0.12300 Y-1.23050
X0.12500 Y-1.23050
X0.12500 Y-1.22950
X0.12700 Y-1.22950
X0.12700 Y-1.22850
X0.12800 Y-1.22850
X0.12800 Y-1.22750
X0.13300 Y-1.22750
X0.13300 Y-1.22650
X0.15600 Y-1.22650
X0.15600 Y-1.22750
X0.16100 Y-1.22750
X0.16100 Y-1.22850
X0.16200 Y-1.22850
X0.16200 Y-1.22950
X0.16400 Y-1.22950
X0.16400 Y-1.23050
X0.16600 Y-1.23050
X0.16600 Y-1.23150
X0.16700 Y-1.23150
X0.16700 Y-1.23250
G04 P0 ( dwell for no time -- G64 should not smooth over this point )
G00 Z0.10000 ( retract )

G00 X0.46700 Y-1.23250 ( rapid move to begin. )
G01 Z-0.00500 F100.00000 ( plunge. )
G04 P0 ( dwell for no time -- G64 should not smooth over this point )
X0.46700 Y-1.23250
X0.46900 Y-1.23250
X0.46900 Y-1.23350
X0.47000 Y-1.23350
X0.47000 Y-1.23550
X0.47100 Y-1.23550
X0.47100 Y-1.23650
X0.47200 Y-1.23650
X0.47200 Y-1.23750
X0.47300 Y-1.23750
X0.47300 Y-1.23950
X0.47400 Y-1.23950
X0.47400 Y-1.24050
X0.47500 Y-1.24050
X0.47500 Y-1.24350
X0.47600 Y-1.24350
X0.47600 Y-1.24850
X0.47700 Y-1.24850
X0.47700 Y-1.26950
X0.47600 Y-1.26950
X0.47600 Y-1.27450
X0.47500 Y-1.27450
X0.47500 Y-1.27750
X0.47400 Y-1.27750
X0.47400 Y-1.27850
X0.47300 Y-1.27850
X0.47300 Y-1.28050
X0.47200 Y-1.28050
X0.47200 Y-1.28150
X0.47100 Y-1.28150
X0.47100 Y-1.28250
X0.47000 Y-1.28250
X0.47000 Y-1.28450
X0.46900 Y-1.28450
X0.46900 Y-1.28550
X0.46700 Y-1.28550
X0.46700 Y-1.28650
X0.46600 Y-1.28650
X0.46600 Y-1.28750
X0.46400 Y-1.28750
X0.46400 Y-1.28850
X0.46200 Y-1.28850
X0.46200 Y-1.28950
X0.46100 Y-1.28950
X0.46100 Y-1.29050
X0.45600 Y-1.29050
X0.45600 Y-1.29150
X0.43300 Y-1.29150
X0.43300 Y-1.29050
X0.42800 Y-1.29050
X0.42800 Y-1.28950
X0.42700 Y-1.28950
X0.42700 Y-1.28850
X0.42500 Y-1.28850
X0.42500 Y-1.28750
X0.42300 Y-1.28750
X0.42300 Y-1.28650
X0.42200 Y-1.28650
X0.42200 Y-1.28550
X0.42000 Y-1.28550
X0.42000 Y-1.28450
X0.41900 Y-1.28450
X0.41900 Y-1.28250
X0.41800 Y-1.28250
X0.41800 Y-1.28150
X0.41700 Y-1.28150
X0.41700 Y-1.28050
X0.41600 Y-1.28050
X0.41600 Y-1.27850
X0.41500 Y-1.27850
X0.41500 Y-1.27750
X0.41400 Y-1.27750
X0.41400 Y-1.27450
X0.41300 Y-1.27450
X0.41300 Y-1.26950
X0.41200 Y-1.26950
X0.41200 Y-1.24850
X0.41300 Y-1.24850
X0.41300 Y-1.24350
X0.41400 Y-1.24350
X0.41400 Y-1.24050
X0.41500 Y-1.24050
X0.41500 Y-1.23950
X0.41600 Y-1.23950
X0.41600 Y-1.23750
X0.41700 Y-1.23750
X0.41700 Y-1.23650
X0.41800 Y-1.23650
X0.41800 Y-1.23550
X0.41900 Y-1.23550
X0.41900 Y-1.23350
X0.42000 Y-1.23350
X0.42000 Y-1.23250
X0.42200 Y-1.23250
X0.42200 Y-1.23150
X0.42300 Y-1.23150
X0.42300 Y-1.23050
X0.42500 Y-1.23050
X0.42500 Y-1.22950
X0.42700 Y-1.22950
X0.42700 Y-1.22850
X0.42800 Y-1.22850
X0.42800 Y-1.22750
X0.43300 Y-1.22750
X0.43300 Y-1.22650
X0.45600 Y-1.22650
X0.45600 Y-1.22750
X0.46100 Y-1.22750
X0.46100 Y-1.22850
X0.46200 Y-1.22850
X0.46200 Y-1.22950
X0.46400 Y-1.22950
X0.46400 Y-1.23050
X0.46600 Y-1.23050
X0.46600 Y-1.23150
X0.46700 Y-1.23150
X0.46700 Y-1.23250
G04 P0 ( dwell for no time -- G64 should not smooth over this point )
G00 Z0.10000 ( retract )

G00 X0.89100 Y-1.28450 ( rapid move to begin. )
G01 Z-0.00500 F100.00000 ( plunge. )
