( pcb2gcode 1.1.4 )

G94     ( Inches per minute feed rate. )
G20     ( Units == INCHES.             )
G90     ( Absolute coordinates.        )
S8000  ( RPM spindle speed.           )
M3      ( Spindle on clockwise.        )

G64 P0.00500 ( set maximum deviation from commanded toolpath )

G04 P0 ( dwell for no time -- G64 should not smooth over this point )
G00 Z0.10000 ( retract )

G00 X0.14200 Y-0.11400 ( rapid move to begin. )
G01 Z-0.00500 F3.50000 ( plunge. )
G04 P0 ( dwell for no time -- G64 should not smooth over this point )
X0.14200 Y-0.11400
X0.14500 Y-0.11400
X0.14500 Y-0.11500
X0.14600 Y-0.11500
X0.14600 Y-0.11600
X0.14800 Y-0.11600
X0.14800 Y-0.11700
X0.15000 Y-0.11700
X0.15000 Y-0.11800
X0.15200 Y-0.11800
X0.15200 Y-0.11900
X0.15400 Y-0.11900
X0.15400 Y-0.12000
X0.15600 Y-0.12000
X0.15600 Y-0.12100
X0.15700 Y-0.12100
X0.15700 Y-0.12200
X0.15900 Y-0.12200
X0.15900 Y-0.12300
X0.16000 Y-0.12300
X0.16000 Y-0.12400
X0.16100 Y-0.12400
X0.16100 Y-0.12500
X0.16200 Y-0.12500
X0.16200 Y-0.12600
X0.16400 Y-0.12600
X0.16400 Y-0.12700
X0.16500 Y-0.12700
X0.16500 Y-0.12800
X0.16600 Y-0.12800
X0.16600 Y-0.12900
X0.16700 Y-0.12900
X0.16700 Y-0.13000
X0.16800 Y-0.13000
X0.16800 Y-0.13100
X0.17000 Y-0.13100
X0.17000 Y-0.13300
X0.17100 Y-0.13300
X0.17100 Y-0.13400
X0.17200 Y-0.13400
X0.17200 Y-0.13500
X0.17300 Y-0.13500
X0.17300 Y-0.13600
X0.17400 Y-0.13600
X0.17400 Y-0.13700
X0.17500 Y-0.13700
X0.17500 Y-0.13900
X0.17600 Y-0.13900
X0.17600 Y-0.14000
X0.17700 Y-0.14000
X0.17700 Y-0.14100
X0.17800 Y-0.14100
X0.17800 Y-0.14200
X0.17900 Y-0.14200
X0.17900 Y-0.14400
X0.18000 Y-0.14400
X0.18000 Y-0.14500
X0.18100 Y-0.14500
X0.18100 Y-0.14700
X0.18200 Y-0.14700
X0.18200 Y-0.14900
X0.18300 Y-0.14900
X0.18300 Y-0.15100
X0.18400 Y-0.15100
X0.18400 Y-0.15300
X0.18500 Y-0.15300
X0.18500 Y-0.15500
X0.18600 Y-0.15500
X0.18600 Y-0.15600
X0.18700 Y-0.15600
X0.18700 Y-0.15900
X0.18800 Y-0.15900
X0.18800 Y-0.16300
X0.18900 Y-0.16300
X0.18900 Y-0.16600
X0.19000 Y-0.16600
X0.19000 Y-0.16900
X0.19100 Y-0.16900
X0.19100 Y-0.17300
X0.19200 Y-0.17300
X0.19200 Y-0.18300
X0.19300 Y-0.18300
X0.19300 Y-0.20400
X0.19200 Y-0.20400
X0.19200 Y-0.21400
X0.19100 Y-0.21400
X0.19100 Y-0.21800
X0.19000 Y-0.21800
X0.19000 Y-0.22100
X0.18900 Y-0.22100
X0.18900 Y-0.22400
X0.18800 Y-0.22400
X0.18800 Y-0.22800
X0.18700 Y-0.22800
X0.18700 Y-0.23100
X0.18600 Y-0.23100
X0.18600 Y-0.23200
X0.18500 Y-0.23200
X0.18500 Y-0.23400
X0.18400 Y-0.23400
X0.18400 Y-0.23600
X0.18300 Y-0.23600
X0.18300 Y-0.23800
X0.18200 Y-0.23800
X0.18200 Y-0.24000
X0.18100 Y-0.24000
X0.18100 Y-0.24200
X0.18000 Y-0.24200
X0.18000 Y-0.24300
X0.17900 Y-0.24300
X0.17900 Y-0.24500
X0.17800 Y-0.24500
X0.17800 Y-0.24600
X0.17700 Y-0.24600
X0.17700 Y-0.24700
X0.17600 Y-0.24700
X0.17600 Y-0.24800
X0.17500 Y-0.24800
X0.17500 Y-0.25000
X0.17400 Y-0.25000
X0.17400 Y-0.25100
X0.17300 Y-0.25100
X0.17300 Y-0.25200
X0.17200 Y-0.25200
X0.17200 Y-0.25300
X0.17100 Y-0.25300
X0.17100 Y-0.25400
X0.17000 Y-0.25400
X0.17000 Y-0.25600
X0.16800 Y-0.25600
X0.16800 Y-0.25700
X0.16700 Y-0.25700
X0.16700 Y-0.25800
X0.16600 Y-0.25800
X0.16600 Y-0.25900
X0.16500 Y-0.25900
X0.16500 Y-0.26000
X0.16400 Y-0.26000
X0.16400 Y-0.26100
X0.16200 Y-0.26100
X0.16200 Y-0.26200
X0.16100 Y-0.26200
X0.16100 Y-0.26300
X0.16000 Y-0.26300
X0.16000 Y-0.26400
X0.15900 Y-0.26400
X0.15900 Y-0.26500
X0.15700 Y-0.26500
X0.15700 Y-0.26600
X0.15600 Y-0.26600
X0.15600 Y-0.26700
X0.15400 Y-0.26700
X0.15400 Y-0.26800
X0.15200 Y-0.26800
X0.15200 Y-0.26900
X0.15000 Y-0.26900
X0.15000 Y-0.27000
X0.14800 Y-0.27000
X0.14800 Y-0.27100
X0.14600 Y-0.27100
X0.14600 Y-0.27200
X0.14500 Y-0.27200
X0.14500 Y-0.27300
X0.14200 Y-0.27300
X0.14200 Y-0.27400
X0.13800 Y-0.27400
X0.13800 Y-0.27500
X0.13500 Y-0.27500
X0.13500 Y-0.27600
X0.13200 Y-0.27600
X0.13200 Y-0.27700
X0.12800 Y-0.27700
X0.12800 Y-0.27800
X0.11800 Y-0.27800
X0.11800 Y-0.27900
X0.09700 Y-0.27900
X0.09700 Y-0.27800
X0.08700 Y-0.27800
X0.08700 Y-0.27700
X0.08300 Y-0.27700
X0.08300 Y-0.27600
X0.08000 Y-0.27600
X0.08000 Y-0.27500
X0.07700 Y-0.27500
X0.07700 Y-0.27400
X0.07300 Y-0.27400
X0.07300 Y-0.27300
X0.07000 Y-0.27300
X0.07000 Y-0.27200
X0.06900 Y-0.27200
X0.06900 Y-0.27100
X0.06700 Y-0.27100
X0.06700 Y-0.27000
X0.06500 Y-0.27000
X0.06500 Y-0.26900
X0.06300 Y-0.26900
X0.06300 Y-0.26800
X0.06100 Y-0.26800
X0.06100 Y-0.26700
X0.05900 Y-0.26700
X0.05900 Y-0.26600
X0.05800 Y-0.26600
X0.05800 Y-0.26500
X0.05600 Y-0.26500
X0.05600 Y-0.26400
X0.05500 Y-0.26400
X0.05500 Y-0.26300
X0.05400 Y-0.26300
X0.05400 Y-0.26200
X0.05300 Y-0.26200
X0.05300 Y-0.26100
X0.05100 Y-0.26100
X0.05100 Y-0.26000
X0.05000 Y-0.26000
X0.05000 Y-0.25900
X0.04900 Y-0.25900
X0.04900 Y-0.25800
X0.04800 Y-0.25800
X0.04800 Y-0.25700
X0.04700 Y-0.25700
X0.04700 Y-0.25600
X0.04500 Y-0.25600
X0.04500 Y-0.25400
X0.04400 Y-0.25400
X0.04400 Y-0.25300
X0.04300 Y-0.25300
X0.04300 Y-0.25200
X0.04200 Y-0.25200
X0.04200 Y-0.25100
X0.04100 Y-0.25100
X0.04100 Y-0.25000
X0.04000 Y-0.25000
X0.04000 Y-0.24800
X0.03900 Y-0.24800
X0.03900 Y-0.24700
X0.03800 Y-0.24700
X0.03800 Y-0.24600
X0.03700 Y-0.24600
X0.03700 Y-0.24500
X0.03600 Y-0.24500
X0.03600 Y-0.24300
X0.03500 Y-0.24300
X0.03500 Y-0.24200
X0.03400 Y-0.24200
X0.03400 Y-0.24000
X0.03300 Y-0.24000
X0.03300 Y-0.23800
X0.03200 Y-0.23800
X0.03200 Y-0.23600
X0.03100 Y-0.23600
X0.03100 Y-0.23400
X0.03000 Y-0.23400
X0.03000 Y-0.23200
X0.02900 Y-0.23200
X0.02900 Y-0.23100
X0.02800 Y-0.23100
X0.02800 Y-0.22800
X0.02700 Y-0.22800
X0.02700 Y-0.22400
X0.02600 Y-0.22400
X0.02600 Y-0.22100
X0.02500 Y-0.22100
X0.02500 Y-0.21800
X0.02400 Y-0.21800
X0.02400 Y-0.21400
X0.02300 Y-0.21400
X0.02300 Y-0.20400
X0.02200 Y-0.20400
X0.02200 Y-0.18300
X0.02300 Y-0.18300
X0.02300 Y-0.17300
X0.02400 Y-0.17300
X0.02400 Y-0.16900
X0.02500 Y-0.16900
X0.02500 Y-0.16600
X0.02600 Y-0.16600
X0.02600 Y-0.16300
X0.02700 Y-0.16300
X0.02700 Y-0.15900
X0.02800 Y-0.15900
X0.02800 Y-0.15600
X0.02900 Y-0.15600
X0.02900 Y-0.15500
X0.03000 Y-0.15500
X0.03000 Y-0.15300
X0.03100 Y-0.15300
X0.03100 Y-0.15100
X0.03200 Y-0.15100
X0.03200 Y-0.14900
X0.03300 Y-0.14900
X0.03300 Y-0.14700
X0.03400 Y-0.14700
X0.03400 Y-0.14500
X0.03500 Y-0.14500
X0.03500 Y-0.14400
X0.03600 Y-0.14400
X0.03600 Y-0.14200
X0.03700 Y-0.14200
X0.03700 Y-0.14100
X0.03800 Y-0.14100
X0.03800 Y-0.14000
X0.03900 Y-0.14000
X0.03900 Y-0.13900
X0.04000 Y-0.13900
X0.04000 Y-0.13700
X0.04100 Y-0.13700
X0.04100 Y-0.13600
X0.04200 Y-0.13600
X0.04200 Y-0.13500
X0.04300 Y-0.13500
X0.04300 Y-0.13400
X0.04400 Y-0.13400
X0.04400 Y-0.13300
X0.04500 Y-0.13300
X0.04500 Y-0.13100
X0.04700 Y-0.13100
X0.04700 Y-0.13000
X0.04800 Y-0.13000
X0.04800 Y-0.12900
X0.04900 Y-0.12900
X0.04900 Y-0.12800
X0.05000 Y-0.12800
X0.05000 Y-0.12700
X0.05100 Y-0.12700
X0.05100 Y-0.12600
X0.05300 Y-0.12600
X0.05300 Y-0.12500
X0.05400 Y-0.12500
X0.05400 Y-0.12400
X0.05500 Y-0.12400
X0.05500 Y-0.12300
X0.05600 Y-0.12300
X0.05600 Y-0.12200
X0.05800 Y-0.12200
X0.05800 Y-0.12100
X0.05900 Y-0.12100
X0.05900 Y-0.12000
X0.06100 Y-0.12000
X0.06100 Y-0.11900
X0.06300 Y-0.11900
X0.06300 Y-0.11800
X0.06500 Y-0.11800
X0.06500 Y-0.11700
X0.06700 Y-0.11700
X0.06700 Y-0.11600
X0.06900 Y-0.11600
X0.06900 Y-0.11500
X0.07000 Y-0.11500
X0.07000 Y-0.11400
X0.07300 Y-0.11400
X0.07300 Y-0.11300
X0.07700 Y-0.11300
X0.07700 Y-0.11200
X0.08000 Y-0.11200
X0.08000 Y-0.11100
X0.08300 Y-0.11100
X0.08300 Y-0.11000
X0.08700 Y-0.11000
X0.08700 Y-0.10900
X0.09700 Y-0.10900
X0.09700 Y-0.10800
X0.11800 Y-0.10800
X0.11800 Y-0.10900
X0.12800 Y-0.10900
X0.12800 Y-0.11000
X0.13200 Y-0.11000
X0.13200 Y-0.11100
X0.13500 Y-0.11100
X0.13500 Y-0.11200
X0.13800 Y-0.11200
X0.13800 Y-0.11300
X0.14200 Y-0.11300
X0.14200 Y-0.11400
G04 P0 ( dwell for no time -- G64 should not smooth over this point )
G00 Z0.10000 ( retract )

G00 X1.75600 Y-0.11400 ( rapid move to begin. )
G01 Z-0.00500 F3.50000 ( plunge. )
G04 P0 ( dwell for no time -- G64 should not smooth over this point )
X1.75600 Y-0.11400
X1.75900 Y-0.11400
X1.75900 Y-0.11500
X1.76000 Y-0.11500
X1.76000 Y-0.11600
X1.76200 Y-0.11600
X1.76200 Y-0.11700
X1.76400 Y-0.11700
X1.76400 Y-0.11800
X1.76600 Y-0.11800
X1.76600 Y-0.11900
X1.76800 Y-0.11900
X1.76800 Y-0.12000
X1.77000 Y-0.12000
X1.77000 Y-0.12100
X1.77100 Y-0.12100
X1.77100 Y-0.12200
X1.77300 Y-0.12200
X1.77300 Y-0.12300
X1.77400 Y-0.12300
X1.77400 Y-0.12400
X1.77500 Y-0.12400
X1.77500 Y-0.12500
X1.77600 Y-0.12500
X1.77600 Y-0.12600
X1.77800 Y-0.12600
X1.77800 Y-0.12700
X1.77900 Y-0.12700
X1.77900 Y-0.12800
X1.78000 Y-0.12800
X1.78000 Y-0.12900
X1.78100 Y-0.12900
X1.78100 Y-0.13000
X1.78200 Y-0.13000
X1.78200 Y-0.13100
X1.78400 Y-0.13100
X1.78400 Y-0.13300
X1.78500 Y-0.13300
X1.78500 Y-0.13400
X1.78600 Y-0.13400
X1.78600 Y-0.13500
X1.78700 Y-0.13500
X1.78700 Y-0.13600
X1.78800 Y-0.13600
X1.78800 Y-0.13700
X1.78900 Y-0.13700
X1.78900 Y-0.13900
X1.79000 Y-0.13900
X1.79000 Y-0.14000
X1.79100 Y-0.14000
X1.79100 Y-0.14100
X1.79200 Y-0.14100
X1.79200 Y-0.14200
X1.79300 Y-0.14200
X1.79300 Y-0.14400
X1.79400 Y-0.14400
X1.79400 Y-0.14500
X1.79500 Y-0.14500
X1.79500 Y-0.14700
X1.79600 Y-0.14700
X1.79600 Y-0.14900
X1.79700 Y-0.14900
X1.79700 Y-0.15100
X1.79800 Y-0.15100
X1.79800 Y-0.15300
X1.79900 Y-0.15300
X1.79900 Y-0.15500
X1.80000 Y-0.15500
X1.80000 Y-0.15600
X1.80100 Y-0.15600
X1.80100 Y-0.15900
X1.80200 Y-0.15900
X1.80200 Y-0.16300
X1.80300 Y-0.16300
X1.80300 Y-0.16600
X1.80400 Y-0.16600
X1.80400 Y-0.16900
X1.80500 Y-0.16900
X1.80500 Y-0.17300
X1.80600 Y-0.17300
X1.80600 Y-0.18300
X1.80700 Y-0.18300
X1.80700 Y-0.20400
X1.80600 Y-0.20400
X1.80600 Y-0.21400
X1.80500 Y-0.21400
X1.80500 Y-0.21800
X1.80400 Y-0.21800
X1.80400 Y-0.22100
X1.80300 Y-0.22100
X1.80300 Y-0.22400
X1.80200 Y-0.22400
X1.80200 Y-0.22800
X1.80100 Y-0.22800
X1.80100 Y-0.23100
X1.80000 Y-0.23100
X1.80000 Y-0.23200
X1.79900 Y-0.23200
X1.79900 Y-0.23400
X1.79800 Y-0.23400
X1.79800 Y-0.23600
X1.79700 Y-0.23600
X1.79700 Y-0.23800
X1.79600 Y-0.23800
X1.79600 Y-0.24000
X1.79500 Y-0.24000
X1.79500 Y-0.24200
X1.79400 Y-0.24200
X1.79400 Y-0.24300
X1.79300 Y-0.24300
X1.79300 Y-0.24500
X1.79200 Y-0.24500
X1.79200 Y-0.24600
X1.79100 Y-0.24600
X1.79100 Y-0.24700
X1.79000 Y-0.24700
X1.79000 Y-0.24800
X1.78900 Y-0.24800
X1.78900 Y-0.25000
X1.78800 Y-0.25000
X1.78800 Y-0.25100
X1.78700 Y-0.25100
X1.78700 Y-0.25200
X1.78600 Y-0.25200
X1.78600 Y-0.25300
X1.78500 Y-0.25300
X1.78500 Y-0.25400
X1.78400 Y-0.25400
X1.78400 Y-0.25600
X1.78200 Y-0.25600
X1.78200 Y-0.25700
X1.78100 Y-0.25700
X1.78100 Y-0.25800
X1.78000 Y-0.25800
X1.78000 Y-0.25900
X1.77900 Y-0.25900
X1.77900 Y-0.26000
X1.77800 Y-0.26000
X1.77800 Y-0.26100
X1.77600 Y-0.26100
X1.77600 Y-0.26200
X1.77500 Y-0.26200
X1.77500 Y-0.26300
X1.77400 Y-0.26300
X1.77400 Y-0.26400
X1.77300 Y-0.26400
X1.77300 Y-0.26500
X1.77100 Y-0.26500
X1.77100 Y-0.26600
X1.77000 Y-0.26600
X1.77000 Y-0.26700
X1.76800 Y-0.26700
X1.76800 Y-0.26800
X1.76600 Y-0.26800
X1.76600 Y-0.26900
X1.76400 Y-0.26900
X1.76400 Y-0.27000
X1.76200 Y-0.27000
X1.76200 Y-0.27100
X1.76000 Y-0.27100
X1.76000 Y-0.27200
X1.75900 Y-0.27200
X1.75900 Y-0.27300
X1.75600 Y-0.27300
X1.75600 Y-0.27400
X1.75200 Y-0.27400
X1.75200 Y-0.27500
X1.74900 Y-0.27500
X1.74900 Y-0.27600
X1.74600 Y-0.27600
X1.74600 Y-0.27700
X1.74200 Y-0.27700
X1.74200 Y-0.27800
X1.73200 Y-0.27800
X1.73200 Y-0.27900
X1.71100 Y-0.27900
X1.71100 Y-0.27800
X1.70100 Y-0.27800
X1.70100 Y-0.27700
X1.69700 Y-0.27700
X1.69700 Y-0.27600
X1.69400 Y-0.27600
X1.69400 Y-0.27500
X1.69100 Y-0.27500
X1.69100 Y-0.27400
X1.68700 Y-0.27400
X1.68700 Y-0.27300
X1.68400 Y-0.27300
X1.68400 Y-0.27200
X1.68300 Y-0.27200
X1.68300 Y-0.27100
X1.68100 Y-0.27100
X1.68100 Y-0.27000
X1.67900 Y-0.27000
X1.67900 Y-0.26900
X1.67700 Y-0.26900
X1.67700 Y-0.26800
X1.67500 Y-0.26800
X1.67500 Y-0.26700
X1.67300 Y-0.26700
X1.67300 Y-0.26600
X1.67200 Y-0.26600
X1.67200 Y-0.26500
X1.67000 Y-0.26500
X1.67000 Y-0.26400
X1.66900 Y-0.26400
X1.66900 Y-0.26300
X1.66800 Y-0.26300
X1.66800 Y-0.26200
X1.66700 Y-0.26200
X1.66700 Y-0.26100
X1.66500 Y-0.26100
X1.66500 Y-0.26000
X1.66400 Y-0.26000
X1.66400 Y-0.25900
X1.66300 Y-0.25900
X1.66300 Y-0.25800
X1.66200 Y-0.25800
X1.66200 Y-0.25700
X1.66100 Y-0.25700
X1.66100 Y-0.25600
X1.65900 Y-0.25600
X1.65900 Y-0.25400
X1.65800 Y-0.25400
X1.65800 Y-0.25300
X1.65700 Y-0.25300
X1.65700 Y-0.25200
X1.65600 Y-0.25200
X1.65600 Y-0.25100
X1.65500 Y-0.25100
X1.65500 Y-0.25000
X1.65400 Y-0.25000
X1.65400 Y-0.24800
X1.65300 Y-0.24800
X1.65300 Y-0.24700
X1.65200 Y-0.24700
X1.65200 Y-0.24600
X1.65100 Y-0.24600
X1.65100 Y-0.24500
X1.65000 Y-0.24500
X1.65000 Y-0.24300
X1.64900 Y-0.24300
X1.64900 Y-0.24200
X1.64800 Y-0.24200
X1.64800 Y-0.24000
X1.64700 Y-0.24000
X1.64700 Y-0.23800
X1.64600 Y-0.23800
X1.64600 Y-0.23600
X1.64500 Y-0.23600
X1.64500 Y-0.23400
X1.64400 Y-0.23400
X1.64400 Y-0.23200
X1.64300 Y-0.23200
X1.64300 Y-0.23100
X1.64200 Y-0.23100
X1.64200 Y-0.22800
X1.64100 Y-0.22800
X1.64100 Y-0.22400
X1.64000 Y-0.22400
X1.64000 Y-0.22100
X1.63900 Y-0.22100
X1.63900 Y-0.21800
X1.63800 Y-0.21800
X1.63800 Y-0.21400
X1.63700 Y-0.21400
X1.63700 Y-0.20400
X1.63600 Y-0.20400
X1.63600 Y-0.18300
X1.63700 Y-0.18300
X1.63700 Y-0.17300
X1.63800 Y-0.17300
X1.63800 Y-0.16900
X1.63900 Y-0.16900
X1.63900 Y-0.16600
X1.64000 Y-0.16600
X1.64000 Y-0.16300
X1.64100 Y-0.16300
X1.64100 Y-0.15900
X1.64200 Y-0.15900
X1.64200 Y-0.15600
X1.64300 Y-0.15600
X1.64300 Y-0.15500
X1.64400 Y-0.15500
X1.64400 Y-0.15300
X1.64500 Y-0.15300
X1.64500 Y-0.15100
X1.64600 Y-0.15100
X1.64600 Y-0.14900
X1.64700 Y-0.14900
X1.64700 Y-0.14700
X1.64800 Y-0.14700
X1.64800 Y-0.14500
X1.64900 Y-0.14500
X1.64900 Y-0.14400
X1.65000 Y-0.14400
X1.65000 Y-0.14200
X1.65100 Y-0.14200
X1.65100 Y-0.14100
X1.65200 Y-0.14100
X1.65200 Y-0.14000
X1.65300 Y-0.14000
X1.65300 Y-0.13900
X1.65400 Y-0.13900
X1.65400 Y-0.13700
X1.65500 Y-0.13700
X1.65500 Y-0.13600
X1.65600 Y-0.13600
X1.65600 Y-0.13500
X1.65700 Y-0.13500
X1.65700 Y-0.13400
X1.65800 Y-0.13400
X1.65800 Y-0.13300
X1.65900 Y-0.13300
X1.65900 Y-0.13100
X1.66100 Y-0.13100
X1.66100 Y-0.13000
X1.66200 Y-0.13000
X1.66200 Y-0.12900
X1.66300 Y-0.12900
X1.66300 Y-0.12800
X1.66400 Y-0.12800
X1.66400 Y-0.12700
X1.66500 Y-0.12700
X1.66500 Y-0.12600
X1.66700 Y-0.12600
X1.66700 Y-0.12500
X1.66800 Y-0.12500
X1.66800 Y-0.12400
X1.66900 Y-0.12400
X1.66900 Y-0.12300
X1.67000 Y-0.12300
X1.67000 Y-0.12200
X1.67200 Y-0.12200
X1.67200 Y-0.12100
X1.67300 Y-0.12100
X1.67300 Y-0.12000
X1.67500 Y-0.12000
X1.67500 Y-0.11900
X1.67700 Y-0.11900
X1.67700 Y-0.11800
X1.67900 Y-0.11800
X1.67900 Y-0.11700
X1.68100 Y-0.11700
X1.68100 Y-0.11600
X1.68300 Y-0.11600
X1.68300 Y-0.11500
X1.68400 Y-0.11500
X1.68400 Y-0.11400
X1.68700 Y-0.11400
X1.68700 Y-0.11300
X1.69100 Y-0.11300
X1.69100 Y-0.11200
X1.69400 Y-0.11200
X1.69400 Y-0.11100
X1.69700 Y-0.11100
X1.69700 Y-0.11000
X1.70100 Y-0.11000
X1.70100 Y-0.10900
X1.71100 Y-0.10900
X1.71100 Y-0.10800
X1.73200 Y-0.10800
X1.73200 Y-0.10900
X1.74200 Y-0.10900
X1.74200 Y-0.11000
X1.74600 Y-0.11000
X1.74600 Y-0.11100
X1.74900 Y-0.11100
X1.74900 Y-0.11200
X1.75200 Y-0.11200
X1.75200 Y-0.11300
X1.75600 Y-0.11300
X1.75600 Y-0.11400
G04 P0 ( dwell for no time -- G64 should not smooth over this point )
G00 Z0.10000 ( retract )

G00 X0.74400 Y-0.31500 ( rapid move to begin. )
G01 Z-0.00500 F3.50000 ( plunge. )
G04 P0 ( dwell for no time -- G64 should not smooth over this point )
X0.74400 Y-0.31500
X0.74600 Y-0.31500
X0.74600 Y-0.31600
X0.74800 Y-0.31600
X0.74800 Y-0.31700
X0.74900 Y-0.31700
X0.74900 Y-0.31800
X0.75000 Y-0.31800
X0.75000 Y-0.32000
X0.75100 Y-0.32000
X0.75100 Y-0.32100
X0.75200 Y-0.32100
X0.75200 Y-0.32300
X0.75300 Y-0.32300
X0.75300 Y-0.32400
X0.75400 Y-0.32400
X0.75400 Y-0.32500
X0.75500 Y-0.32500
X0.75500 Y-0.32700
X0.75600 Y-0.32700
X0.75600 Y-0.33200
X0.75700 Y-0.33200
X0.75700 Y-0.33700
X0.75800 Y-0.33700
X0.75800 Y-0.38200
X0.75700 Y-0.38200
X0.75700 Y-0.38700
X0.75600 Y-0.38700
X0.75600 Y-0.39200
X0.75500 Y-0.39200
X0.75500 Y-0.39400
X0.75400 Y-0.39400
X0.75400 Y-0.39500
X0.75300 Y-0.39500
X0.75300 Y-0.39600
X0.75200 Y-0.39600
X0.75200 Y-0.39800
X0.75100 Y-0.39800
X0.75100 Y-0.39900
X0.75000 Y-0.39900
X0.75000 Y-0.40100
X0.74900 Y-0.40100
X0.74900 Y-0.40200
X0.74800 Y-0.40200
X0.74800 Y-0.40300
X0.74600 Y-0.40300
X0.74600 Y-0.40400
X0.74400 Y-0.40400
X0.74400 Y-0.40500
X0.74300 Y-0.40500
X0.74300 Y-0.40600
X0.74100 Y-0.40600
X0.74100 Y-0.40700
X0.73900 Y-0.40700
X0.73900 Y-0.40800
X0.73600 Y-0.40800
X0.73600 Y-0.40900
X0.73000 Y-0.40900
X0.73000 Y-0.41000
X0.71300 Y-0.41000
X0.71300 Y-0.40900
X0.70700 Y-0.40900
X0.70700 Y-0.40800
X0.70400 Y-0.40800
X0.70400 Y-0.40700
X0.70200 Y-0.40700
X0.70200 Y-0.40600
X0.70000 Y-0.40600
X0.70000 Y-0.40500
X0.69900 Y-0.40500
X0.69900 Y-0.40400
X0.69700 Y-0.40400
X0.69700 Y-0.40300
X0.69500 Y-0.40300
X0.69500 Y-0.40200
X0.69400 Y-0.40200
X0.69400 Y-0.40100
X0.69300 Y-0.40100
X0.69300 Y-0.39900
X0.69200 Y-0.39900
X0.69200 Y-0.39800
X0.69100 Y-0.39800
X0.69100 Y-0.39600
X0.69000 Y-0.39600
X0.69000 Y-0.39500
X0.68900 Y-0.39500
X0.68900 Y-0.39400
X0.68800 Y-0.39400
X0.68800 Y-0.39200
X0.68700 Y-0.39200
X0.68700 Y-0.38700
X0.68600 Y-0.38700
X0.68600 Y-0.38200
X0.68500 Y-0.38200
X0.68500 Y-0.33700
X0.68600 Y-0.33700
X0.68600 Y-0.33200
X0.68700 Y-0.33200
X0.68700 Y-0.32700
X0.68800 Y-0.32700
X0.68800 Y-0.32500
X0.68900 Y-0.32500
X0.68900 Y-0.32400
X0.69000 Y-0.32400
X0.69000 Y-0.32300
X0.69100 Y-0.32300
X0.69100 Y-0.32100
X0.69200 Y-0.32100
X0.69200 Y-0.32000
X0.69300 Y-0.32000
X0.69300 Y-0.31800
X0.69400 Y-0.31800
X0.69400 Y-0.31700
X0.69500 Y-0.31700
X0.69500 Y-0.31600
X0.69700 Y-0.31600
X0.69700 Y-0.31500
X0.69900 Y-0.31500
X0.69900 Y-0.31400
X0.70000 Y-0.31400
X0.70000 Y-0.31300
X0.70200 Y-0.31300
X0.70200 Y-0.31200
X0.70400 Y-0.31200
X0.70400 Y-0.31100
X0.70700 Y-0.31100
X0.70700 Y-0.31000
X0.71300 Y-0.31000
X0.71300 Y-0.30900
X0.73000 Y-0.30900
X0.73000 Y-0.31000
X0.73600 Y-0.31000
X0.73600 Y-0.31100
X0.73900 Y-0.31100
X0.73900 Y-0.31200
X0.74100 Y-0.31200
X0.74100 Y-0.31300
X0.74300 Y-0.31300
X0.74300 Y-0.31400
X0.74400 Y-0.31400
X0.74400 Y-0.31500
G04 P0 ( dwell for no time -- G64 should not smooth over this point )
G00 Z0.10000 ( retract )

G00 X0.84400 Y-0.31500 ( rapid move to begin. )
G01 Z-0.00500 F3.50000 ( plunge. )
G04 P0 ( dwell for no time -- G64 should not smooth over this point )
X0.84400 Y-0.31500
X0.84600 Y-0.31500
X0.84600 Y-0.31600
X0.84800 Y-0.31600
X0.84800 Y-0.31700
X0.84900 Y-0.31700
X0.84900 Y-0.31800
X0.85000 Y-0.31800
X0.85000 Y-0.32000
X0.85100 Y-0.32000
X0.85100 Y-0.32100
X0.85200 Y-0.32100
X0.85200 Y-0.32300
X0.85300 Y-0.32300
X0.85300 Y-0.32400
X0.85400 Y-0.32400
X0.85400 Y-0.32500
X0.85500 Y-0.32500
X0.85500 Y-0.32700
X0.85600 Y-0.32700
X0.85600 Y-0.33200
X0.85700 Y-0.33200
X0.85700 Y-0.33700
X0.85800 Y-0.33700
X0.85800 Y-0.38200
X0.85700 Y-0.38200
X0.85700 Y-0.38700
X0.85600 Y-0.38700
X0.85600 Y-0.39200
X0.85500 Y-0.39200
X0.85500 Y-0.39400
X0.85400 Y-0.39400
X0.85400 Y-0.39500
X0.85300 Y-0.39500
X0.85300 Y-0.39600
X0.85200 Y-0.39600
X0.85200 Y-0.39800
X0.85100 Y-0.39800
X0.85100 Y-0.39900
X0.85000 Y-0.39900
X0.85000 Y-0.40100
X0.84900 Y-0.40100
X0.84900 Y-0.40200
X0.84800 Y-0.40200
X0.84800 Y-0.40300
X0.84600 Y-0.40300
X0.84600 Y-0.40400
X0.84400 Y-0.40400
X0.84400 Y-0.40500
X0.84300 Y-0.40500
X0.84300 Y-0.40600
X0.84100 Y-0.40600
X0.84100 Y-0.40700
X0.83900 Y-0.40700
X0.83900 Y-0.40800
X0.83600 Y-0.40800
X0.83600 Y-0.40900
X0.83000 Y-0.40900
X0.83000 Y-0.41000
X0.81300 Y-0.41000
X0.81300 Y-0.40900
X0.80700 Y-0.40900
X0.80700 Y-0.40800
X0.80400 Y-0.40800
X0.80400 Y-0.40700
X0.80200 Y-0.40700
X0.80200 Y-0.40600
X0.80000 Y-0.40600
X0.80000 Y-0.40500
X0.79900 Y-0.40500
X0.79900 Y-0.40400
X0.79700 Y-0.40400
X0.79700 Y-0.40300
X0.79500 Y-0.40300
X0.79500 Y-0.40200
X0.79400 Y-0.40200
X0.79400 Y-0.40100
X0.79300 Y-0.40100
X0.79300 Y-0.39900
X0.79200 Y-0.39900
X0.79200 Y-0.39800
X0.79100 Y-0.39800
X0.79100 Y-0.39600
X0.79000 Y-0.39600
X0.79000 Y-0.39500
X0.78900 Y-0.39500
X0.78900 Y-0.39400
X0.78800 Y-0.39400
X0.78800 Y-0.39200
X0.78700 Y-0.39200
X0.78700 Y-0.38700
X0.78600 Y-0.38700
X0.78600 Y-0.38200
X0.78500 Y-0.38200
X0.78500 Y-0.33700
X0.78600 Y-0.33700
X0.78600 Y-0.33200
X0.78700 Y-0.33200
X0.78700 Y-0.32700
X0.78800 Y-0.32700
X0.78800 Y-0.32500
X0.78900 Y-0.32500
X0.78900 Y-0.32400
X0.79000 Y-0.32400
X0.79000 Y-0.32300
X0.79100 Y-0.32300
X0.79100 Y-0.32100
X0.79200 Y-0.32100
X0.79200 Y-0.32000
X0.79300 Y-0.32000
X0.79300 Y-0.31800
X0.79400 Y-0.31800
X0.79400 Y-0.31700
X0.79500 Y-0.31700
X0.79500 Y-0.31600
X0.79700 Y-0.31600
X0.79700 Y-0.31500
X0.79900 Y-0.31500
X0.79900 Y-0.31400
X0.80000 Y-0.31400
X0.80000 Y-0.31300
X0.80200 Y-0.31300
X0.80200 Y-0.31200
X0.80400 Y-0.31200
X0.80400 Y-0.31100
X0.80700 Y-0.31100
X0.80700 Y-0.31000
X0.81300 Y-0.31000
X0.81300 Y-0.30900
X0.83000 Y-0.30900
X0.83000 Y-0.31000
X0.83600 Y-0.31000
X0.83600 Y-0.31100
X0.83900 Y-0.31100
X0.83900 Y-0.31200
X0.84100 Y-0.31200
X0.84100 Y-0.31300
X0.84300 Y-0.31300
X0.84300 Y-0.31400
X0.84400 Y-0.31400
X0.84400 Y-0.31500
G04 P0 ( dwell for no time -- G64 should not smooth over this point )
G00 Z0.10000 ( retract )

G00 X0.94400 Y-0.31500 ( rapid move to begin. )
G01 Z-0.00500 F3.50000 ( plunge. )
G04 P0 ( dwell for no time -- G64 should not smooth over this point )
X0.94400 Y-0.31500
X0.94600 Y-0.31500
X0.94600 Y-0.31600
X0.94800 Y-0.31600
X0.94800 Y-0.31700
X0.94900 Y-0.31700
X0.94900 Y-0.31800
X0.95000 Y-0.31800
X0.95000 Y-0.32000
X0.95100 Y-0.32000
X0.95100 Y-0.32100
X0.95200 Y-0.32100
X0.95200 Y-0.32300
X0.95300 Y-0.32300
X0.95300 Y-0.32400
X0.95400 Y-0.32400
X0.95400 Y-0.32500
X0.95500 Y-0.32500
X0.95500 Y-0.32700
X0.95600 Y-0.32700
X0.95600 Y-0.33200
X0.95700 Y-0.33200
X0.95700 Y-0.33700
X0.95800 Y-0.33700
X0.95800 Y-0.38200
X0.95700 Y-0.38200
X0.95700 Y-0.38700
X0.95600 Y-0.38700
X0.95600 Y-0.39200
X0.95500 Y-0.39200
X0.95500 Y-0.39400
X0.95400 Y-0.39400
X0.95400 Y-0.39500
X0.95300 Y-0.39500
X0.95300 Y-0.39600
X0.95200 Y-0.39600
X0.95200 Y-0.39800
X0.95100 Y-0.39800
X0.95100 Y-0.39900
X0.95000 Y-0.39900
X0.95000 Y-0.40100
X0.94900 Y-0.40100
X0.94900 Y-0.40200
X0.94800 Y-0.40200
X0.94800 Y-0.40300
X0.94600 Y-0.40300
X0.94600 Y-0.40400
X0.94400 Y-0.40400
X0.94400 Y-0.40500
X0.94300 Y-0.40500
X0.94300 Y-0.40600
X0.94100 Y-0.40600
X0.94100 Y-0.40700
X0.93900 Y-0.40700
X0.93900 Y-0.40800
X0.93600 Y-0.40800
X0.93600 Y-0.40900
X0.93000 Y-0.40900
X0.93000 Y-0.41000
X0.91300 Y-0.41000
X0.91300 Y-0.40900
X0.90700 Y-0.40900
X0.90700 Y-0.40800
X0.90400 Y-0.40800
X0.90400 Y-0.40700
X0.90200 Y-0.40700
X0.90200 Y-0.40600
X0.90000 Y-0.40600
X0.90000 Y-0.40500
X0.89900 Y-0.40500
X0.89900 Y-0.40400
X0.89700 Y-0.40400
X0.89700 Y-0.40300
X0.89500 Y-0.40300
X0.89500 Y-0.40200
X0.89400 Y-0.40200
X0.89400 Y-0.40100
X0.89300 Y-0.40100
X0.89300 Y-0.39900
X0.89200 Y-0.39900
X0.89200 Y-0.39800
X0.89100 Y-0.39800
X0.89100 Y-0.39600
X0.89000 Y-0.39600
X0.89000 Y-0.39500
X0.88900 Y-0.39500
X0.88900 Y-0.39400
X0.88800 Y-0.39400
X0.88800 Y-0.39200
X0.88700 Y-0.39200
X0.88700 Y-0.38700
X0.88600 Y-0.38700
X0.88600 Y-0.38200
X0.88500 Y-0.38200
X0.88500 Y-0.33700
X0.88600 Y-0.33700
X0.88600 Y-0.33200
X0.88700 Y-0.33200
X0.88700 Y-0.32700
X0.88800 Y-0.32700
X0.88800 Y-0.32500
X0.88900 Y-0.32500
X0.88900 Y-0.32400
X0.89000 Y-0.32400
X0.89000 Y-0.32300
X0.89100 Y-0.32300
X0.89100 Y-0.32100
X0.89200 Y-0.32100
X0.89200 Y-0.32000
X0.89300 Y-0.32000
X0.89300 Y-0.31800
X0.89400 Y-0.31800
X0.89400 Y-0.31700
X0.89500 Y-0.31700
X0.89500 Y-0.31600
X0.89700 Y-0.31600
X0.89700 Y-0.31500
X0.89900 Y-0.31500
X0.89900 Y-0.31400
X0.90000 Y-0.31400
X0.90000 Y-0.31300
X0.90200 Y-0.31300
X0.90200 Y-0.31200
X0.90400 Y-0.31200
X0.90400 Y-0.31100
X0.90700 Y-0.31100
X0.90700 Y-0.31000
X0.91300 Y-0.31000
X0.91300 Y-0.30900
X0.93000 Y-0.30900
X0.93000 Y-0.31000
X0.93600 Y-0.31000
X0.93600 Y-0.31100
X0.93900 Y-0.31100
X0.93900 Y-0.31200
X0.94100 Y-0.31200
X0.94100 Y-0.31300
X0.94300 Y-0.31300
X0.94300 Y-0.31400
X0.94400 Y-0.31400
X0.94400 Y-0.31500
G04 P0 ( dwell for no time -- G64 should not smooth over this point )
G00 Z0.10000 ( retract )

G00 X1.04400 Y-0.31500 ( rapid move to begin. )
G01 Z-0.00500 F3.50000 ( plunge. )
G04 P0 ( dwell for no time -- G64 should not smooth over this point )
X1.04400 Y-0.31500
X1.04600 Y-0.31500
X1.04600 Y-0.31600
X1.04800 Y-0.31600
X1.04800 Y-0.31700
X1.04900 Y-0.31700
X1.04900 Y-0.31800
X1.05000 Y-0.31800
X1.05000 Y-0.32000
X1.05100 Y-0.32000
X1.05100 Y-0.32100
X1.05200 Y-0.32100
X1.05200 Y-0.32300
X1.05300 Y-0.32300
X1.05300 Y-0.32400
X1.05400 Y-0.32400
X1.05400 Y-0.32500
X1.05500 Y-0.32500
X1.05500 Y-0.32700
X1.05600 Y-0.32700
X1.05600 Y-0.33200
X1.05700 Y-0.33200
X1.05700 Y-0.33700
X1.05800 Y-0.33700
X1.05800 Y-0.38200
X1.05700 Y-0.38200
X1.05700 Y-0.38700
X1.05600 Y-0.38700
X1.05600 Y-0.39200
X1.05500 Y-0.39200
X1.05500 Y-0.39400
X1.05400 Y-0.39400
X1.05400 Y-0.39500
X1.05300 Y-0.39500
X1.05300 Y-0.39600
X1.05200 Y-0.39600
X1.05200 Y-0.39800
X1.05100 Y-0.39800
X1.05100 Y-0.39900
X1.05000 Y-0.39900
X1.05000 Y-0.40100
X1.04900 Y-0.40100
X1.04900 Y-0.40200
X1.04800 Y-0.40200
X1.04800 Y-0.40300
X1.04600 Y-0.40300
X1.04600 Y-0.40400
X1.04400 Y-0.40400
X1.04400 Y-0.40500
X1.04300 Y-0.40500
X1.04300 Y-0.40600
X1.04100 Y-0.40600
X1.04100 Y-0.40700
X1.03900 Y-0.40700
X1.03900 Y-0.40800
X1.03600 Y-0.40800
X1.03600 Y-0.40900
X1.03000 Y-0.40900
X1.03000 Y-0.41000
X1.01300 Y-0.41000
X1.01300 Y-0.40900
X1.00700 Y-0.40900
X1.00700 Y-0.40800
X1.00400 Y-0.40800
X1.00400 Y-0.40700
X1.00200 Y-0.40700
X1.00200 Y-0.40600
X1.00000 Y-0.40600
X1.00000 Y-0.40500
X0.99900 Y-0.40500
X0.99900 Y-0.40400
X0.99700 Y-0.40400
X0.99700 Y-0.40300
X0.99500 Y-0.40300
X0.99500 Y-0.40200
X0.99400 Y-0.40200
X0.99400 Y-0.40100
X0.99300 Y-0.40100
X0.99300 Y-0.39900
X0.99200 Y-0.39900
X0.99200 Y-0.39800
X0.99100 Y-0.39800
X0.99100 Y-0.39600
X0.99000 Y-0.39600
X0.99000 Y-0.39500
X0.98900 Y-0.39500
X0.98900 Y-0.39400
X0.98800 Y-0.39400
X0.98800 Y-0.39200
X0.98700 Y-0.39200
X0.98700 Y-0.38700
X0.98600 Y-0.38700
X0.98600 Y-0.38200
X0.98500 Y-0.38200
X0.98500 Y-0.33700
X0.98600 Y-0.33700
X0.98600 Y-0.33200
X0.98700 Y-0.33200
X0.98700 Y-0.32700
X0.98800 Y-0.32700
X0.98800 Y-0.32500
X0.98900 Y-0.32500
X0.98900 Y-0.32400
X0.99000 Y-0.32400
X0.99000 Y-0.32300
X0.99100 Y-0.32300
X0.99100 Y-0.32100
X0.99200 Y-0.32100
X0.99200 Y-0.32000
X0.99300 Y-0.32000
X0.99300 Y-0.31800
X0.99400 Y-0.31800
X0.99400 Y-0.31700
X0.99500 Y-0.31700
X0.99500 Y-0.31600
X0.99700 Y-0.31600
X0.99700 Y-0.31500
X0.99900 Y-0.31500
X0.99900 Y-0.31400
X1.00000 Y-0.31400
X1.00000 Y-0.31300
X1.00200 Y-0.31300
X1.00200 Y-0.31200
X1.00400 Y-0.31200
X1.00400 Y-0.31100
X1.00700 Y-0.31100
X1.00700 Y-0.31000
X1.01300 Y-0.31000
X1.01300 Y-0.30900
X1.03000 Y-0.30900
X1.03000 Y-0.31000
X1.03600 Y-0.31000
X1.03600 Y-0.31100
X1.03900 Y-0.31100
X1.03900 Y-0.31200
X1.04100 Y-0.31200
X1.04100 Y-0.31300
X1.04300 Y-0.31300
X1.04300 Y-0.31400
X1.04400 Y-0.31400
X1.04400 Y-0.31500
G04 P0 ( dwell for no time -- G64 should not smooth over this point )
G00 Z0.10000 ( retract )

G00 X1.28000 Y-0.36100 ( rapid move to begin. )
G01 Z-0.00500 F3.50000 ( plunge. )
G04 P0 ( dwell for no time -- G64 should not smooth over this point )
X1.28000 Y-0.36100
X1.28200 Y-0.36100
X1.28200 Y-0.36200
X1.28300 Y-0.36200
X1.28300 Y-0.36400
X1.28400 Y-0.36400
X1.28400 Y-0.36500
X1.28500 Y-0.36500
X1.28500 Y-0.36600
X1.28600 Y-0.36600
X1.28600 Y-0.36800
X1.28700 Y-0.36800
X1.28700 Y-0.36900
X1.28800 Y-0.36900
X1.28800 Y-0.37200
X1.28900 Y-0.37200
X1.28900 Y-0.37700
X1.29000 Y-0.37700
X1.29000 Y-0.39800
X1.28900 Y-0.39800
X1.28900 Y-0.40300
X1.28800 Y-0.40300
X1.28800 Y-0.40600
X1.28700 Y-0.40600
X1.28700 Y-0.40700
X1.28600 Y-0.40700
X1.28600 Y-0.40900
X1.28500 Y-0.40900
X1.28500 Y-0.41000
X1.28400 Y-0.41000
X1.28400 Y-0.41100
X1.28300 Y-0.41100
X1.28300 Y-0.41300
X1.28200 Y-0.41300
X1.28200 Y-0.41400
X1.28000 Y-0.41400
X1.28000 Y-0.41500
X1.27900 Y-0.41500
X1.27900 Y-0.41600
X1.27700 Y-0.41600
X1.27700 Y-0.41700
X1.27500 Y-0.41700
X1.27500 Y-0.41800
X1.27400 Y-0.41800
X1.27400 Y-0.41900
X1.26900 Y-0.41900
X1.26900 Y-0.42000
X1.24600 Y-0.42000
X1.24600 Y-0.41900
X1.24100 Y-0.41900
X1.24100 Y-0.41800
X1.24000 Y-0.41800
X1.24000 Y-0.41700
X1.23800 Y-0.41700
X1.23800 Y-0.41600
X1.23600 Y-0.41600
X1.23600 Y-0.41500
X1.23500 Y-0.41500
X1.23500 Y-0.41400
X1.23300 Y-0.41400
X1.23300 Y-0.41300
X1.23200 Y-0.41300
X1.23200 Y-0.41100
X1.23100 Y-0.41100
X1.23100 Y-0.41000
X1.23000 Y-0.41000
X1.23000 Y-0.40900
X1.22900 Y-0.40900
X1.22900 Y-0.40700
X1.22800 Y-0.40700
X1.22800 Y-0.40600
X1.22700 Y-0.40600
X1.22700 Y-0.40300
X1.22600 Y-0.40300
X1.22600 Y-0.39800
X1.22500 Y-0.39800
X1.22500 Y-0.37700
X1.22600 Y-0.37700
X1.22600 Y-0.37200
X1.22700 Y-0.37200
X1.22700 Y-0.36900
X1.22800 Y-0.36900
X1.22800 Y-0.36800
X1.22900 Y-0.36800
X1.22900 Y-0.36600
X1.23000 Y-0.36600
X1.23000 Y-0.36500
X1.23100 Y-0.36500
X1.23100 Y-0.36400
X1.23200 Y-0.36400
X1.23200 Y-0.36200
X1.23300 Y-0.36200
X1.23300 Y-0.36100
X1.23500 Y-0.36100
X1.23500 Y-0.36000
X1.23600 Y-0.36000
X1.23600 Y-0.35900
X1.23800 Y-0.35900
X1.23800 Y-0.35800
X1.24000 Y-0.35800
X1.24000 Y-0.35700
X1.24100 Y-0.35700
X1.24100 Y-0.35600
X1.24600 Y-0.35600
X1.24600 Y-0.35500
X1.26900 Y-0.35500
X1.26900 Y-0.35600
X1.27400 Y-0.35600
X1.27400 Y-0.35700
X1.27500 Y-0.35700
X1.27500 Y-0.35800
X1.27700 Y-0.35800
X1.27700 Y-0.35900
X1.27900 Y-0.35900
X1.27900 Y-0.36000
X1.28000 Y-0.36000
X1.28000 Y-0.36100
G04 P0 ( dwell for no time -- G64 should not smooth over this point )
G00 Z0.10000 ( retract )

G00 X1.38000 Y-0.36100 ( rapid move to begin. )
G01 Z-0.00500 F3.50000 ( plunge. )
G04 P0 ( dwell for no time -- G64 should not smooth over this point )
X1.38000 Y-0.36100
X1.38200 Y-0.36100
X1.38200 Y-0.36200
X1.38300 Y-0.36200
X1.38300 Y-0.36400
X1.38400 Y-0.36400
X1.38400 Y-0.36500
X1.38500 Y-0.36500
X1.38500 Y-0.36600
X1.38600 Y-0.36600
X1.38600 Y-0.36800
X1.38700 Y-0.36800
X1.38700 Y-0.36900
X1.38800 Y-0.36900
X1.38800 Y-0.37200
X1.38900 Y-0.37200
X1.38900 Y-0.37700
X1.39000 Y-0.37700
X1.39000 Y-0.39800
X1.38900 Y-0.39800
X1.38900 Y-0.40300
X1.38800 Y-0.40300
X1.38800 Y-0.40600
X1.38700 Y-0.40600
X1.38700 Y-0.40700
X1.38600 Y-0.40700
X1.38600 Y-0.40900
X1.38500 Y-0.40900
X1.38500 Y-0.41000
X1.38400 Y-0.41000
X1.38400 Y-0.41100
X1.38300 Y-0.41100
X1.38300 Y-0.41300
X1.38200 Y-0.41300
X1.38200 Y-0.41400
X1.38000 Y-0.41400
X1.38000 Y-0.41500
X1.37900 Y-0.41500
X1.37900 Y-0.41600
X1.37700 Y-0.41600
X1.37700 Y-0.41700
X1.37500 Y-0.41700
X1.37500 Y-0.41800
X1.37400 Y-0.41800
X1.37400 Y-0.41900
X1.36900 Y-0.41900
X1.36900 Y-0.42000
X1.34600 Y-0.42000
X1.34600 Y-0.41900
X1.34100 Y-0.41900
X1.34100 Y-0.41800
X1.34000 Y-0.41800
X1.34000 Y-0.41700
X1.33800 Y-0.41700
X1.33800 Y-0.41600
X1.33600 Y-0.41600
X1.33600 Y-0.41500
X1.33500 Y-0.41500
X1.33500 Y-0.41400
X1.33300 Y-0.41400
X1.33300 Y-0.41300
X1.33200 Y-0.41300
X1.33200 Y-0.41100
X1.33100 Y-0.41100
X1.33100 Y-0.41000
X1.33000 Y-0.41000
X1.33000 Y-0.40900
X1.32900 Y-0.40900
X1.32900 Y-0.40700
X1.32800 Y-0.40700
X1.32800 Y-0.40600
X1.32700 Y-0.40600
X1.32700 Y-0.40300
X1.32600 Y-0.40300
X1.32600 Y-0.39800
X1.32500 Y-0.39800
X1.32500 Y-0.37700
X1.32600 Y-0.37700
X1.32600 Y-0.37200
X1.32700 Y-0.37200
X1.32700 Y-0.36900
X1.32800 Y-0.36900
X1.32800 Y-0.36800
X1.32900 Y-0.36800
X1.32900 Y-0.36600
X1.33000 Y-0.36600
X1.33000 Y-0.36500
X1.33100 Y-0.36500
X1.33100 Y-0.36400
X1.33200 Y-0.36400
X1.33200 Y-0.36200
X1.33300 Y-0.36200
X1.33300 Y-0.36100
X1.33500 Y-0.36100
X1.33500 Y-0.36000
X1.33600 Y-0.36000
X1.33600 Y-0.35900
X1.33800 Y-0.35900
X1.33800 Y-0.35800
X1.34000 Y-0.35800
X1.34000 Y-0.35700
X1.34100 Y-0.35700
X1.34100 Y-0.35600
X1.34600 Y-0.35600
X1.34600 Y-0.35500
X1.36900 Y-0.35500
X1.36900 Y-0.35600
X1.37400 Y-0.35600
X1.37400 Y-0.35700
X1.37500 Y-0.35700
X1.37500 Y-0.35800
X1.37700 Y-0.35800
X1.37700 Y-0.35900
X1.37900 Y-0.35900
X1.37900 Y-0.36000
X1.38000 Y-0.36000
X1.38000 Y-0.36100
G04 P0 ( dwell for no time -- G64 should not smooth over this point )
G00 Z0.10000 ( retract )

G00 X0.45400 Y-0.44300 ( rapid move to begin. )
G01 Z-0.00500 F3.50000 ( plunge. )
G04 P0 ( dwell for no time -- G64 should not smooth over this point )
X0.45400 Y-0.44300
X0.45600 Y-0.44300
X0.45600 Y-0.44400
X0.45700 Y-0.44400
X0.45700 Y-0.44600
X0.45800 Y-0.44600
X0.45800 Y-0.44700
X0.45900 Y-0.44700
X0.45900 Y-0.44800
X0.46000 Y-0.44800
X0.46000 Y-0.45000
X0.46100 Y-0.45000
X0.46100 Y-0.45100
X0.46200 Y-0.45100
X0.46200 Y-0.45400
X0.46300 Y-0.45400
X0.46300 Y-0.45900
X0.46400 Y-0.45900
X0.46400 Y-0.48000
X0.46300 Y-0.48000
X0.46300 Y-0.48500
X0.46200 Y-0.48500
X0.46200 Y-0.48800
X0.46100 Y-0.48800
X0.46100 Y-0.48900
X0.46000 Y-0.48900
X0.46000 Y-0.49100
X0.45900 Y-0.49100
X0.45900 Y-0.49200
X0.45800 Y-0.49200
X0.45800 Y-0.49300
X0.45700 Y-0.49300
X0.45700 Y-0.49500
X0.45600 Y-0.49500
X0.45600 Y-0.49600
X0.45400 Y-0.49600
X0.45400 Y-0.49700
X0.45300 Y-0.49700
X0.45300 Y-0.49800
X0.45100 Y-0.49800
X0.45100 Y-0.49900
X0.44900 Y-0.49900
X0.44900 Y-0.50000
X0.44800 Y-0.50000
X0.44800 Y-0.50100
X0.44300 Y-0.50100
X0.44300 Y-0.50200
X0.42000 Y-0.50200
X0.42000 Y-0.50100
X0.41500 Y-0.50100
X0.41500 Y-0.50000
X0.41400 Y-0.50000
X0.41400 Y-0.49900
X0.41200 Y-0.49900
X0.41200 Y-0.49800
X0.41000 Y-0.49800
X0.41000 Y-0.49700
X0.40900 Y-0.49700
X0.40900 Y-0.49600
X0.40700 Y-0.49600
X0.40700 Y-0.49500
X0.40600 Y-0.49500
X0.40600 Y-0.49300
X0.40500 Y-0.49300
X0.40500 Y-0.49200
X0.40400 Y-0.49200
X0.40400 Y-0.49100
X0.40300 Y-0.49100
X0.40300 Y-0.48900
X0.40200 Y-0.48900
X0.40200 Y-0.48800
X0.40100 Y-0.48800
X0.40100 Y-0.48500
X0.40000 Y-0.48500
X0.40000 Y-0.48000
X0.39900 Y-0.48000
X0.39900 Y-0.45900
X0.40000 Y-0.45900
X0.40000 Y-0.45400
X0.40100 Y-0.45400
X0.40100 Y-0.45100
X0.40200 Y-0.45100
X0.40200 Y-0.45000
X0.40300 Y-0.45000
X0.40300 Y-0.44800
X0.40400 Y-0.44800
X0.40400 Y-0.44700
X0.40500 Y-0.44700
X0.40500 Y-0.44600
X0.40600 Y-0.44600
X0.40600 Y-0.44400
X0.40700 Y-0.44400
X0.40700 Y-0.44300
X0.40900 Y-0.44300
X0.40900 Y-0.44200
X0.41000 Y-0.44200
X0.41000 Y-0.44100
X0.41200 Y-0.44100
X0.41200 Y-0.44000
X0.41400 Y-0.44000
X0.41400 Y-0.43900
X0.41500 Y-0.43900
X0.41500 Y-0.43800
X0.42000 Y-0.43800
X0.42000 Y-0.43700
X0.44300 Y-0.43700
X0.44300 Y-0.43800
X0.44800 Y-0.43800
X0.44800 Y-0.43900
X0.44900 Y-0.43900
X0.44900 Y-0.44000
X0.45100 Y-0.44000
X0.45100 Y-0.44100
X0.45300 Y-0.44100
X0.45300 Y-0.44200
X0.45400 Y-0.44200
X0.45400 Y-0.44300
G04 P0 ( dwell for no time -- G64 should not smooth over this point )
G00 Z0.10000 ( retract )

G00 X0.55400 Y-0.44300 ( rapid move to begin. )
G01 Z-0.00500 F3.50000 ( plunge. )
G04 P0 ( dwell for no time -- G64 should not smooth over this point )
X0.55400 Y-0.44300
X0.55600 Y-0.44300
X0.55600 Y-0.44400
X0.55700 Y-0.44400
X0.55700 Y-0.44600
X0.55800 Y-0.44600
X0.55800 Y-0.44700
X0.55900 Y-0.44700
X0.55900 Y-0.44800
X0.56000 Y-0.44800
X0.56000 Y-0.45000
X0.56100 Y-0.45000
X0.56100 Y-0.45100
X0.56200 Y-0.45100
X0.56200 Y-0.45400
X0.56300 Y-0.45400
X0.56300 Y-0.45900
X0.56400 Y-0.45900
X0.56400 Y-0.48000
X0.56300 Y-0.48000
X0.56300 Y-0.48500
X0.56200 Y-0.48500
X0.56200 Y-0.48800
X0.56100 Y-0.48800
X0.56100 Y-0.48900
X0.56000 Y-0.48900
X0.56000 Y-0.49100
X0.55900 Y-0.49100
X0.55900 Y-0.49200
X0.55800 Y-0.49200
X0.55800 Y-0.49300
X0.55700 Y-0.49300
X0.55700 Y-0.49500
X0.55600 Y-0.49500
X0.55600 Y-0.49600
X0.55400 Y-0.49600
X0.55400 Y-0.49700
X0.55300 Y-0.49700
X0.55300 Y-0.49800
X0.55100 Y-0.49800
X0.55100 Y-0.49900
X0.54900 Y-0.49900
X0.54900 Y-0.50000
X0.54800 Y-0.50000
X0.54800 Y-0.50100
X0.54300 Y-0.50100
X0.54300 Y-0.50200
X0.52000 Y-0.50200
X0.52000 Y-0.50100
X0.51500 Y-0.50100
X0.51500 Y-0.50000
X0.51400 Y-0.50000
X0.51400 Y-0.49900
X0.51200 Y-0.49900
X0.51200 Y-0.49800
X0.51000 Y-0.49800
X0.51000 Y-0.49700
X0.50900 Y-0.49700
X0.50900 Y-0.49600
X0.50700 Y-0.49600
X0.50700 Y-0.49500
X0.50600 Y-0.49500
X0.50600 Y-0.49300
X0.50500 Y-0.49300
X0.50500 Y-0.49200
X0.50400 Y-0.49200
X0.50400 Y-0.49100
X0.50300 Y-0.49100
X0.50300 Y-0.48900
X0.50200 Y-0.48900
X0.50200 Y-0.48800
X0.50100 Y-0.48800
X0.50100 Y-0.48500
X0.50000 Y-0.48500
X0.50000 Y-0.48000
X0.49900 Y-0.48000
X0.49900 Y-0.45900
X0.50000 Y-0.45900
X0.50000 Y-0.45400
X0.50100 Y-0.45400
X0.50100 Y-0.45100
X0.50200 Y-0.45100
X0.50200 Y-0.45000
X0.50300 Y-0.45000
X0.50300 Y-0.44800
X0.50400 Y-0.44800
X0.50400 Y-0.44700
X0.50500 Y-0.44700
X0.50500 Y-0.44600
X0.50600 Y-0.44600
X0.50600 Y-0.44400
X0.50700 Y-0.44400
X0.50700 Y-0.44300
X0.50900 Y-0.44300
X0.50900 Y-0.44200
X0.51000 Y-0.44200
X0.51000 Y-0.44100
X0.51200 Y-0.44100
X0.51200 Y-0.44000
X0.51400 Y-0.44000
X0.51400 Y-0.43900
X0.51500 Y-0.43900
X0.51500 Y-0.43800
X0.52000 Y-0.43800
X0.52000 Y-0.43700
X0.54300 Y-0.43700
X0.54300 Y-0.43800
X0.54800 Y-0.43800
X0.54800 Y-0.43900
X0.54900 Y-0.43900
X0.54900 Y-0.44000
X0.55100 Y-0.44000
X0.55100 Y-0.44100
X0.55300 Y-0.44100
X0.55300 Y-0.44200
X0.55400 Y-0.44200
X0.55400 Y-0.44300
G04 P0 ( dwell for no time -- G64 should not smooth over this point )
G00 Z0.10000 ( retract )

G00 X1.39000 Y-0.46100 ( rapid move to begin. )
G01 Z-0.00500 F3.50000 ( plunge. )
G04 P0 ( dwell for no time -- G64 should not smooth over this point )
X1.39000 Y-0.46100
X1.39000 Y-0.52000
X1.32500 Y-0.52000
X1.32500 Y-0.45500
X1.39000 Y-0.45500
X1.39000 Y-0.46100
G04 P0 ( dwell for no time -- G64 should not smooth over this point )
G00 Z0.10000 ( retract )

G00 X0.19400 Y-0.46700 ( rapid move to begin. )
G01 Z-0.00500 F3.50000 ( plunge. )
G04 P0 ( dwell for no time -- G64 should not smooth over this point )
X0.19400 Y-0.46700
X0.19400 Y-0.52600
X0.12900 Y-0.52600
X0.12900 Y-0.46100
X0.19400 Y-0.46100
X0.19400 Y-0.46700
G04 P0 ( dwell for no time -- G64 should not smooth over this point )
G00 Z0.10000 ( retract )

G00 X0.28400 Y-0.46700 ( rapid move to begin. )
G01 Z-0.00500 F3.50000 ( plunge. )
G04 P0 ( dwell for no time -- G64 should not smooth over this point )
X0.28400 Y-0.46700
X0.28600 Y-0.46700
X0.28600 Y-0.46800
X0.28700 Y-0.46800
X0.28700 Y-0.47000
X0.28800 Y-0.47000
X0.28800 Y-0.47100
X0.28900 Y-0.47100
X0.28900 Y-0.47200
X0.29000 Y-0.47200
X0.29000 Y-0.47400
X0.29100 Y-0.47400
X0.29100 Y-0.47500
X0.29200 Y-0.47500
X0.29200 Y-0.47800
X0.29300 Y-0.47800
X0.29300 Y-0.48300
X0.29400 Y-0.48300
X0.29400 Y-0.50400
X0.29300 Y-0.50400
X0.29300 Y-0.50900
X0.29200 Y-0.50900
X0.29200 Y-0.51200
X0.29100 Y-0.51200
X0.29100 Y-0.51300
X0.29000 Y-0.51300
X0.29000 Y-0.51500
X0.28900 Y-0.51500
X0.28900 Y-0.51600
X0.28800 Y-0.51600
X0.28800 Y-0.51700
X0.28700 Y-0.51700
X0.28700 Y-0.51900
X0.28600 Y-0.51900
X0.28600 Y-0.52000
X0.28400 Y-0.52000
X0.28400 Y-0.52100
X0.28300 Y-0.52100
X0.28300 Y-0.52200
X0.28100 Y-0.52200
X0.28100 Y-0.52300
X0.27900 Y-0.52300
X0.27900 Y-0.52400
X0.27800 Y-0.52400
X0.27800 Y-0.52500
X0.27300 Y-0.52500
X0.27300 Y-0.52600
X0.25000 Y-0.52600
X0.25000 Y-0.52500
X0.24500 Y-0.52500
X0.24500 Y-0.52400
X0.24400 Y-0.52400
X0.24400 Y-0.52300
X0.24200 Y-0.52300
X0.24200 Y-0.52200
X0.24000 Y-0.52200
X0.24000 Y-0.52100
X0.23900 Y-0.52100
X0.23900 Y-0.52000
X0.23700 Y-0.52000
X0.23700 Y-0.51900
X0.23600 Y-0.51900
X0.23600 Y-0.51700
X0.23500 Y-0.51700
X0.23500 Y-0.51600
X0.23400 Y-0.51600
X0.23400 Y-0.51500
X0.23300 Y-0.51500
X0.23300 Y-0.51300
X0.23200 Y-0.51300
X0.23200 Y-0.51200
X0.23100 Y-0.51200
X0.23100 Y-0.50900
X0.23000 Y-0.50900
X0.23000 Y-0.50400
X0.22900 Y-0.50400
X0.22900 Y-0.48300
X0.23000 Y-0.48300
X0.23000 Y-0.47800
X0.23100 Y-0.47800
X0.23100 Y-0.47500
X0.23200 Y-0.47500
X0.23200 Y-0.47400
X0.23300 Y-0.47400
X0.23300 Y-0.47200
X0.23400 Y-0.47200
X0.23400 Y-0.47100
X0.23500 Y-0.47100
X0.23500 Y-0.47000
X0.23600 Y-0.47000
X0.23600 Y-0.46800
X0.23700 Y-0.46800
X0.23700 Y-0.46700
X0.23900 Y-0.46700
X0.23900 Y-0.46600
X0.24000 Y-0.46600
X0.24000 Y-0.46500
X0.24200 Y-0.46500
X0.24200 Y-0.46400
X0.24400 Y-0.46400
X0.24400 Y-0.46300
X0.24500 Y-0.46300
X0.24500 Y-0.46200
X0.25000 Y-0.46200
X0.25000 Y-0.46100
X0.27300 Y-0.46100
X0.27300 Y-0.46200
X0.27800 Y-0.46200
X0.27800 Y-0.46300
X0.27900 Y-0.46300
X0.27900 Y-0.46400
X0.28100 Y-0.46400
X0.28100 Y-0.46500
X0.28300 Y-0.46500
X0.28300 Y-0.46600
X0.28400 Y-0.46600
X0.28400 Y-0.46700
G04 P0 ( dwell for no time -- G64 should not smooth over this point )
G00 Z0.10000 ( retract )

G00 X1.63400 Y-0.49700 ( rapid move to begin. )
G01 Z-0.00500 F3.50000 ( plunge. )
G04 P0 ( dwell for no time -- G64 should not smooth over this point )
X1.63400 Y-0.49700
X1.63600 Y-0.49700
X1.63600 Y-0.49800
X1.63700 Y-0.49800
X1.63700 Y-0.50000
X1.63800 Y-0.50000
X1.63800 Y-0.50100
X1.63900 Y-0.50100
X1.63900 Y-0.50200
X1.64000 Y-0.50200
X1.64000 Y-0.50400
X1.64100 Y-0.50400
X1.64100 Y-0.50500
X1.64200 Y-0.50500
X1.64200 Y-0.50800
X1.64300 Y-0.50800
X1.64300 Y-0.51300
X1.64400 Y-0.51300
X1.64400 Y-0.53400
X1.64300 Y-0.53400
X1.64300 Y-0.53900
X1.64200 Y-0.53900
X1.64200 Y-0.54200
X1.64100 Y-0.54200
X1.64100 Y-0.54300
X1.64000 Y-0.54300
X1.64000 Y-0.54500
X1.63900 Y-0.54500
X1.63900 Y-0.54600
X1.63800 Y-0.54600
X1.63800 Y-0.54700
X1.63700 Y-0.54700
X1.63700 Y-0.54900
X1.63600 Y-0.54900
X1.63600 Y-0.55000
X1.63400 Y-0.55000
X1.63400 Y-0.55100
X1.63300 Y-0.55100
X1.63300 Y-0.55200
X1.63100 Y-0.55200
X1.63100 Y-0.55300
X1.62900 Y-0.55300
X1.62900 Y-0.55400
X1.62800 Y-0.55400
X1.62800 Y-0.55500
X1.62300 Y-0.55500
X1.62300 Y-0.55600
X1.60000 Y-0.55600
X1.60000 Y-0.55500
X1.59500 Y-0.55500
X1.59500 Y-0.55400
X1.59400 Y-0.55400
X1.59400 Y-0.55300
X1.59200 Y-0.55300
X1.59200 Y-0.55200
X1.59000 Y-0.55200
X1.59000 Y-0.55100
X1.58900 Y-0.55100
X1.58900 Y-0.55000
X1.58700 Y-0.55000
X1.58700 Y-0.54900
X1.58600 Y-0.54900
X1.58600 Y-0.54700
X1.58500 Y-0.54700
X1.58500 Y-0.54600
X1.58400 Y-0.54600
X1.58400 Y-0.54500
X1.58300 Y-0.54500
X1.58300 Y-0.54300
X1.58200 Y-0.54300
X1.58200 Y-0.54200
X1.58100 Y-0.54200
X1.58100 Y-0.53900
X1.58000 Y-0.53900
X1.58000 Y-0.53400
X1.57900 Y-0.53400
X1.57900 Y-0.51300
X1.58000 Y-0.51300
X1.58000 Y-0.50800
X1.58100 Y-0.50800
X1.58100 Y-0.50500
X1.58200 Y-0.50500
X1.58200 Y-0.50400
X1.58300 Y-0.50400
X1.58300 Y-0.50200
X1.58400 Y-0.50200
X1.58400 Y-0.50100
X1.58500 Y-0.50100
X1.58500 Y-0.50000
X1.58600 Y-0.50000
X1.58600 Y-0.49800
X1.58700 Y-0.49800
X1.58700 Y-0.49700
X1.58900 Y-0.49700
X1.58900 Y-0.49600
X1.59000 Y-0.49600
X1.59000 Y-0.49500
X1.59200 Y-0.49500
X1.59200 Y-0.49400
X1.59400 Y-0.49400
X1.59400 Y-0.49300
X1.59500 Y-0.49300
X1.59500 Y-0.49200
X1.60000 Y-0.49200
X1.60000 Y-0.49100
X1.62300 Y-0.49100
X1.62300 Y-0.49200
X1.62800 Y-0.49200
X1.62800 Y-0.49300
X1.62900 Y-0.49300
X1.62900 Y-0.49400
X1.63100 Y-0.49400
X1.63100 Y-0.49500
X1.63300 Y-0.49500
X1.63300 Y-0.49600
X1.63400 Y-0.49600
X1.63400 Y-0.49700
G04 P0 ( dwell for no time -- G64 should not smooth over this point )
G00 Z0.10000 ( retract )

G00 X0.75800 Y-0.61500 ( rapid move to begin. )
G01 Z-0.00500 F3.50000 ( plunge. )
G04 P0 ( dwell for no time -- G64 should not smooth over this point )
X0.75800 Y-0.61500
X0.75800 Y-0.71000
X0.68500 Y-0.71000
X0.68500 Y-0.60900
X0.75800 Y-0.60900
X0.75800 Y-0.61500
G04 P0 ( dwell for no time -- G64 should not smooth over this point )
G00 Z0.10000 ( retract )

G00 X0.84400 Y-0.61500 ( rapid move to begin. )
G01 Z-0.00500 F3.50000 ( plunge. )
G04 P0 ( dwell for no time -- G64 should not smooth over this point )
X0.84400 Y-0.61500
X0.84600 Y-0.61500
X0.84600 Y-0.61600
X0.84800 Y-0.61600
X0.84800 Y-0.61700
X0.84900 Y-0.61700
X0.84900 Y-0.61800
X0.85000 Y-0.61800
X0.85000 Y-0.62000
X0.85100 Y-0.62000
X0.85100 Y-0.62100
X0.85200 Y-0.62100
X0.85200 Y-0.62300
X0.85300 Y-0.62300
X0.85300 Y-0.62400
X0.85400 Y-0.62400
X0.85400 Y-0.62500
X0.85500 Y-0.62500
X0.85500 Y-0.62700
X0.85600 Y-0.62700
X0.85600 Y-0.63200
X0.85700 Y-0.63200
X0.85700 Y-0.63700
X0.85800 Y-0.63700
X0.85800 Y-0.68200
X0.85700 Y-0.68200
X0.85700 Y-0.68700
X0.85600 Y-0.68700
X0.85600 Y-0.69200
X0.85500 Y-0.69200
X0.85500 Y-0.69400
X0.85400 Y-0.69400
X0.85400 Y-0.69500
X0.85300 Y-0.69500
X0.85300 Y-0.69600
X0.85200 Y-0.69600
X0.85200 Y-0.69800
X0.85100 Y-0.69800
X0.85100 Y-0.69900
X0.85000 Y-0.69900
X0.85000 Y-0.70100
X0.84900 Y-0.70100
X0.84900 Y-0.70200
X0.84800 Y-0.70200
X0.84800 Y-0.70300
X0.84600 Y-0.70300
X0.84600 Y-0.70400
X0.84400 Y-0.70400
X0.84400 Y-0.70500
X0.84300 Y-0.70500
X0.84300 Y-0.70600
X0.84100 Y-0.70600
X0.84100 Y-0.70700
X0.83900 Y-0.70700
X0.83900 Y-0.70800
X0.83600 Y-0.70800
X0.83600 Y-0.70900
X0.83000 Y-0.70900
X0.83000 Y-0.71000
X0.81300 Y-0.71000
X0.81300 Y-0.70900
X0.80700 Y-0.70900
X0.80700 Y-0.70800
X0.80400 Y-0.70800
X0.80400 Y-0.70700
X0.80200 Y-0.70700
X0.80200 Y-0.70600
X0.80000 Y-0.70600
X0.80000 Y-0.70500
X0.79900 Y-0.70500
X0.79900 Y-0.70400
X0.79700 Y-0.70400
X0.79700 Y-0.70300
X0.79500 Y-0.70300
X0.79500 Y-0.70200
X0.79400 Y-0.70200
X0.79400 Y-0.70100
X0.79300 Y-0.70100
X0.79300 Y-0.69900
X0.79200 Y-0.69900
X0.79200 Y-0.69800
X0.79100 Y-0.69800
X0.79100 Y-0.69600
X0.79000 Y-0.69600
X0.79000 Y-0.69500
X0.78900 Y-0.69500
X0.78900 Y-0.69400
X0.78800 Y-0.69400
X0.78800 Y-0.69200
X0.78700 Y-0.69200
X0.78700 Y-0.68700
X0.78600 Y-0.68700
X0.78600 Y-0.68200
X0.78500 Y-0.68200
X0.78500 Y-0.63700
X0.78600 Y-0.63700
X0.78600 Y-0.63200
X0.78700 Y-0.63200
X0.78700 Y-0.62700
X0.78800 Y-0.62700
X0.78800 Y-0.62500
X0.78900 Y-0.62500
X0.78900 Y-0.62400
X0.79000 Y-0.62400
X0.79000 Y-0.62300
X0.79100 Y-0.62300
X0.79100 Y-0.62100
X0.79200 Y-0.62100
X0.79200 Y-0.62000
X0.79300 Y-0.62000
X0.79300 Y-0.61800
X0.79400 Y-0.61800
X0.79400 Y-0.61700
X0.79500 Y-0.61700
X0.79500 Y-0.61600
X0.79700 Y-0.61600
X0.79700 Y-0.61500
X0.79900 Y-0.61500
X0.79900 Y-0.61400
X0.80000 Y-0.61400
X0.80000 Y-0.61300
X0.80200 Y-0.61300
X0.80200 Y-0.61200
X0.80400 Y-0.61200
X0.80400 Y-0.61100
X0.80700 Y-0.61100
X0.80700 Y-0.61000
X0.81300 Y-0.61000
X0.81300 Y-0.60900
X0.83000 Y-0.60900
X0.83000 Y-0.61000
X0.83600 Y-0.61000
X0.83600 Y-0.61100
X0.83900 Y-0.61100
X0.83900 Y-0.61200
X0.84100 Y-0.61200
X0.84100 Y-0.61300
X0.84300 Y-0.61300
X0.84300 Y-0.61400
X0.84400 Y-0.61400
X0.84400 Y-0.61500
G04 P0 ( dwell for no time -- G64 should not smooth over this point )
G00 Z0.10000 ( retract )

G00 X0.94400 Y-0.61500 ( rapid move to begin. )
G01 Z-0.00500 F3.50000 ( plunge. )
G04 P0 ( dwell for no time -- G64 should not smooth over this point )
X0.94400 Y-0.61500
X0.94600 Y-0.61500
X0.94600 Y-0.61600
X0.94800 Y-0.61600
X0.94800 Y-0.61700
X0.94900 Y-0.61700
X0.94900 Y-0.61800
X0.95000 Y-0.61800
X0.95000 Y-0.62000
X0.95100 Y-0.62000
X0.95100 Y-0.62100
X0.95200 Y-0.62100
X0.95200 Y-0.62300
X0.95300 Y-0.62300
X0.95300 Y-0.62400
X0.95400 Y-0.62400
X0.95400 Y-0.62500
X0.95500 Y-0.62500
X0.95500 Y-0.62700
X0.95600 Y-0.62700
X0.95600 Y-0.63200
X0.95700 Y-0.63200
X0.95700 Y-0.63700
X0.95800 Y-0.63700
X0.95800 Y-0.68200
X0.95700 Y-0.68200
X0.95700 Y-0.68700
X0.95600 Y-0.68700
X0.95600 Y-0.69200
X0.95500 Y-0.69200
X0.95500 Y-0.69400
X0.95400 Y-0.69400
X0.95400 Y-0.69500
X0.95300 Y-0.69500
X0.95300 Y-0.69600
X0.95200 Y-0.69600
X0.95200 Y-0.69800
X0.95100 Y-0.69800
X0.95100 Y-0.69900
X0.95000 Y-0.69900
X0.95000 Y-0.70100
X0.94900 Y-0.70100
X0.94900 Y-0.70200
X0.94800 Y-0.70200
X0.94800 Y-0.70300
X0.94600 Y-0.70300
X0.94600 Y-0.70400
X0.94400 Y-0.70400
X0.94400 Y-0.70500
X0.94300 Y-0.70500
X0.94300 Y-0.70600
X0.94100 Y-0.70600
X0.94100 Y-0.70700
X0.93900 Y-0.70700
X0.93900 Y-0.70800
X0.93600 Y-0.70800
X0.93600 Y-0.70900
X0.93000 Y-0.70900
X0.93000 Y-0.71000
X0.91300 Y-0.71000
X0.91300 Y-0.70900
X0.90700 Y-0.70900
X0.90700 Y-0.70800
X0.90400 Y-0.70800
X0.90400 Y-0.70700
X0.90200 Y-0.70700
X0.90200 Y-0.70600
X0.90000 Y-0.70600
X0.90000 Y-0.70500
X0.89900 Y-0.70500
X0.89900 Y-0.70400
X0.89700 Y-0.70400
X0.89700 Y-0.70300
X0.89500 Y-0.70300
X0.89500 Y-0.70200
X0.89400 Y-0.70200
X0.89400 Y-0.70100
X0.89300 Y-0.70100
X0.89300 Y-0.69900
X0.89200 Y-0.69900
X0.89200 Y-0.69800
X0.89100 Y-0.69800
X0.89100 Y-0.69600
X0.89000 Y-0.69600
X0.89000 Y-0.69500
X0.88900 Y-0.69500
X0.88900 Y-0.69400
X0.88800 Y-0.69400
X0.88800 Y-0.69200
X0.88700 Y-0.69200
X0.88700 Y-0.68700
X0.88600 Y-0.68700
X0.88600 Y-0.68200
X0.88500 Y-0.68200
X0.88500 Y-0.63700
X0.88600 Y-0.63700
X0.88600 Y-0.63200
X0.88700 Y-0.63200
X0.88700 Y-0.62700
X0.88800 Y-0.62700
X0.88800 Y-0.62500
X0.88900 Y-0.62500
X0.88900 Y-0.62400
X0.89000 Y-0.62400
X0.89000 Y-0.62300
X0.89100 Y-0.62300
X0.89100 Y-0.62100
X0.89200 Y-0.62100
X0.89200 Y-0.62000
X0.89300 Y-0.62000
X0.89300 Y-0.61800
X0.89400 Y-0.61800
X0.89400 Y-0.61700
X0.89500 Y-0.61700
X0.89500 Y-0.61600
X0.89700 Y-0.61600
X0.89700 Y-0.61500
X0.89900 Y-0.61500
X0.89900 Y-0.61400
X0.90000 Y-0.61400
X0.90000 Y-0.61300
X0.90200 Y-0.61300
X0.90200 Y-0.61200
X0.90400 Y-0.61200
X0.90400 Y-0.61100
X0.90700 Y-0.61100
X0.90700 Y-0.61000
X0.91300 Y-0.61000
X0.91300 Y-0.60900
X0.93000 Y-0.60900
X0.93000 Y-0.61000
X0.93600 Y-0.61000
X0.93600 Y-0.61100
X0.93900 Y-0.61100
X0.93900 Y-0.61200
X0.94100 Y-0.61200
X0.94100 Y-0.61300
X0.94300 Y-0.61300
X0.94300 Y-0.61400
X0.94400 Y-0.61400
X0.94400 Y-0.61500
G04 P0 ( dwell for no time -- G64 should not smooth over this point )
G00 Z0.10000 ( retract )

G00 X1.04400 Y-0.61500 ( rapid move to begin. )
G01 Z-0.00500 F3.50000 ( plunge. )
G04 P0 ( dwell for no time -- G64 should not smooth over this point )
X1.04400 Y-0.61500
X1.04600 Y-0.61500
X1.04600 Y-0.61600
X1.04800 Y-0.61600
X1.04800 Y-0.61700
X1.04900 Y-0.61700
X1.04900 Y-0.61800
X1.05000 Y-0.61800
X1.05000 Y-0.62000
X1.05100 Y-0.62000
X1.05100 Y-0.62100
X1.05200 Y-0.62100
X1.05200 Y-0.62300
X1.05300 Y-0.62300
X1.05300 Y-0.62400
X1.05400 Y-0.62400
X1.05400 Y-0.62500
X1.05500 Y-0.62500
X1.05500 Y-0.62700
X1.05600 Y-0.62700
X1.05600 Y-0.63200
X1.05700 Y-0.63200
X1.05700 Y-0.63700
X1.05800 Y-0.63700
X1.05800 Y-0.68200
X1.05700 Y-0.68200
X1.05700 Y-0.68700
X1.05600 Y-0.68700
X1.05600 Y-0.69200
X1.05500 Y-0.69200
X1.05500 Y-0.69400
X1.05400 Y-0.69400
X1.05400 Y-0.69500
X1.05300 Y-0.69500
X1.05300 Y-0.69600
X1.05200 Y-0.69600
X1.05200 Y-0.69800
X1.05100 Y-0.69800
X1.05100 Y-0.69900
X1.05000 Y-0.69900
X1.05000 Y-0.70100
X1.04900 Y-0.70100
X1.04900 Y-0.70200
X1.04800 Y-0.70200
X1.04800 Y-0.70300
X1.04600 Y-0.70300
X1.04600 Y-0.70400
X1.04400 Y-0.70400
X1.04400 Y-0.70500
X1.04300 Y-0.70500
X1.04300 Y-0.70600
X1.04100 Y-0.70600
X1.04100 Y-0.70700
X1.03900 Y-0.70700
X1.03900 Y-0.70800
X1.03600 Y-0.70800
X1.03600 Y-0.70900
X1.03000 Y-0.70900
X1.03000 Y-0.71000
X1.01300 Y-0.71000
X1.01300 Y-0.70900
X1.00700 Y-0.70900
X1.00700 Y-0.70800
X1.00400 Y-0.70800
X1.00400 Y-0.70700
X1.00200 Y-0.70700
X1.00200 Y-0.70600
X1.00000 Y-0.70600
X1.00000 Y-0.70500
X0.99900 Y-0.70500
X0.99900 Y-0.70400
X0.99700 Y-0.70400
X0.99700 Y-0.70300
X0.99500 Y-0.70300
X0.99500 Y-0.70200
X0.99400 Y-0.70200
X0.99400 Y-0.70100
X0.99300 Y-0.70100
X0.99300 Y-0.69900
X0.99200 Y-0.69900
X0.99200 Y-0.69800
X0.99100 Y-0.69800
X0.99100 Y-0.69600
X0.99000 Y-0.69600
X0.99000 Y-0.69500
X0.98900 Y-0.69500
X0.98900 Y-0.69400
X0.98800 Y-0.69400
X0.98800 Y-0.69200
X0.98700 Y-0.69200
X0.98700 Y-0.68700
X0.98600 Y-0.68700
X0.98600 Y-0.68200
X0.98500 Y-0.68200
X0.98500 Y-0.63700
X0.98600 Y-0.63700
X0.98600 Y-0.63200
X0.98700 Y-0.63200
X0.98700 Y-0.62700
X0.98800 Y-0.62700
X0.98800 Y-0.62500
X0.98900 Y-0.62500
X0.98900 Y-0.62400
X0.99000 Y-0.62400
X0.99000 Y-0.62300
X0.99100 Y-0.62300
X0.99100 Y-0.62100
X0.99200 Y-0.62100
X0.99200 Y-0.62000
X0.99300 Y-0.62000
X0.99300 Y-0.61800
X0.99400 Y-0.61800
X0.99400 Y-0.61700
X0.99500 Y-0.61700
X0.99500 Y-0.61600
X0.99700 Y-0.61600
X0.99700 Y-0.61500
X0.99900 Y-0.61500
X0.99900 Y-0.61400
X1.00000 Y-0.61400
X1.00000 Y-0.61300
X1.00200 Y-0.61300
X1.00200 Y-0.61200
X1.00400 Y-0.61200
X1.00400 Y-0.61100
X1.00700 Y-0.61100
X1.00700 Y-0.61000
X1.01300 Y-0.61000
X1.01300 Y-0.60900
X1.03000 Y-0.60900
X1.03000 Y-0.61000
X1.03600 Y-0.61000
X1.03600 Y-0.61100
X1.03900 Y-0.61100
X1.03900 Y-0.61200
X1.04100 Y-0.61200
X1.04100 Y-0.61300
X1.04300 Y-0.61300
X1.04300 Y-0.61400
X1.04400 Y-0.61400
X1.04400 Y-0.61500
G04 P0 ( dwell for no time -- G64 should not smooth over this point )
G00 Z0.10000 ( retract )

G00 X0.38800 Y-0.62100 ( rapid move to begin. )
G01 Z-0.00500 F3.50000 ( plunge. )
G04 P0 ( dwell for no time -- G64 should not smooth over this point )
X0.38800 Y-0.62100
X0.39000 Y-0.62100
X0.39000 Y-0.62200
X0.39100 Y-0.62200
X0.39100 Y-0.62400
X0.39200 Y-0.62400
X0.39200 Y-0.62500
X0.39300 Y-0.62500
X0.39300 Y-0.62600
X0.39400 Y-0.62600
X0.39400 Y-0.62800
X0.39500 Y-0.62800
X0.39500 Y-0.62900
X0.39600 Y-0.62900
X0.39600 Y-0.63200
X0.39700 Y-0.63200
X0.39700 Y-0.63700
X0.39800 Y-0.63700
X0.39800 Y-0.65800
X0.39700 Y-0.65800
X0.39700 Y-0.66300
X0.39600 Y-0.66300
X0.39600 Y-0.66600
X0.39500 Y-0.66600
X0.39500 Y-0.66700
X0.39400 Y-0.66700
X0.39400 Y-0.66900
X0.39300 Y-0.66900
X0.39300 Y-0.67000
X0.39200 Y-0.67000
X0.39200 Y-0.67100
X0.39100 Y-0.67100
X0.39100 Y-0.67300
X0.39000 Y-0.67300
X0.39000 Y-0.67400
X0.38800 Y-0.67400
X0.38800 Y-0.67500
X0.38700 Y-0.67500
X0.38700 Y-0.67600
X0.38500 Y-0.67600
X0.38500 Y-0.67700
X0.38300 Y-0.67700
X0.38300 Y-0.67800
X0.38200 Y-0.67800
X0.38200 Y-0.67900
X0.37700 Y-0.67900
X0.37700 Y-0.68000
X0.35400 Y-0.68000
X0.35400 Y-0.67900
X0.34900 Y-0.67900
X0.34900 Y-0.67800
X0.34800 Y-0.67800
X0.34800 Y-0.67700
X0.34600 Y-0.67700
X0.34600 Y-0.67600
X0.34400 Y-0.67600
X0.34400 Y-0.67500
X0.34300 Y-0.67500
X0.34300 Y-0.67400
X0.34100 Y-0.67400
X0.34100 Y-0.67300
X0.34000 Y-0.67300
X0.34000 Y-0.67100
X0.33900 Y-0.67100
X0.33900 Y-0.67000
X0.33800 Y-0.67000
X0.33800 Y-0.66900
X0.33700 Y-0.66900
X0.33700 Y-0.66700
X0.33600 Y-0.66700
X0.33600 Y-0.66600
X0.33500 Y-0.66600
X0.33500 Y-0.66300
X0.33400 Y-0.66300
X0.33400 Y-0.65800
X0.33300 Y-0.65800
X0.33300 Y-0.63700
X0.33400 Y-0.63700
X0.33400 Y-0.63200
X0.33500 Y-0.63200
X0.33500 Y-0.62900
X0.33600 Y-0.62900
X0.33600 Y-0.62800
X0.33700 Y-0.62800
X0.33700 Y-0.62600
X0.33800 Y-0.62600
X0.33800 Y-0.62500
X0.33900 Y-0.62500
X0.33900 Y-0.62400
X0.34000 Y-0.62400
X0.34000 Y-0.62200
X0.34100 Y-0.62200
X0.34100 Y-0.62100
X0.34300 Y-0.62100
X0.34300 Y-0.62000
X0.34400 Y-0.62000
X0.34400 Y-0.61900
X0.34600 Y-0.61900
X0.34600 Y-0.61800
X0.34800 Y-0.61800
X0.34800 Y-0.61700
X0.34900 Y-0.61700
X0.34900 Y-0.61600
X0.35400 Y-0.61600
X0.35400 Y-0.61500
X0.37700 Y-0.61500
X0.37700 Y-0.61600
X0.38200 Y-0.61600
X0.38200 Y-0.61700
X0.38300 Y-0.61700
X0.38300 Y-0.61800
X0.38500 Y-0.61800
X0.38500 Y-0.61900
X0.38700 Y-0.61900
X0.38700 Y-0.62000
X0.38800 Y-0.62000
X0.38800 Y-0.62100
G04 P0 ( dwell for no time -- G64 should not smooth over this point )
G00 Z0.10000 ( retract )

G00 X0.23400 Y-0.62500 ( rapid move to begin. )
G01 Z-0.00500 F3.50000 ( plunge. )
G04 P0 ( dwell for no time -- G64 should not smooth over this point )
X0.23400 Y-0.62500
X0.23600 Y-0.62500
X0.23600 Y-0.62600
X0.23700 Y-0.62600
X0.23700 Y-0.62800
X0.23800 Y-0.62800
X0.23800 Y-0.62900
X0.23900 Y-0.62900
X0.23900 Y-0.63000
X0.24000 Y-0.63000
X0.24000 Y-0.63200
X0.24100 Y-0.63200
X0.24100 Y-0.63300
X0.24200 Y-0.63300
X0.24200 Y-0.63600
X0.24300 Y-0.63600
X0.24300 Y-0.64100
X0.24400 Y-0.64100
X0.24400 Y-0.66200
X0.24300 Y-0.66200
X0.24300 Y-0.66700
X0.24200 Y-0.66700
X0.24200 Y-0.67000
X0.24100 Y-0.67000
X0.24100 Y-0.67100
X0.24000 Y-0.67100
X0.24000 Y-0.67300
X0.23900 Y-0.67300
X0.23900 Y-0.67400
X0.23800 Y-0.67400
X0.23800 Y-0.67500
X0.23700 Y-0.67500
X0.23700 Y-0.67700
X0.23600 Y-0.67700
X0.23600 Y-0.67800
X0.23400 Y-0.67800
X0.23400 Y-0.67900
X0.23300 Y-0.67900
X0.23300 Y-0.68000
X0.23100 Y-0.68000
X0.23100 Y-0.68100
X0.22900 Y-0.68100
X0.22900 Y-0.68200
X0.22800 Y-0.68200
X0.22800 Y-0.68300
X0.22300 Y-0.68300
X0.22300 Y-0.68400
X0.20000 Y-0.68400
X0.20000 Y-0.68300
X0.19500 Y-0.68300
X0.19500 Y-0.68200
X0.19400 Y-0.68200
X0.19400 Y-0.68100
X0.19200 Y-0.68100
X0.19200 Y-0.68000
X0.19000 Y-0.68000
X0.19000 Y-0.67900
X0.18900 Y-0.67900
X0.18900 Y-0.67800
X0.18700 Y-0.67800
X0.18700 Y-0.67700
X0.18600 Y-0.67700
X0.18600 Y-0.67500
X0.18500 Y-0.67500
X0.18500 Y-0.67400
X0.18400 Y-0.67400
X0.18400 Y-0.67300
X0.18300 Y-0.67300
X0.18300 Y-0.67100
X0.18200 Y-0.67100
X0.18200 Y-0.67000
X0.18100 Y-0.67000
X0.18100 Y-0.66700
X0.18000 Y-0.66700
X0.18000 Y-0.66200
X0.17900 Y-0.66200
X0.17900 Y-0.64100
X0.18000 Y-0.64100
X0.18000 Y-0.63600
X0.18100 Y-0.63600
X0.18100 Y-0.63300
X0.18200 Y-0.63300
X0.18200 Y-0.63200
X0.18300 Y-0.63200
X0.18300 Y-0.63000
X0.18400 Y-0.63000
X0.18400 Y-0.62900
X0.18500 Y-0.62900
X0.18500 Y-0.62800
X0.18600 Y-0.62800
X0.18600 Y-0.62600
X0.18700 Y-0.62600
X0.18700 Y-0.62500
X0.18900 Y-0.62500
X0.18900 Y-0.62400
X0.19000 Y-0.62400
X0.19000 Y-0.62300
X0.19200 Y-0.62300
X0.19200 Y-0.62200
X0.19400 Y-0.62200
X0.19400 Y-0.62100
X0.19500 Y-0.62100
X0.19500 Y-0.62000
X0.20000 Y-0.62000
X0.20000 Y-0.61900
X0.22300 Y-0.61900
X0.22300 Y-0.62000
X0.22800 Y-0.62000
X0.22800 Y-0.62100
X0.22900 Y-0.62100
X0.22900 Y-0.62200
X0.23100 Y-0.62200
X0.23100 Y-0.62300
X0.23300 Y-0.62300
X0.23300 Y-0.62400
X0.23400 Y-0.62400
X0.23400 Y-0.62500
G04 P0 ( dwell for no time -- G64 should not smooth over this point )
G00 Z0.10000 ( retract )

G00 X1.38800 Y-0.66900 ( rapid move to begin. )
G01 Z-0.00500 F3.50000 ( plunge. )
G04 P0 ( dwell for no time -- G64 should not smooth over this point )
X1.38800 Y-0.66900
X1.38800 Y-0.72800
X1.32300 Y-0.72800
X1.32300 Y-0.66300
X1.38800 Y-0.66300
X1.38800 Y-0.66900
G04 P0 ( dwell for no time -- G64 should not smooth over this point )
G00 Z0.10000 ( retract )

G00 X1.47800 Y-0.66900 ( rapid move to begin. )
G01 Z-0.00500 F3.50000 ( plunge. )
G04 P0 ( dwell for no time -- G64 should not smooth over this point )
X1.47800 Y-0.66900
X1.48000 Y-0.66900
X1.48000 Y-0.67000
X1.48100 Y-0.67000
X1.48100 Y-0.67200
X1.48200 Y-0.67200
X1.48200 Y-0.67300
X1.48300 Y-0.67300
X1.48300 Y-0.67400
X1.48400 Y-0.67400
X1.48400 Y-0.67600
X1.48500 Y-0.67600
X1.48500 Y-0.67700
X1.48600 Y-0.67700
X1.48600 Y-0.68000
X1.48700 Y-0.68000
X1.48700 Y-0.68500
X1.48800 Y-0.68500
X1.48800 Y-0.70600
X1.48700 Y-0.70600
X1.48700 Y-0.71100
X1.48600 Y-0.71100
X1.48600 Y-0.71400
X1.48500 Y-0.71400
X1.48500 Y-0.71500
X1.48400 Y-0.71500
X1.48400 Y-0.71700
X1.48300 Y-0.71700
X1.48300 Y-0.71800
X1.48200 Y-0.71800
X1.48200 Y-0.71900
X1.48100 Y-0.71900
X1.48100 Y-0.72100
X1.48000 Y-0.72100
X1.48000 Y-0.72200
X1.47800 Y-0.72200
X1.47800 Y-0.72300
X1.47700 Y-0.72300
X1.47700 Y-0.72400
X1.47500 Y-0.72400
X1.47500 Y-0.72500
X1.47300 Y-0.72500
X1.47300 Y-0.72600
X1.47200 Y-0.72600
X1.47200 Y-0.72700
X1.46700 Y-0.72700
X1.46700 Y-0.72800
X1.44400 Y-0.72800
X1.44400 Y-0.72700
X1.43900 Y-0.72700
X1.43900 Y-0.72600
X1.43800 Y-0.72600
X1.43800 Y-0.72500
X1.43600 Y-0.72500
X1.43600 Y-0.72400
X1.43400 Y-0.72400
X1.43400 Y-0.72300
X1.43300 Y-0.72300
X1.43300 Y-0.72200
X1.43100 Y-0.72200
X1.43100 Y-0.72100
X1.43000 Y-0.72100
X1.43000 Y-0.71900
X1.42900 Y-0.71900
X1.42900 Y-0.71800
X1.42800 Y-0.71800
X1.42800 Y-0.71700
X1.42700 Y-0.71700
X1.42700 Y-0.71500
X1.42600 Y-0.71500
X1.42600 Y-0.71400
X1.42500 Y-0.71400
X1.42500 Y-0.71100
X1.42400 Y-0.71100
X1.42400 Y-0.70600
X1.42300 Y-0.70600
X1.42300 Y-0.68500
X1.42400 Y-0.68500
X1.42400 Y-0.68000
X1.42500 Y-0.68000
X1.42500 Y-0.67700
X1.42600 Y-0.67700
X1.42600 Y-0.67600
X1.42700 Y-0.67600
X1.42700 Y-0.67400
X1.42800 Y-0.67400
X1.42800 Y-0.67300
X1.42900 Y-0.67300
X1.42900 Y-0.67200
X1.43000 Y-0.67200
X1.43000 Y-0.67000
X1.43100 Y-0.67000
X1.43100 Y-0.66900
X1.43300 Y-0.66900
X1.43300 Y-0.66800
X1.43400 Y-0.66800
X1.43400 Y-0.66700
X1.43600 Y-0.66700
X1.43600 Y-0.66600
X1.43800 Y-0.66600
X1.43800 Y-0.66500
X1.43900 Y-0.66500
X1.43900 Y-0.66400
X1.44400 Y-0.66400
X1.44400 Y-0.66300
X1.46700 Y-0.66300
X1.46700 Y-0.66400
X1.47200 Y-0.66400
X1.47200 Y-0.66500
X1.47300 Y-0.66500
X1.47300 Y-0.66600
X1.47500 Y-0.66600
X1.47500 Y-0.66700
X1.47700 Y-0.66700
X1.47700 Y-0.66800
X1.47800 Y-0.66800
X1.47800 Y-0.66900
G04 P0 ( dwell for no time -- G64 should not smooth over this point )
G00 Z0.10000 ( retract )

G00 X1.63400 Y-0.79700 ( rapid move to begin. )
G01 Z-0.00500 F3.50000 ( plunge. )
G04 P0 ( dwell for no time -- G64 should not smooth over this point )
X1.63400 Y-0.79700
X1.63600 Y-0.79700
X1.63600 Y-0.79800
X1.63700 Y-0.79800
X1.63700 Y-0.80000
X1.63800 Y-0.80000
X1.63800 Y-0.80100
X1.63900 Y-0.80100
X1.63900 Y-0.80200
X1.64000 Y-0.80200
X1.64000 Y-0.80400
X1.64100 Y-0.80400
X1.64100 Y-0.80500
X1.64200 Y-0.80500
X1.64200 Y-0.80800
X1.64300 Y-0.80800
X1.64300 Y-0.81300
X1.64400 Y-0.81300
X1.64400 Y-0.83400
X1.64300 Y-0.83400
X1.64300 Y-0.83900
X1.64200 Y-0.83900
X1.64200 Y-0.84200
X1.64100 Y-0.84200
X1.64100 Y-0.84300
X1.64000 Y-0.84300
X1.64000 Y-0.84500
X1.63900 Y-0.84500
X1.63900 Y-0.84600
X1.63800 Y-0.84600
X1.63800 Y-0.84700
X1.63700 Y-0.84700
X1.63700 Y-0.84900
X1.63600 Y-0.84900
X1.63600 Y-0.85000
X1.63400 Y-0.85000
X1.63400 Y-0.85100
X1.63300 Y-0.85100
X1.63300 Y-0.85200
X1.63100 Y-0.85200
X1.63100 Y-0.85300
X1.62900 Y-0.85300
X1.62900 Y-0.85400
X1.62800 Y-0.85400
X1.62800 Y-0.85500
X1.62300 Y-0.85500
X1.62300 Y-0.85600
X1.60000 Y-0.85600
X1.60000 Y-0.85500
X1.59500 Y-0.85500
X1.59500 Y-0.85400
X1.59400 Y-0.85400
X1.59400 Y-0.85300
X1.59200 Y-0.85300
X1.59200 Y-0.85200
X1.59000 Y-0.85200
X1.59000 Y-0.85100
X1.58900 Y-0.85100
X1.58900 Y-0.85000
X1.58700 Y-0.85000
X1.58700 Y-0.84900
X1.58600 Y-0.84900
X1.58600 Y-0.84700
X1.58500 Y-0.84700
X1.58500 Y-0.84600
X1.58400 Y-0.84600
X1.58400 Y-0.84500
X1.58300 Y-0.84500
X1.58300 Y-0.84300
X1.58200 Y-0.84300
X1.58200 Y-0.84200
X1.58100 Y-0.84200
X1.58100 Y-0.83900
X1.58000 Y-0.83900
X1.58000 Y-0.83400
X1.57900 Y-0.83400
X1.57900 Y-0.81300
X1.58000 Y-0.81300
X1.58000 Y-0.80800
X1.58100 Y-0.80800
X1.58100 Y-0.80500
X1.58200 Y-0.80500
X1.58200 Y-0.80400
X1.58300 Y-0.80400
X1.58300 Y-0.80200
X1.58400 Y-0.80200
X1.58400 Y-0.80100
X1.58500 Y-0.80100
X1.58500 Y-0.80000
X1.58600 Y-0.80000
X1.58600 Y-0.79800
X1.58700 Y-0.79800
X1.58700 Y-0.79700
X1.58900 Y-0.79700
X1.58900 Y-0.79600
X1.59000 Y-0.79600
X1.59000 Y-0.79500
X1.59200 Y-0.79500
X1.59200 Y-0.79400
X1.59400 Y-0.79400
X1.59400 Y-0.79300
X1.59500 Y-0.79300
X1.59500 Y-0.79200
X1.60000 Y-0.79200
X1.60000 Y-0.79100
X1.62300 Y-0.79100
X1.62300 Y-0.79200
X1.62800 Y-0.79200
X1.62800 Y-0.79300
X1.62900 Y-0.79300
X1.62900 Y-0.79400
X1.63100 Y-0.79400
X1.63100 Y-0.79500
X1.63300 Y-0.79500
X1.63300 Y-0.79600
X1.63400 Y-0.79600
X1.63400 Y-0.79700
G04 P0 ( dwell for no time -- G64 should not smooth over this point )
G00 Z0.10000 ( retract )

G00 X0.76000 Y-0.84500 ( rapid move to begin. )
G01 Z-0.00500 F3.50000 ( plunge. )
G04 P0 ( dwell for no time -- G64 should not smooth over this point )
X0.76000 Y-0.84500
X0.76200 Y-0.84500
X0.76200 Y-0.84600
X0.76400 Y-0.84600
X0.76400 Y-0.84700
X0.76500 Y-0.84700
X0.76500 Y-0.84800
X0.76600 Y-0.84800
X0.76600 Y-0.85000
X0.76700 Y-0.85000
X0.76700 Y-0.85100
X0.76800 Y-0.85100
X0.76800 Y-0.85300
X0.76900 Y-0.85300
X0.76900 Y-0.85400
X0.77000 Y-0.85400
X0.77000 Y-0.85500
X0.77100 Y-0.85500
X0.77100 Y-0.85700
X0.77200 Y-0.85700
X0.77200 Y-0.86200
X0.77300 Y-0.86200
X0.77300 Y-0.86700
X0.77400 Y-0.86700
X0.77400 Y-0.91200
X0.77300 Y-0.91200
X0.77300 Y-0.91700
X0.77200 Y-0.91700
X0.77200 Y-0.92200
X0.77100 Y-0.92200
X0.77100 Y-0.92400
X0.77000 Y-0.92400
X0.77000 Y-0.92500
X0.76900 Y-0.92500
X0.76900 Y-0.92600
X0.76800 Y-0.92600
X0.76800 Y-0.92800
X0.76700 Y-0.92800
X0.76700 Y-0.92900
X0.76600 Y-0.92900
X0.76600 Y-0.93100
X0.76500 Y-0.93100
X0.76500 Y-0.93200
X0.76400 Y-0.93200
X0.76400 Y-0.93300
X0.76200 Y-0.93300
X0.76200 Y-0.93400
X0.76000 Y-0.93400
X0.76000 Y-0.93500
X0.75900 Y-0.93500
X0.75900 Y-0.93600
X0.75700 Y-0.93600
X0.75700 Y-0.93700
X0.75500 Y-0.93700
X0.75500 Y-0.93800
X0.75200 Y-0.93800
X0.75200 Y-0.93900
X0.74600 Y-0.93900
X0.74600 Y-0.94000
X0.72900 Y-0.94000
X0.72900 Y-0.93900
X0.72300 Y-0.93900
X0.72300 Y-0.93800
X0.72000 Y-0.93800
X0.72000 Y-0.93700
X0.71800 Y-0.93700
X0.71800 Y-0.93600
X0.71600 Y-0.93600
X0.71600 Y-0.93500
X0.71500 Y-0.93500
X0.71500 Y-0.93400
X0.71300 Y-0.93400
X0.71300 Y-0.93300
X0.71100 Y-0.93300
X0.71100 Y-0.93200
X0.71000 Y-0.93200
X0.71000 Y-0.93100
X0.70900 Y-0.93100
X0.70900 Y-0.92900
X0.70800 Y-0.92900
X0.70800 Y-0.92800
X0.70700 Y-0.92800
X0.70700 Y-0.92600
X0.70600 Y-0.92600
X0.70600 Y-0.92500
X0.70500 Y-0.92500
X0.70500 Y-0.92400
X0.70400 Y-0.92400
X0.70400 Y-0.92200
X0.70300 Y-0.92200
X0.70300 Y-0.91700
X0.70200 Y-0.91700
X0.70200 Y-0.91200
X0.70100 Y-0.91200
X0.70100 Y-0.86700
X0.70200 Y-0.86700
X0.70200 Y-0.86200
X0.70300 Y-0.86200
X0.70300 Y-0.85700
X0.70400 Y-0.85700
X0.70400 Y-0.85500
X0.70500 Y-0.85500
X0.70500 Y-0.85400
X0.70600 Y-0.85400
X0.70600 Y-0.85300
X0.70700 Y-0.85300
X0.70700 Y-0.85100
X0.70800 Y-0.85100
X0.70800 Y-0.85000
X0.70900 Y-0.85000
X0.70900 Y-0.84800
X0.71000 Y-0.84800
X0.71000 Y-0.84700
X0.71100 Y-0.84700
X0.71100 Y-0.84600
X0.71300 Y-0.84600
X0.71300 Y-0.84500
X0.71500 Y-0.84500
X0.71500 Y-0.84400
X0.71600 Y-0.84400
X0.71600 Y-0.84300
X0.71800 Y-0.84300
X0.71800 Y-0.84200
X0.72000 Y-0.84200
X0.72000 Y-0.84100
X0.72300 Y-0.84100
X0.72300 Y-0.84000
X0.72900 Y-0.84000
X0.72900 Y-0.83900
X0.74600 Y-0.83900
X0.74600 Y-0.84000
X0.75200 Y-0.84000
X0.75200 Y-0.84100
X0.75500 Y-0.84100
X0.75500 Y-0.84200
X0.75700 Y-0.84200
X0.75700 Y-0.84300
X0.75900 Y-0.84300
X0.75900 Y-0.84400
X0.76000 Y-0.84400
X0.76000 Y-0.84500
G04 P0 ( dwell for no time -- G64 should not smooth over this point )
G00 Z0.10000 ( retract )

G00 X0.86000 Y-0.84500 ( rapid move to begin. )
G01 Z-0.00500 F3.50000 ( plunge. )
G04 P0 ( dwell for no time -- G64 should not smooth over this point )
X0.86000 Y-0.84500
X0.86200 Y-0.84500
X0.86200 Y-0.84600
X0.86400 Y-0.84600
X0.86400 Y-0.84700
X0.86500 Y-0.84700
X0.86500 Y-0.84800
X0.86600 Y-0.84800
X0.86600 Y-0.85000
X0.86700 Y-0.85000
X0.86700 Y-0.85100
X0.86800 Y-0.85100
X0.86800 Y-0.85300
X0.86900 Y-0.85300
X0.86900 Y-0.85400
X0.87000 Y-0.85400
X0.87000 Y-0.85500
X0.87100 Y-0.85500
X0.87100 Y-0.85700
X0.87200 Y-0.85700
X0.87200 Y-0.86200
X0.87300 Y-0.86200
X0.87300 Y-0.86700
X0.87400 Y-0.86700
X0.87400 Y-0.91200
X0.87300 Y-0.91200
X0.87300 Y-0.91700
X0.87200 Y-0.91700
X0.87200 Y-0.92200
X0.87100 Y-0.92200
X0.87100 Y-0.92400
X0.87000 Y-0.92400
X0.87000 Y-0.92500
X0.86900 Y-0.92500
X0.86900 Y-0.92600
X0.86800 Y-0.92600
X0.86800 Y-0.92800
X0.86700 Y-0.92800
X0.86700 Y-0.92900
X0.86600 Y-0.92900
X0.86600 Y-0.93100
X0.86500 Y-0.93100
X0.86500 Y-0.93200
X0.86400 Y-0.93200
X0.86400 Y-0.93300
X0.86200 Y-0.93300
X0.86200 Y-0.93400
X0.86000 Y-0.93400
X0.86000 Y-0.93500
X0.85900 Y-0.93500
X0.85900 Y-0.93600
X0.85700 Y-0.93600
X0.85700 Y-0.93700
X0.85500 Y-0.93700
X0.85500 Y-0.93800
X0.85200 Y-0.93800
X0.85200 Y-0.93900
X0.84600 Y-0.93900
X0.84600 Y-0.94000
X0.82900 Y-0.94000
X0.82900 Y-0.93900
X0.82300 Y-0.93900
X0.82300 Y-0.93800
X0.82000 Y-0.93800
X0.82000 Y-0.93700
X0.81800 Y-0.93700
X0.81800 Y-0.93600
X0.81600 Y-0.93600
X0.81600 Y-0.93500
X0.81500 Y-0.93500
X0.81500 Y-0.93400
X0.81300 Y-0.93400
X0.81300 Y-0.93300
X0.81100 Y-0.93300
X0.81100 Y-0.93200
X0.81000 Y-0.93200
X0.81000 Y-0.93100
X0.80900 Y-0.93100
X0.80900 Y-0.92900
X0.80800 Y-0.92900
X0.80800 Y-0.92800
X0.80700 Y-0.92800
X0.80700 Y-0.92600
X0.80600 Y-0.92600
X0.80600 Y-0.92500
X0.80500 Y-0.92500
X0.80500 Y-0.92400
X0.80400 Y-0.92400
X0.80400 Y-0.92200
X0.80300 Y-0.92200
X0.80300 Y-0.91700
X0.80200 Y-0.91700
X0.80200 Y-0.91200
X0.80100 Y-0.91200
X0.80100 Y-0.86700
X0.80200 Y-0.86700
X0.80200 Y-0.86200
X0.80300 Y-0.86200
X0.80300 Y-0.85700
X0.80400 Y-0.85700
X0.80400 Y-0.85500
X0.80500 Y-0.85500
X0.80500 Y-0.85400
X0.80600 Y-0.85400
X0.80600 Y-0.85300
X0.80700 Y-0.85300
X0.80700 Y-0.85100
X0.80800 Y-0.85100
X0.80800 Y-0.85000
X0.80900 Y-0.85000
X0.80900 Y-0.84800
X0.81000 Y-0.84800
X0.81000 Y-0.84700
X0.81100 Y-0.84700
X0.81100 Y-0.84600
X0.81300 Y-0.84600
X0.81300 Y-0.84500
X0.81500 Y-0.84500
X0.81500 Y-0.84400
X0.81600 Y-0.84400
X0.81600 Y-0.84300
X0.81800 Y-0.84300
X0.81800 Y-0.84200
X0.82000 Y-0.84200
X0.82000 Y-0.84100
X0.82300 Y-0.84100
X0.82300 Y-0.84000
X0.82900 Y-0.84000
X0.82900 Y-0.83900
X0.84600 Y-0.83900
X0.84600 Y-0.84000
X0.85200 Y-0.84000
X0.85200 Y-0.84100
X0.85500 Y-0.84100
X0.85500 Y-0.84200
X0.85700 Y-0.84200
X0.85700 Y-0.84300
X0.85900 Y-0.84300
X0.85900 Y-0.84400
X0.86000 Y-0.84400
X0.86000 Y-0.84500
G04 P0 ( dwell for no time -- G64 should not smooth over this point )
G00 Z0.10000 ( retract )

G00 X0.96000 Y-0.84500 ( rapid move to begin. )
G01 Z-0.00500 F3.50000 ( plunge. )
G04 P0 ( dwell for no time -- G64 should not smooth over this point )
X0.96000 Y-0.84500
X0.96200 Y-0.84500
X0.96200 Y-0.84600
X0.96400 Y-0.84600
X0.96400 Y-0.84700
X0.96500 Y-0.84700
X0.96500 Y-0.84800
X0.96600 Y-0.84800
X0.96600 Y-0.85000
X0.96700 Y-0.85000
X0.96700 Y-0.85100
X0.96800 Y-0.85100
X0.96800 Y-0.85300
X0.96900 Y-0.85300
X0.96900 Y-0.85400
X0.97000 Y-0.85400
X0.97000 Y-0.85500
X0.97100 Y-0.85500
X0.97100 Y-0.85700
X0.97200 Y-0.85700
X0.97200 Y-0.86200
X0.97300 Y-0.86200
X0.97300 Y-0.86700
X0.97400 Y-0.86700
X0.97400 Y-0.91200
X0.97300 Y-0.91200
X0.97300 Y-0.91700
X0.97200 Y-0.91700
X0.97200 Y-0.92200
X0.97100 Y-0.92200
X0.97100 Y-0.92400
X0.97000 Y-0.92400
X0.97000 Y-0.92500
X0.96900 Y-0.92500
X0.96900 Y-0.92600
X0.96800 Y-0.92600
X0.96800 Y-0.92800
X0.96700 Y-0.92800
X0.96700 Y-0.92900
X0.96600 Y-0.92900
X0.96600 Y-0.93100
X0.96500 Y-0.93100
X0.96500 Y-0.93200
X0.96400 Y-0.93200
X0.96400 Y-0.93300
X0.96200 Y-0.93300
X0.96200 Y-0.93400
X0.96000 Y-0.93400
X0.96000 Y-0.93500
X0.95900 Y-0.93500
X0.95900 Y-0.93600
X0.95700 Y-0.93600
X0.95700 Y-0.93700
X0.95500 Y-0.93700
X0.95500 Y-0.93800
X0.95200 Y-0.93800
X0.95200 Y-0.93900
X0.94600 Y-0.93900
X0.94600 Y-0.94000
X0.92900 Y-0.94000
X0.92900 Y-0.93900
X0.92300 Y-0.93900
X0.92300 Y-0.93800
X0.92000 Y-0.93800
X0.92000 Y-0.93700
X0.91800 Y-0.93700
X0.91800 Y-0.93600
X0.91600 Y-0.93600
X0.91600 Y-0.93500
X0.91500 Y-0.93500
X0.91500 Y-0.93400
X0.91300 Y-0.93400
X0.91300 Y-0.93300
X0.91100 Y-0.93300
X0.91100 Y-0.93200
X0.91000 Y-0.93200
X0.91000 Y-0.93100
X0.90900 Y-0.93100
X0.90900 Y-0.92900
X0.90800 Y-0.92900
X0.90800 Y-0.92800
X0.90700 Y-0.92800
X0.90700 Y-0.92600
X0.90600 Y-0.92600
X0.90600 Y-0.92500
X0.90500 Y-0.92500
X0.90500 Y-0.92400
X0.90400 Y-0.92400
X0.90400 Y-0.92200
X0.90300 Y-0.92200
X0.90300 Y-0.91700
X0.90200 Y-0.91700
X0.90200 Y-0.91200
X0.90100 Y-0.91200
X0.90100 Y-0.86700
X0.90200 Y-0.86700
X0.90200 Y-0.86200
X0.90300 Y-0.86200
X0.90300 Y-0.85700
X0.90400 Y-0.85700
X0.90400 Y-0.85500
X0.90500 Y-0.85500
X0.90500 Y-0.85400
X0.90600 Y-0.85400
X0.90600 Y-0.85300
X0.90700 Y-0.85300
X0.90700 Y-0.85100
X0.90800 Y-0.85100
X0.90800 Y-0.85000
X0.90900 Y-0.85000
X0.90900 Y-0.84800
X0.91000 Y-0.84800
X0.91000 Y-0.84700
X0.91100 Y-0.84700
X0.91100 Y-0.84600
X0.91300 Y-0.84600
X0.91300 Y-0.84500
X0.91500 Y-0.84500
X0.91500 Y-0.84400
X0.91600 Y-0.84400
X0.91600 Y-0.84300
X0.91800 Y-0.84300
X0.91800 Y-0.84200
X0.92000 Y-0.84200
X0.92000 Y-0.84100
X0.92300 Y-0.84100
X0.92300 Y-0.84000
X0.92900 Y-0.84000
X0.92900 Y-0.83900
X0.94600 Y-0.83900
X0.94600 Y-0.84000
X0.95200 Y-0.84000
X0.95200 Y-0.84100
X0.95500 Y-0.84100
X0.95500 Y-0.84200
X0.95700 Y-0.84200
X0.95700 Y-0.84300
X0.95900 Y-0.84300
X0.95900 Y-0.84400
X0.96000 Y-0.84400
X0.96000 Y-0.84500
G04 P0 ( dwell for no time -- G64 should not smooth over this point )
G00 Z0.10000 ( retract )

G00 X1.06000 Y-0.84500 ( rapid move to begin. )
G01 Z-0.00500 F3.50000 ( plunge. )
G04 P0 ( dwell for no time -- G64 should not smooth over this point )
X1.06000 Y-0.84500
X1.06200 Y-0.84500
X1.06200 Y-0.84600
X1.06400 Y-0.84600
X1.06400 Y-0.84700
X1.06500 Y-0.84700
X1.06500 Y-0.84800
X1.06600 Y-0.84800
X1.06600 Y-0.85000
X1.06700 Y-0.85000
X1.06700 Y-0.85100
X1.06800 Y-0.85100
X1.06800 Y-0.85300
X1.06900 Y-0.85300
X1.06900 Y-0.85400
X1.07000 Y-0.85400
X1.07000 Y-0.85500
X1.07100 Y-0.85500
X1.07100 Y-0.85700
X1.07200 Y-0.85700
X1.07200 Y-0.86200
X1.07300 Y-0.86200
X1.07300 Y-0.86700
X1.07400 Y-0.86700
X1.07400 Y-0.91200
X1.07300 Y-0.91200
X1.07300 Y-0.91700
X1.07200 Y-0.91700
X1.07200 Y-0.92200
X1.07100 Y-0.92200
X1.07100 Y-0.92400
X1.07000 Y-0.92400
X1.07000 Y-0.92500
X1.06900 Y-0.92500
X1.06900 Y-0.92600
X1.06800 Y-0.92600
X1.06800 Y-0.92800
X1.06700 Y-0.92800
X1.06700 Y-0.92900
X1.06600 Y-0.92900
X1.06600 Y-0.93100
X1.06500 Y-0.93100
X1.06500 Y-0.93200
X1.06400 Y-0.93200
X1.06400 Y-0.93300
X1.06200 Y-0.93300
X1.06200 Y-0.93400
X1.06000 Y-0.93400
X1.06000 Y-0.93500
X1.05900 Y-0.93500
X1.05900 Y-0.93600
X1.05700 Y-0.93600
X1.05700 Y-0.93700
X1.05500 Y-0.93700
X1.05500 Y-0.93800
X1.05200 Y-0.93800
X1.05200 Y-0.93900
X1.04600 Y-0.93900
X1.04600 Y-0.94000
X1.02900 Y-0.94000
X1.02900 Y-0.93900
X1.02300 Y-0.93900
X1.02300 Y-0.93800
X1.02000 Y-0.93800
X1.02000 Y-0.93700
X1.01800 Y-0.93700
X1.01800 Y-0.93600
X1.01600 Y-0.93600
X1.01600 Y-0.93500
X1.01500 Y-0.93500
X1.01500 Y-0.93400
X1.01300 Y-0.93400
X1.01300 Y-0.93300
X1.01100 Y-0.93300
X1.01100 Y-0.93200
X1.01000 Y-0.93200
X1.01000 Y-0.93100
X1.00900 Y-0.93100
X1.00900 Y-0.92900
X1.00800 Y-0.92900
X1.00800 Y-0.92800
X1.00700 Y-0.92800
X1.00700 Y-0.92600
X1.00600 Y-0.92600
X1.00600 Y-0.92500
X1.00500 Y-0.92500
X1.00500 Y-0.92400
X1.00400 Y-0.92400
X1.00400 Y-0.92200
X1.00300 Y-0.92200
X1.00300 Y-0.91700
X1.00200 Y-0.91700
X1.00200 Y-0.91200
X1.00100 Y-0.91200
X1.00100 Y-0.86700
X1.00200 Y-0.86700
X1.00200 Y-0.86200
X1.00300 Y-0.86200
X1.00300 Y-0.85700
X1.00400 Y-0.85700
X1.00400 Y-0.85500
X1.00500 Y-0.85500
X1.00500 Y-0.85400
X1.00600 Y-0.85400
X1.00600 Y-0.85300
X1.00700 Y-0.85300
X1.00700 Y-0.85100
X1.00800 Y-0.85100
X1.00800 Y-0.85000
X1.00900 Y-0.85000
X1.00900 Y-0.84800
X1.01000 Y-0.84800
X1.01000 Y-0.84700
X1.01100 Y-0.84700
X1.01100 Y-0.84600
X1.01300 Y-0.84600
X1.01300 Y-0.84500
X1.01500 Y-0.84500
X1.01500 Y-0.84400
X1.01600 Y-0.84400
X1.01600 Y-0.84300
X1.01800 Y-0.84300
X1.01800 Y-0.84200
X1.02000 Y-0.84200
X1.02000 Y-0.84100
X1.02300 Y-0.84100
X1.02300 Y-0.84000
X1.02900 Y-0.84000
X1.02900 Y-0.83900
X1.04600 Y-0.83900
X1.04600 Y-0.84000
X1.05200 Y-0.84000
X1.05200 Y-0.84100
X1.05500 Y-0.84100
X1.05500 Y-0.84200
X1.05700 Y-0.84200
X1.05700 Y-0.84300
X1.05900 Y-0.84300
X1.05900 Y-0.84400
X1.06000 Y-0.84400
X1.06000 Y-0.84500
G04 P0 ( dwell for no time -- G64 should not smooth over this point )
G00 Z0.10000 ( retract )

G00 X0.38800 Y-0.92100 ( rapid move to begin. )
G01 Z-0.00500 F3.50000 ( plunge. )
G04 P0 ( dwell for no time -- G64 should not smooth over this point )
X0.38800 Y-0.92100
X0.39000 Y-0.92100
X0.39000 Y-0.92200
X0.39100 Y-0.92200
X0.39100 Y-0.92400
X0.39200 Y-0.92400
X0.39200 Y-0.92500
X0.39300 Y-0.92500
X0.39300 Y-0.92600
X0.39400 Y-0.92600
X0.39400 Y-0.92800
X0.39500 Y-0.92800
X0.39500 Y-0.92900
X0.39600 Y-0.92900
X0.39600 Y-0.93200
X0.39700 Y-0.93200
X0.39700 Y-0.93700
X0.39800 Y-0.93700
X0.39800 Y-0.95800
X0.39700 Y-0.95800
X0.39700 Y-0.96300
X0.39600 Y-0.96300
X0.39600 Y-0.96600
X0.39500 Y-0.96600
X0.39500 Y-0.96700
X0.39400 Y-0.96700
X0.39400 Y-0.96900
X0.39300 Y-0.96900
X0.39300 Y-0.97000
X0.39200 Y-0.97000
X0.39200 Y-0.97100
X0.39100 Y-0.97100
X0.39100 Y-0.97300
X0.39000 Y-0.97300
X0.39000 Y-0.97400
X0.38800 Y-0.97400
X0.38800 Y-0.97500
X0.38700 Y-0.97500
X0.38700 Y-0.97600
X0.38500 Y-0.97600
X0.38500 Y-0.97700
X0.38300 Y-0.97700
X0.38300 Y-0.97800
X0.38200 Y-0.97800
X0.38200 Y-0.97900
X0.37700 Y-0.97900
X0.37700 Y-0.98000
X0.35400 Y-0.98000
X0.35400 Y-0.97900
X0.34900 Y-0.97900
X0.34900 Y-0.97800
X0.34800 Y-0.97800
X0.34800 Y-0.97700
X0.34600 Y-0.97700
X0.34600 Y-0.97600
X0.34400 Y-0.97600
X0.34400 Y-0.97500
X0.34300 Y-0.97500
X0.34300 Y-0.97400
X0.34100 Y-0.97400
X0.34100 Y-0.97300
X0.34000 Y-0.97300
X0.34000 Y-0.97100
X0.33900 Y-0.97100
X0.33900 Y-0.97000
X0.33800 Y-0.97000
X0.33800 Y-0.96900
X0.33700 Y-0.96900
X0.33700 Y-0.96700
X0.33600 Y-0.96700
X0.33600 Y-0.96600
X0.33500 Y-0.96600
X0.33500 Y-0.96300
X0.33400 Y-0.96300
X0.33400 Y-0.95800
X0.33300 Y-0.95800
X0.33300 Y-0.93700
X0.33400 Y-0.93700
X0.33400 Y-0.93200
X0.33500 Y-0.93200
X0.33500 Y-0.92900
X0.33600 Y-0.92900
X0.33600 Y-0.92800
X0.33700 Y-0.92800
X0.33700 Y-0.92600
X0.33800 Y-0.92600
X0.33800 Y-0.92500
X0.33900 Y-0.92500
X0.33900 Y-0.92400
X0.34000 Y-0.92400
X0.34000 Y-0.92200
X0.34100 Y-0.92200
X0.34100 Y-0.92100
X0.34300 Y-0.92100
X0.34300 Y-0.92000
X0.34400 Y-0.92000
X0.34400 Y-0.91900
X0.34600 Y-0.91900
X0.34600 Y-0.91800
X0.34800 Y-0.91800
X0.34800 Y-0.91700
X0.34900 Y-0.91700
X0.34900 Y-0.91600
X0.35400 Y-0.91600
X0.35400 Y-0.91500
X0.37700 Y-0.91500
X0.37700 Y-0.91600
X0.38200 Y-0.91600
X0.38200 Y-0.91700
X0.38300 Y-0.91700
X0.38300 Y-0.91800
X0.38500 Y-0.91800
X0.38500 Y-0.91900
X0.38700 Y-0.91900
X0.38700 Y-0.92000
X0.38800 Y-0.92000
X0.38800 Y-0.92100
G04 P0 ( dwell for no time -- G64 should not smooth over this point )
G00 Z0.10000 ( retract )

G00 X0.23400 Y-0.92500 ( rapid move to begin. )
G01 Z-0.00500 F3.50000 ( plunge. )
G04 P0 ( dwell for no time -- G64 should not smooth over this point )
X0.23400 Y-0.92500
X0.23600 Y-0.92500
X0.23600 Y-0.92600
X0.23700 Y-0.92600
X0.23700 Y-0.92800
X0.23800 Y-0.92800
X0.23800 Y-0.92900
X0.23900 Y-0.92900
X0.23900 Y-0.93000
X0.24000 Y-0.93000
X0.24000 Y-0.93200
X0.24100 Y-0.93200
X0.24100 Y-0.93300
X0.24200 Y-0.93300
X0.24200 Y-0.93600
X0.24300 Y-0.93600
X0.24300 Y-0.94100
X0.24400 Y-0.94100
X0.24400 Y-0.96200
X0.24300 Y-0.96200
X0.24300 Y-0.96700
X0.24200 Y-0.96700
X0.24200 Y-0.97000
X0.24100 Y-0.97000
X0.24100 Y-0.97100
X0.24000 Y-0.97100
X0.24000 Y-0.97300
X0.23900 Y-0.97300
X0.23900 Y-0.97400
X0.23800 Y-0.97400
X0.23800 Y-0.97500
X0.23700 Y-0.97500
X0.23700 Y-0.97700
X0.23600 Y-0.97700
X0.23600 Y-0.97800
X0.23400 Y-0.97800
X0.23400 Y-0.97900
X0.23300 Y-0.97900
X0.23300 Y-0.98000
X0.23100 Y-0.98000
X0.23100 Y-0.98100
X0.22900 Y-0.98100
X0.22900 Y-0.98200
X0.22800 Y-0.98200
X0.22800 Y-0.98300
X0.22300 Y-0.98300
X0.22300 Y-0.98400
X0.20000 Y-0.98400
X0.20000 Y-0.98300
X0.19500 Y-0.98300
X0.19500 Y-0.98200
X0.19400 Y-0.98200
X0.19400 Y-0.98100
X0.19200 Y-0.98100
X0.19200 Y-0.98000
X0.19000 Y-0.98000
X0.19000 Y-0.97900
X0.18900 Y-0.97900
X0.18900 Y-0.97800
X0.18700 Y-0.97800
X0.18700 Y-0.97700
X0.18600 Y-0.97700
X0.18600 Y-0.97500
X0.18500 Y-0.97500
X0.18500 Y-0.97400
X0.18400 Y-0.97400
X0.18400 Y-0.97300
X0.18300 Y-0.97300
X0.18300 Y-0.97100
X0.18200 Y-0.97100
X0.18200 Y-0.97000
X0.18100 Y-0.97000
X0.18100 Y-0.96700
X0.18000 Y-0.96700
X0.18000 Y-0.96200
X0.17900 Y-0.96200
X0.17900 Y-0.94100
X0.18000 Y-0.94100
X0.18000 Y-0.93600
X0.18100 Y-0.93600
X0.18100 Y-0.93300
X0.18200 Y-0.93300
X0.18200 Y-0.93200
X0.18300 Y-0.93200
X0.18300 Y-0.93000
X0.18400 Y-0.93000
X0.18400 Y-0.92900
X0.18500 Y-0.92900
X0.18500 Y-0.92800
X0.18600 Y-0.92800
X0.18600 Y-0.92600
X0.18700 Y-0.92600
X0.18700 Y-0.92500
X0.18900 Y-0.92500
X0.18900 Y-0.92400
X0.19000 Y-0.92400
X0.19000 Y-0.92300
X0.19200 Y-0.92300
X0.19200 Y-0.92200
X0.19400 Y-0.92200
X0.19400 Y-0.92100
X0.19500 Y-0.92100
X0.19500 Y-0.92000
X0.20000 Y-0.92000
X0.20000 Y-0.91900
X0.22300 Y-0.91900
X0.22300 Y-0.92000
X0.22800 Y-0.92000
X0.22800 Y-0.92100
X0.22900 Y-0.92100
X0.22900 Y-0.92200
X0.23100 Y-0.92200
X0.23100 Y-0.92300
X0.23300 Y-0.92300
X0.23300 Y-0.92400
X0.23400 Y-0.92400
X0.23400 Y-0.92500
G04 P0 ( dwell for no time -- G64 should not smooth over this point )
G00 Z0.10000 ( retract )

G00 X1.34200 Y-1.00700 ( rapid move to begin. )
G01 Z-0.00500 F3.50000 ( plunge. )
G04 P0 ( dwell for no time -- G64 should not smooth over this point )
X1.34200 Y-1.00700
X1.34400 Y-1.00700
X1.34400 Y-1.00800
X1.34500 Y-1.00800
X1.34500 Y-1.01000
X1.34600 Y-1.01000
X1.34600 Y-1.01100
X1.34700 Y-1.01100
X1.34700 Y-1.01200
X1.34800 Y-1.01200
X1.34800 Y-1.01400
X1.34900 Y-1.01400
X1.34900 Y-1.01500
X1.35000 Y-1.01500
X1.35000 Y-1.01800
X1.35100 Y-1.01800
X1.35100 Y-1.02300
X1.35200 Y-1.02300
X1.35200 Y-1.04400
X1.35100 Y-1.04400
X1.35100 Y-1.04900
X1.35000 Y-1.04900
X1.35000 Y-1.05200
X1.34900 Y-1.05200
X1.34900 Y-1.05300
X1.34800 Y-1.05300
X1.34800 Y-1.05500
X1.34700 Y-1.05500
X1.34700 Y-1.05600
X1.34600 Y-1.05600
X1.34600 Y-1.05700
X1.34500 Y-1.05700
X1.34500 Y-1.05900
X1.34400 Y-1.05900
X1.34400 Y-1.06000
X1.34200 Y-1.06000
X1.34200 Y-1.06100
X1.34100 Y-1.06100
X1.34100 Y-1.06200
X1.33900 Y-1.06200
X1.33900 Y-1.06300
X1.33700 Y-1.06300
X1.33700 Y-1.06400
X1.33600 Y-1.06400
X1.33600 Y-1.06500
X1.33100 Y-1.06500
X1.33100 Y-1.06600
X1.30800 Y-1.06600
X1.30800 Y-1.06500
X1.30300 Y-1.06500
X1.30300 Y-1.06400
X1.30200 Y-1.06400
X1.30200 Y-1.06300
X1.30000 Y-1.06300
X1.30000 Y-1.06200
X1.29800 Y-1.06200
X1.29800 Y-1.06100
X1.29700 Y-1.06100
X1.29700 Y-1.06000
X1.29500 Y-1.06000
X1.29500 Y-1.05900
X1.29400 Y-1.05900
X1.29400 Y-1.05700
X1.29300 Y-1.05700
X1.29300 Y-1.05600
X1.29200 Y-1.05600
X1.29200 Y-1.05500
X1.29100 Y-1.05500
X1.29100 Y-1.05300
X1.29000 Y-1.05300
X1.29000 Y-1.05200
X1.28900 Y-1.05200
X1.28900 Y-1.04900
X1.28800 Y-1.04900
X1.28800 Y-1.04400
X1.28700 Y-1.04400
X1.28700 Y-1.02300
X1.28800 Y-1.02300
X1.28800 Y-1.01800
X1.28900 Y-1.01800
X1.28900 Y-1.01500
X1.29000 Y-1.01500
X1.29000 Y-1.01400
X1.29100 Y-1.01400
X1.29100 Y-1.01200
X1.29200 Y-1.01200
X1.29200 Y-1.01100
X1.29300 Y-1.01100
X1.29300 Y-1.01000
X1.29400 Y-1.01000
X1.29400 Y-1.00800
X1.29500 Y-1.00800
X1.29500 Y-1.00700
X1.29700 Y-1.00700
X1.29700 Y-1.00600
X1.29800 Y-1.00600
X1.29800 Y-1.00500
X1.30000 Y-1.00500
X1.30000 Y-1.00400
X1.30200 Y-1.00400
X1.30200 Y-1.00300
X1.30300 Y-1.00300
X1.30300 Y-1.00200
X1.30800 Y-1.00200
X1.30800 Y-1.00100
X1.33100 Y-1.00100
X1.33100 Y-1.00200
X1.33600 Y-1.00200
X1.33600 Y-1.00300
X1.33700 Y-1.00300
X1.33700 Y-1.00400
X1.33900 Y-1.00400
X1.33900 Y-1.00500
X1.34100 Y-1.00500
X1.34100 Y-1.00600
X1.34200 Y-1.00600
X1.34200 Y-1.00700
G04 P0 ( dwell for no time -- G64 should not smooth over this point )
G00 Z0.10000 ( retract )

G00 X1.44200 Y-1.00700 ( rapid move to begin. )
G01 Z-0.00500 F3.50000 ( plunge. )
G04 P0 ( dwell for no time -- G64 should not smooth over this point )
X1.44200 Y-1.00700
X1.44400 Y-1.00700
X1.44400 Y-1.00800
X1.44500 Y-1.00800
X1.44500 Y-1.01000
X1.44600 Y-1.01000
X1.44600 Y-1.01100
X1.44700 Y-1.01100
X1.44700 Y-1.01200
X1.44800 Y-1.01200
X1.44800 Y-1.01400
X1.44900 Y-1.01400
X1.44900 Y-1.01500
X1.45000 Y-1.01500
X1.45000 Y-1.01800
X1.45100 Y-1.01800
X1.45100 Y-1.02300
X1.45200 Y-1.02300
X1.45200 Y-1.04400
X1.45100 Y-1.04400
X1.45100 Y-1.04900
X1.45000 Y-1.04900
X1.45000 Y-1.05200
X1.44900 Y-1.05200
X1.44900 Y-1.05300
X1.44800 Y-1.05300
X1.44800 Y-1.05500
X1.44700 Y-1.05500
X1.44700 Y-1.05600
X1.44600 Y-1.05600
X1.44600 Y-1.05700
X1.44500 Y-1.05700
X1.44500 Y-1.05900
X1.44400 Y-1.05900
X1.44400 Y-1.06000
X1.44200 Y-1.06000
X1.44200 Y-1.06100
X1.44100 Y-1.06100
X1.44100 Y-1.06200
X1.43900 Y-1.06200
X1.43900 Y-1.06300
X1.43700 Y-1.06300
X1.43700 Y-1.06400
X1.43600 Y-1.06400
X1.43600 Y-1.06500
X1.43100 Y-1.06500
X1.43100 Y-1.06600
X1.40800 Y-1.06600
X1.40800 Y-1.06500
X1.40300 Y-1.06500
X1.40300 Y-1.06400
X1.40200 Y-1.06400
X1.40200 Y-1.06300
X1.40000 Y-1.06300
X1.40000 Y-1.06200
X1.39800 Y-1.06200
X1.39800 Y-1.06100
X1.39700 Y-1.06100
X1.39700 Y-1.06000
X1.39500 Y-1.06000
X1.39500 Y-1.05900
X1.39400 Y-1.05900
X1.39400 Y-1.05700
X1.39300 Y-1.05700
X1.39300 Y-1.05600
X1.39200 Y-1.05600
X1.39200 Y-1.05500
X1.39100 Y-1.05500
X1.39100 Y-1.05300
X1.39000 Y-1.05300
X1.39000 Y-1.05200
X1.38900 Y-1.05200
X1.38900 Y-1.04900
X1.38800 Y-1.04900
X1.38800 Y-1.04400
X1.38700 Y-1.04400
X1.38700 Y-1.02300
X1.38800 Y-1.02300
X1.38800 Y-1.01800
X1.38900 Y-1.01800
X1.38900 Y-1.01500
X1.39000 Y-1.01500
X1.39000 Y-1.01400
X1.39100 Y-1.01400
X1.39100 Y-1.01200
X1.39200 Y-1.01200
X1.39200 Y-1.01100
X1.39300 Y-1.01100
X1.39300 Y-1.01000
X1.39400 Y-1.01000
X1.39400 Y-1.00800
X1.39500 Y-1.00800
X1.39500 Y-1.00700
X1.39700 Y-1.00700
X1.39700 Y-1.00600
X1.39800 Y-1.00600
X1.39800 Y-1.00500
X1.40000 Y-1.00500
X1.40000 Y-1.00400
X1.40200 Y-1.00400
X1.40200 Y-1.00300
X1.40300 Y-1.00300
X1.40300 Y-1.00200
X1.40800 Y-1.00200
X1.40800 Y-1.00100
X1.43100 Y-1.00100
X1.43100 Y-1.00200
X1.43600 Y-1.00200
X1.43600 Y-1.00300
X1.43700 Y-1.00300
X1.43700 Y-1.00400
X1.43900 Y-1.00400
X1.43900 Y-1.00500
X1.44100 Y-1.00500
X1.44100 Y-1.00600
X1.44200 Y-1.00600
X1.44200 Y-1.00700
G04 P0 ( dwell for no time -- G64 should not smooth over this point )
G00 Z0.10000 ( retract )

G00 X1.54200 Y-1.00700 ( rapid move to begin. )
G01 Z-0.00500 F3.50000 ( plunge. )
G04 P0 ( dwell for no time -- G64 should not smooth over this point )
X1.54200 Y-1.00700
X1.54400 Y-1.00700
X1.54400 Y-1.00800
X1.54500 Y-1.00800
X1.54500 Y-1.01000
X1.54600 Y-1.01000
X1.54600 Y-1.01100
X1.54700 Y-1.01100
X1.54700 Y-1.01200
X1.54800 Y-1.01200
X1.54800 Y-1.01400
X1.54900 Y-1.01400
X1.54900 Y-1.01500
X1.55000 Y-1.01500
X1.55000 Y-1.01800
X1.55100 Y-1.01800
X1.55100 Y-1.02300
X1.55200 Y-1.02300
X1.55200 Y-1.04400
X1.55100 Y-1.04400
X1.55100 Y-1.04900
X1.55000 Y-1.04900
X1.55000 Y-1.05200
X1.54900 Y-1.05200
X1.54900 Y-1.05300
X1.54800 Y-1.05300
X1.54800 Y-1.05500
X1.54700 Y-1.05500
X1.54700 Y-1.05600
X1.54600 Y-1.05600
X1.54600 Y-1.05700
X1.54500 Y-1.05700
X1.54500 Y-1.05900
X1.54400 Y-1.05900
X1.54400 Y-1.06000
X1.54200 Y-1.06000
X1.54200 Y-1.06100
X1.54100 Y-1.06100
X1.54100 Y-1.06200
X1.53900 Y-1.06200
X1.53900 Y-1.06300
X1.53700 Y-1.06300
X1.53700 Y-1.06400
X1.53600 Y-1.06400
X1.53600 Y-1.06500
X1.53100 Y-1.06500
X1.53100 Y-1.06600
X1.50800 Y-1.06600
X1.50800 Y-1.06500
X1.50300 Y-1.06500
X1.50300 Y-1.06400
X1.50200 Y-1.06400
X1.50200 Y-1.06300
X1.50000 Y-1.06300
X1.50000 Y-1.06200
X1.49800 Y-1.06200
X1.49800 Y-1.06100
X1.49700 Y-1.06100
X1.49700 Y-1.06000
X1.49500 Y-1.06000
X1.49500 Y-1.05900
X1.49400 Y-1.05900
X1.49400 Y-1.05700
X1.49300 Y-1.05700
X1.49300 Y-1.05600
X1.49200 Y-1.05600
X1.49200 Y-1.05500
X1.49100 Y-1.05500
X1.49100 Y-1.05300
X1.49000 Y-1.05300
X1.49000 Y-1.05200
X1.48900 Y-1.05200
X1.48900 Y-1.04900
X1.48800 Y-1.04900
X1.48800 Y-1.04400
X1.48700 Y-1.04400
X1.48700 Y-1.02300
X1.48800 Y-1.02300
X1.48800 Y-1.01800
X1.48900 Y-1.01800
X1.48900 Y-1.01500
X1.49000 Y-1.01500
X1.49000 Y-1.01400
X1.49100 Y-1.01400
X1.49100 Y-1.01200
X1.49200 Y-1.01200
X1.49200 Y-1.01100
X1.49300 Y-1.01100
X1.49300 Y-1.01000
X1.49400 Y-1.01000
X1.49400 Y-1.00800
X1.49500 Y-1.00800
X1.49500 Y-1.00700
X1.49700 Y-1.00700
X1.49700 Y-1.00600
X1.49800 Y-1.00600
X1.49800 Y-1.00500
X1.50000 Y-1.00500
X1.50000 Y-1.00400
X1.50200 Y-1.00400
X1.50200 Y-1.00300
X1.50300 Y-1.00300
X1.50300 Y-1.00200
X1.50800 Y-1.00200
X1.50800 Y-1.00100
X1.53100 Y-1.00100
X1.53100 Y-1.00200
X1.53600 Y-1.00200
X1.53600 Y-1.00300
X1.53700 Y-1.00300
X1.53700 Y-1.00400
X1.53900 Y-1.00400
X1.53900 Y-1.00500
X1.54100 Y-1.00500
X1.54100 Y-1.00600
X1.54200 Y-1.00600
X1.54200 Y-1.00700
G04 P0 ( dwell for no time -- G64 should not smooth over this point )
G00 Z0.10000 ( retract )

G00 X1.65200 Y-1.00700 ( rapid move to begin. )
G01 Z-0.00500 F3.50000 ( plunge. )
G04 P0 ( dwell for no time -- G64 should not smooth over this point )
X1.65200 Y-1.00700
X1.65200 Y-1.06600
X1.58700 Y-1.06600
X1.58700 Y-1.00100
X1.65200 Y-1.00100
X1.65200 Y-1.00700
G04 P0 ( dwell for no time -- G64 should not smooth over this point )
G00 Z0.10000 ( retract )

G00 X0.77400 Y-1.14500 ( rapid move to begin. )
G01 Z-0.00500 F3.50000 ( plunge. )
G04 P0 ( dwell for no time -- G64 should not smooth over this point )
X0.77400 Y-1.14500
X0.77400 Y-1.24000
X0.70100 Y-1.24000
X0.70100 Y-1.13900
X0.77400 Y-1.13900
X0.77400 Y-1.14500
G04 P0 ( dwell for no time -- G64 should not smooth over this point )
G00 Z0.10000 ( retract )

G00 X0.86000 Y-1.14500 ( rapid move to begin. )
G01 Z-0.00500 F3.50000 ( plunge. )
G04 P0 ( dwell for no time -- G64 should not smooth over this point )
X0.86000 Y-1.14500
X0.86200 Y-1.14500
X0.86200 Y-1.14600
X0.86400 Y-1.14600
X0.86400 Y-1.14700
X0.86500 Y-1.14700
X0.86500 Y-1.14800
X0.86600 Y-1.14800
X0.86600 Y-1.15000
X0.86700 Y-1.15000
X0.86700 Y-1.15100
X0.86800 Y-1.15100
X0.86800 Y-1.15300
X0.86900 Y-1.15300
X0.86900 Y-1.15400
X0.87000 Y-1.15400
X0.87000 Y-1.15500
X0.87100 Y-1.15500
X0.87100 Y-1.15700
X0.87200 Y-1.15700
X0.87200 Y-1.16200
X0.87300 Y-1.16200
X0.87300 Y-1.16700
X0.87400 Y-1.16700
X0.87400 Y-1.21200
X0.87300 Y-1.21200
X0.87300 Y-1.21700
X0.87200 Y-1.21700
X0.87200 Y-1.22200
X0.87100 Y-1.22200
X0.87100 Y-1.22400
X0.87000 Y-1.22400
X0.87000 Y-1.22500
X0.86900 Y-1.22500
X0.86900 Y-1.22600
X0.86800 Y-1.22600
X0.86800 Y-1.22800
X0.86700 Y-1.22800
X0.86700 Y-1.22900
X0.86600 Y-1.22900
X0.86600 Y-1.23100
X0.86500 Y-1.23100
X0.86500 Y-1.23200
X0.86400 Y-1.23200
X0.86400 Y-1.23300
X0.86200 Y-1.23300
X0.86200 Y-1.23400
X0.86000 Y-1.23400
X0.86000 Y-1.23500
X0.85900 Y-1.23500
X0.85900 Y-1.23600
X0.85700 Y-1.23600
X0.85700 Y-1.23700
X0.85500 Y-1.23700
X0.85500 Y-1.23800
X0.85200 Y-1.23800
X0.85200 Y-1.23900
X0.84600 Y-1.23900
X0.84600 Y-1.24000
X0.82900 Y-1.24000
X0.82900 Y-1.23900
X0.82300 Y-1.23900
X0.82300 Y-1.23800
X0.82000 Y-1.23800
X0.82000 Y-1.23700
X0.81800 Y-1.23700
X0.81800 Y-1.23600
X0.81600 Y-1.23600
X0.81600 Y-1.23500
X0.81500 Y-1.23500
X0.81500 Y-1.23400
X0.81300 Y-1.23400
X0.81300 Y-1.23300
X0.81100 Y-1.23300
X0.81100 Y-1.23200
X0.81000 Y-1.23200
X0.81000 Y-1.23100
X0.80900 Y-1.23100
X0.80900 Y-1.22900
X0.80800 Y-1.22900
X0.80800 Y-1.22800
X0.80700 Y-1.22800
X0.80700 Y-1.22600
X0.80600 Y-1.22600
X0.80600 Y-1.22500
X0.80500 Y-1.22500
X0.80500 Y-1.22400
X0.80400 Y-1.22400
X0.80400 Y-1.22200
X0.80300 Y-1.22200
X0.80300 Y-1.21700
X0.80200 Y-1.21700
X0.80200 Y-1.21200
X0.80100 Y-1.21200
X0.80100 Y-1.16700
X0.80200 Y-1.16700
X0.80200 Y-1.16200
X0.80300 Y-1.16200
X0.80300 Y-1.15700
X0.80400 Y-1.15700
X0.80400 Y-1.15500
X0.80500 Y-1.15500
X0.80500 Y-1.15400
X0.80600 Y-1.15400
X0.80600 Y-1.15300
X0.80700 Y-1.15300
X0.80700 Y-1.15100
X0.80800 Y-1.15100
X0.80800 Y-1.15000
X0.80900 Y-1.15000
X0.80900 Y-1.14800
X0.81000 Y-1.14800
X0.81000 Y-1.14700
X0.81100 Y-1.14700
X0.81100 Y-1.14600
X0.81300 Y-1.14600
X0.81300 Y-1.14500
X0.81500 Y-1.14500
X0.81500 Y-1.14400
X0.81600 Y-1.14400
X0.81600 Y-1.14300
X0.81800 Y-1.14300
X0.81800 Y-1.14200
X0.82000 Y-1.14200
X0.82000 Y-1.14100
X0.82300 Y-1.14100
X0.82300 Y-1.14000
X0.82900 Y-1.14000
X0.82900 Y-1.13900
X0.84600 Y-1.13900
X0.84600 Y-1.14000
X0.85200 Y-1.14000
X0.85200 Y-1.14100
X0.85500 Y-1.14100
X0.85500 Y-1.14200
X0.85700 Y-1.14200
X0.85700 Y-1.14300
X0.85900 Y-1.14300
X0.85900 Y-1.14400
X0.86000 Y-1.14400
X0.86000 Y-1.14500
G04 P0 ( dwell for no time -- G64 should not smooth over this point )
G00 Z0.10000 ( retract )

G00 X0.96000 Y-1.14500 ( rapid move to begin. )
G01 Z-0.00500 F3.50000 ( plunge. )
G04 P0 ( dwell for no time -- G64 should not smooth over this point )
X0.96000 Y-1.14500
X0.96200 Y-1.14500
X0.96200 Y-1.14600
X0.96400 Y-1.14600
X0.96400 Y-1.14700
X0.96500 Y-1.14700
X0.96500 Y-1.14800
X0.96600 Y-1.14800
X0.96600 Y-1.15000
X0.96700 Y-1.15000
X0.96700 Y-1.15100
X0.96800 Y-1.15100
X0.96800 Y-1.15300
X0.96900 Y-1.15300
X0.96900 Y-1.15400
X0.97000 Y-1.15400
X0.97000 Y-1.15500
X0.97100 Y-1.15500
X0.97100 Y-1.15700
X0.97200 Y-1.15700
X0.97200 Y-1.16200
X0.97300 Y-1.16200
X0.97300 Y-1.16700
X0.97400 Y-1.16700
X0.97400 Y-1.21200
X0.97300 Y-1.21200
X0.97300 Y-1.21700
X0.97200 Y-1.21700
X0.97200 Y-1.22200
X0.97100 Y-1.22200
X0.97100 Y-1.22400
X0.97000 Y-1.22400
X0.97000 Y-1.22500
X0.96900 Y-1.22500
X0.96900 Y-1.22600
X0.96800 Y-1.22600
X0.96800 Y-1.22800
X0.96700 Y-1.22800
X0.96700 Y-1.22900
X0.96600 Y-1.22900
X0.96600 Y-1.23100
X0.96500 Y-1.23100
X0.96500 Y-1.23200
X0.96400 Y-1.23200
X0.96400 Y-1.23300
X0.96200 Y-1.23300
X0.96200 Y-1.23400
X0.96000 Y-1.23400
X0.96000 Y-1.23500
X0.95900 Y-1.23500
X0.95900 Y-1.23600
X0.95700 Y-1.23600
X0.95700 Y-1.23700
X0.95500 Y-1.23700
X0.95500 Y-1.23800
X0.95200 Y-1.23800
X0.95200 Y-1.23900
X0.94600 Y-1.23900
X0.94600 Y-1.24000
X0.92900 Y-1.24000
X0.92900 Y-1.23900
X0.92300 Y-1.23900
X0.92300 Y-1.23800
X0.92000 Y-1.23800
X0.92000 Y-1.23700
X0.91800 Y-1.23700
X0.91800 Y-1.23600
X0.91600 Y-1.23600
X0.91600 Y-1.23500
X0.91500 Y-1.23500
X0.91500 Y-1.23400
X0.91300 Y-1.23400
X0.91300 Y-1.23300
X0.91100 Y-1.23300
X0.91100 Y-1.23200
X0.91000 Y-1.23200
X0.91000 Y-1.23100
X0.90900 Y-1.23100
X0.90900 Y-1.22900
X0.90800 Y-1.22900
X0.90800 Y-1.22800
X0.90700 Y-1.22800
X0.90700 Y-1.22600
X0.90600 Y-1.22600
X0.90600 Y-1.22500
X0.90500 Y-1.22500
X0.90500 Y-1.22400
X0.90400 Y-1.22400
X0.90400 Y-1.22200
X0.90300 Y-1.22200
X0.90300 Y-1.21700
X0.90200 Y-1.21700
X0.90200 Y-1.21200
X0.90100 Y-1.21200
X0.90100 Y-1.16700
X0.90200 Y-1.16700
X0.90200 Y-1.16200
X0.90300 Y-1.16200
X0.90300 Y-1.15700
X0.90400 Y-1.15700
X0.90400 Y-1.15500
X0.90500 Y-1.15500
X0.90500 Y-1.15400
X0.90600 Y-1.15400
X0.90600 Y-1.15300
X0.90700 Y-1.15300
X0.90700 Y-1.15100
X0.90800 Y-1.15100
X0.90800 Y-1.15000
X0.90900 Y-1.15000
X0.90900 Y-1.14800
X0.91000 Y-1.14800
X0.91000 Y-1.14700
X0.91100 Y-1.14700
X0.91100 Y-1.14600
X0.91300 Y-1.14600
X0.91300 Y-1.14500
X0.91500 Y-1.14500
X0.91500 Y-1.14400
X0.91600 Y-1.14400
X0.91600 Y-1.14300
X0.91800 Y-1.14300
X0.91800 Y-1.14200
X0.92000 Y-1.14200
X0.92000 Y-1.14100
X0.92300 Y-1.14100
X0.92300 Y-1.14000
X0.92900 Y-1.14000
X0.92900 Y-1.13900
X0.94600 Y-1.13900
X0.94600 Y-1.14000
X0.95200 Y-1.14000
X0.95200 Y-1.14100
X0.95500 Y-1.14100
X0.95500 Y-1.14200
X0.95700 Y-1.14200
X0.95700 Y-1.14300
X0.95900 Y-1.14300
X0.95900 Y-1.14400
X0.96000 Y-1.14400
X0.96000 Y-1.14500
G04 P0 ( dwell for no time -- G64 should not smooth over this point )
G00 Z0.10000 ( retract )

G00 X1.06000 Y-1.14500 ( rapid move to begin. )
G01 Z-0.00500 F3.50000 ( plunge. )
G04 P0 ( dwell for no time -- G64 should not smooth over this point )
X1.06000 Y-1.14500
X1.06200 Y-1.14500
X1.06200 Y-1.14600
X1.06400 Y-1.14600
X1.06400 Y-1.14700
X1.06500 Y-1.14700
X1.06500 Y-1.14800
X1.06600 Y-1.14800
X1.06600 Y-1.15000
X1.06700 Y-1.15000
X1.06700 Y-1.15100
X1.06800 Y-1.15100
X1.06800 Y-1.15300
X1.06900 Y-1.15300
X1.06900 Y-1.15400
X1.07000 Y-1.15400
X1.07000 Y-1.15500
X1.07100 Y-1.15500
X1.07100 Y-1.15700
X1.07200 Y-1.15700
X1.07200 Y-1.16200
X1.07300 Y-1.16200
X1.07300 Y-1.16700
X1.07400 Y-1.16700
X1.07400 Y-1.21200
X1.07300 Y-1.21200
X1.07300 Y-1.21700
X1.07200 Y-1.21700
X1.07200 Y-1.22200
X1.07100 Y-1.22200
X1.07100 Y-1.22400
X1.07000 Y-1.22400
X1.07000 Y-1.22500
X1.06900 Y-1.22500
X1.06900 Y-1.22600
X1.06800 Y-1.22600
X1.06800 Y-1.22800
X1.06700 Y-1.22800
X1.06700 Y-1.22900
X1.06600 Y-1.22900
X1.06600 Y-1.23100
X1.06500 Y-1.23100
X1.06500 Y-1.23200
X1.06400 Y-1.23200
X1.06400 Y-1.23300
X1.06200 Y-1.23300
X1.06200 Y-1.23400
X1.06000 Y-1.23400
X1.06000 Y-1.23500
X1.05900 Y-1.23500
X1.05900 Y-1.23600
X1.05700 Y-1.23600
X1.05700 Y-1.23700
X1.05500 Y-1.23700
X1.05500 Y-1.23800
X1.05200 Y-1.23800
X1.05200 Y-1.23900
X1.04600 Y-1.23900
X1.04600 Y-1.24000
X1.02900 Y-1.24000
X1.02900 Y-1.23900
X1.02300 Y-1.23900
X1.02300 Y-1.23800
X1.02000 Y-1.23800
X1.02000 Y-1.23700
X1.01800 Y-1.23700
X1.01800 Y-1.23600
X1.01600 Y-1.23600
X1.01600 Y-1.23500
X1.01500 Y-1.23500
X1.01500 Y-1.23400
X1.01300 Y-1.23400
X1.01300 Y-1.23300
X1.01100 Y-1.23300
X1.01100 Y-1.23200
X1.01000 Y-1.23200
X1.01000 Y-1.23100
X1.00900 Y-1.23100
X1.00900 Y-1.22900
X1.00800 Y-1.22900
X1.00800 Y-1.22800
X1.00700 Y-1.22800
X1.00700 Y-1.22600
X1.00600 Y-1.22600
X1.00600 Y-1.22500
X1.00500 Y-1.22500
X1.00500 Y-1.22400
X1.00400 Y-1.22400
X1.00400 Y-1.22200
X1.00300 Y-1.22200
X1.00300 Y-1.21700
X1.00200 Y-1.21700
X1.00200 Y-1.21200
X1.00100 Y-1.21200
X1.00100 Y-1.16700
X1.00200 Y-1.16700
X1.00200 Y-1.16200
X1.00300 Y-1.16200
X1.00300 Y-1.15700
X1.00400 Y-1.15700
X1.00400 Y-1.15500
X1.00500 Y-1.15500
X1.00500 Y-1.15400
X1.00600 Y-1.15400
X1.00600 Y-1.15300
X1.00700 Y-1.15300
X1.00700 Y-1.15100
X1.00800 Y-1.15100
X1.00800 Y-1.15000
X1.00900 Y-1.15000
X1.00900 Y-1.14800
X1.01000 Y-1.14800
X1.01000 Y-1.14700
X1.01100 Y-1.14700
X1.01100 Y-1.14600
X1.01300 Y-1.14600
X1.01300 Y-1.14500
X1.01500 Y-1.14500
X1.01500 Y-1.14400
X1.01600 Y-1.14400
X1.01600 Y-1.14300
X1.01800 Y-1.14300
X1.01800 Y-1.14200
X1.02000 Y-1.14200
X1.02000 Y-1.14100
X1.02300 Y-1.14100
X1.02300 Y-1.14000
X1.02900 Y-1.14000
X1.02900 Y-1.13900
X1.04600 Y-1.13900
X1.04600 Y-1.14000
X1.05200 Y-1.14000
X1.05200 Y-1.14100
X1.05500 Y-1.14100
X1.05500 Y-1.14200
X1.05700 Y-1.14200
X1.05700 Y-1.14300
X1.05900 Y-1.14300
X1.05900 Y-1.14400
X1.06000 Y-1.14400
X1.06000 Y-1.14500
G04 P0 ( dwell for no time -- G64 should not smooth over this point )
G00 Z0.10000 ( retract )

G00 X1.44200 Y-1.27700 ( rapid move to begin. )
G01 Z-0.00500 F3.50000 ( plunge. )
G04 P0 ( dwell for no time -- G64 should not smooth over this point )
X1.44200 Y-1.27700
X1.44400 Y-1.27700
X1.44400 Y-1.27800
X1.44500 Y-1.27800
X1.44500 Y-1.28000
X1.44600 Y-1.28000
X1.44600 Y-1.28100
X1.44700 Y-1.28100
X1.44700 Y-1.28200
X1.44800 Y-1.28200
X1.44800 Y-1.28400
X1.44900 Y-1.28400
X1.44900 Y-1.28500
X1.45000 Y-1.28500
X1.45000 Y-1.28800
X1.45100 Y-1.28800
X1.45100 Y-1.29300
X1.45200 Y-1.29300
X1.45200 Y-1.31400
X1.45100 Y-1.31400
X1.45100 Y-1.31900
X1.45000 Y-1.31900
X1.45000 Y-1.32200
X1.44900 Y-1.32200
X1.44900 Y-1.32300
X1.44800 Y-1.32300
X1.44800 Y-1.32500
X1.44700 Y-1.32500
X1.44700 Y-1.32600
X1.44600 Y-1.32600
X1.44600 Y-1.32700
X1.44500 Y-1.32700
X1.44500 Y-1.32900
X1.44400 Y-1.32900
X1.44400 Y-1.33000
X1.44200 Y-1.33000
X1.44200 Y-1.33100
X1.44100 Y-1.33100
X1.44100 Y-1.33200
X1.43900 Y-1.33200
X1.43900 Y-1.33300
X1.43700 Y-1.33300
X1.43700 Y-1.33400
X1.43600 Y-1.33400
X1.43600 Y-1.33500
X1.43100 Y-1.33500
X1.43100 Y-1.33600
X1.40800 Y-1.33600
X1.40800 Y-1.33500
X1.40300 Y-1.33500
X1.40300 Y-1.33400
X1.40200 Y-1.33400
X1.40200 Y-1.33300
X1.40000 Y-1.33300
X1.40000 Y-1.33200
X1.39800 Y-1.33200
X1.39800 Y-1.33100
X1.39700 Y-1.33100
X1.39700 Y-1.33000
X1.39500 Y-1.33000
X1.39500 Y-1.32900
X1.39400 Y-1.32900
X1.39400 Y-1.32700
X1.39300 Y-1.32700
X1.39300 Y-1.32600
X1.39200 Y-1.32600
X1.39200 Y-1.32500
X1.39100 Y-1.32500
X1.39100 Y-1.32300
X1.39000 Y-1.32300
X1.39000 Y-1.32200
X1.38900 Y-1.32200
X1.38900 Y-1.31900
X1.38800 Y-1.31900
X1.38800 Y-1.31400
X1.38700 Y-1.31400
X1.38700 Y-1.29300
X1.38800 Y-1.29300
X1.38800 Y-1.28800
X1.38900 Y-1.28800
X1.38900 Y-1.28500
X1.39000 Y-1.28500
X1.39000 Y-1.28400
X1.39100 Y-1.28400
X1.39100 Y-1.28200
X1.39200 Y-1.28200
X1.39200 Y-1.28100
X1.39300 Y-1.28100
X1.39300 Y-1.28000
X1.39400 Y-1.28000
X1.39400 Y-1.27800
X1.39500 Y-1.27800
X1.39500 Y-1.27700
X1.39700 Y-1.27700
X1.39700 Y-1.27600
X1.39800 Y-1.27600
X1.39800 Y-1.27500
X1.40000 Y-1.27500
X1.40000 Y-1.27400
X1.40200 Y-1.27400
X1.40200 Y-1.27300
X1.40300 Y-1.27300
X1.40300 Y-1.27200
X1.40800 Y-1.27200
X1.40800 Y-1.27100
X1.43100 Y-1.27100
X1.43100 Y-1.27200
X1.43600 Y-1.27200
X1.43600 Y-1.27300
X1.43700 Y-1.27300
X1.43700 Y-1.27400
X1.43900 Y-1.27400
X1.43900 Y-1.27500
X1.44100 Y-1.27500
X1.44100 Y-1.27600
X1.44200 Y-1.27600
X1.44200 Y-1.27700
G04 P0 ( dwell for no time -- G64 should not smooth over this point )
G00 Z0.10000 ( retract )

G00 X1.54200 Y-1.27700 ( rapid move to begin. )
G01 Z-0.00500 F3.50000 ( plunge. )
G04 P0 ( dwell for no time -- G64 should not smooth over this point )
X1.54200 Y-1.27700
X1.54400 Y-1.27700
X1.54400 Y-1.27800
X1.54500 Y-1.27800
X1.54500 Y-1.28000
X1.54600 Y-1.28000
X1.54600 Y-1.28100
X1.54700 Y-1.28100
X1.54700 Y-1.28200
X1.54800 Y-1.28200
X1.54800 Y-1.28400
X1.54900 Y-1.28400
X1.54900 Y-1.28500
X1.55000 Y-1.28500
X1.55000 Y-1.28800
X1.55100 Y-1.28800
X1.55100 Y-1.29300
X1.55200 Y-1.29300
X1.55200 Y-1.31400
X1.55100 Y-1.31400
X1.55100 Y-1.31900
X1.55000 Y-1.31900
X1.55000 Y-1.32200
X1.54900 Y-1.32200
X1.54900 Y-1.32300
X1.54800 Y-1.32300
X1.54800 Y-1.32500
X1.54700 Y-1.32500
X1.54700 Y-1.32600
X1.54600 Y-1.32600
X1.54600 Y-1.32700
X1.54500 Y-1.32700
X1.54500 Y-1.32900
X1.54400 Y-1.32900
X1.54400 Y-1.33000
X1.54200 Y-1.33000
X1.54200 Y-1.33100
X1.54100 Y-1.33100
X1.54100 Y-1.33200
X1.53900 Y-1.33200
X1.53900 Y-1.33300
X1.53700 Y-1.33300
X1.53700 Y-1.33400
X1.53600 Y-1.33400
X1.53600 Y-1.33500
X1.53100 Y-1.33500
X1.53100 Y-1.33600
X1.50800 Y-1.33600
X1.50800 Y-1.33500
X1.50300 Y-1.33500
X1.50300 Y-1.33400
X1.50200 Y-1.33400
X1.50200 Y-1.33300
X1.50000 Y-1.33300
X1.50000 Y-1.33200
X1.49800 Y-1.33200
X1.49800 Y-1.33100
X1.49700 Y-1.33100
X1.49700 Y-1.33000
X1.49500 Y-1.33000
X1.49500 Y-1.32900
X1.49400 Y-1.32900
X1.49400 Y-1.32700
X1.49300 Y-1.32700
X1.49300 Y-1.32600
X1.49200 Y-1.32600
X1.49200 Y-1.32500
X1.49100 Y-1.32500
X1.49100 Y-1.32300
X1.49000 Y-1.32300
X1.49000 Y-1.32200
X1.48900 Y-1.32200
X1.48900 Y-1.31900
X1.48800 Y-1.31900
X1.48800 Y-1.31400
X1.48700 Y-1.31400
X1.48700 Y-1.29300
X1.48800 Y-1.29300
X1.48800 Y-1.28800
X1.48900 Y-1.28800
X1.48900 Y-1.28500
X1.49000 Y-1.28500
X1.49000 Y-1.28400
X1.49100 Y-1.28400
X1.49100 Y-1.28200
X1.49200 Y-1.28200
X1.49200 Y-1.28100
X1.49300 Y-1.28100
X1.49300 Y-1.28000
X1.49400 Y-1.28000
X1.49400 Y-1.27800
X1.49500 Y-1.27800
X1.49500 Y-1.27700
X1.49700 Y-1.27700
X1.49700 Y-1.27600
X1.49800 Y-1.27600
X1.49800 Y-1.27500
X1.50000 Y-1.27500
X1.50000 Y-1.27400
X1.50200 Y-1.27400
X1.50200 Y-1.27300
X1.50300 Y-1.27300
X1.50300 Y-1.27200
X1.50800 Y-1.27200
X1.50800 Y-1.27100
X1.53100 Y-1.27100
X1.53100 Y-1.27200
X1.53600 Y-1.27200
