( pcb2gcode 1.1.4 )

( This file uses 2 drill bit sizes. )

G94     ( Inches per minute feed rate. )
G20     ( Units == INCHES.             )
G90     ( Absolute coordinates.        )
S8000  ( RPM spindle speed.           )

G00 Z1.00000 ( Retract )
T1
M5      ( Spindle stop.                )
M6      ( Tool change.                 )
(MSG, CHANGE TOOL BIT: to drill size 0.03200 inch)
M0      ( Temporary machine stop.      )
M3      ( Spindle on clockwise.        )

G81 R0.10000 Z-0.12500 F3.50000 X1.69000 Y-1.36800
X1.67800 Y-0.49400
X1.63200 Y-1.62000
X1.63200 Y-1.92000
X1.62800 Y-0.65200
X1.62800 Y-0.95200
X1.59000 Y-1.36800
X1.57800 Y-0.49400
X1.49000 Y-1.36800
X1.47400 Y-0.64800
X1.47400 Y-0.94800
X1.40800 Y-0.47000
X1.40000 Y-1.70800
X1.40000 Y-1.90800
X1.39000 Y-1.36800
X1.30800 Y-0.47000
X1.29000 Y-1.36800
X1.19000 Y-1.36800
X1.14200 Y-1.62400
X1.14200 Y-1.92400
X1.11800 Y-0.36000
X1.11800 Y-0.66000
X1.10200 Y-0.89000
X1.10200 Y-1.19000
X1.04200 Y-1.62400
X1.04200 Y-1.92400
X1.01800 Y-0.36000
X1.01800 Y-0.66000
X1.00200 Y-0.89000
X1.00200 Y-1.19000
X1.00200 Y-1.38400
X0.94200 Y-1.62400
X0.94200 Y-1.92400
X0.91800 Y-0.36000
X0.91800 Y-0.66000
X0.90200 Y-0.89000
X0.90200 Y-1.19000
X0.90200 Y-1.38400
X0.84200 Y-1.62400
X0.84200 Y-1.92400
X0.81800 Y-0.36000
X0.81800 Y-0.66000
X0.80200 Y-0.89000
X0.80200 Y-1.19000
X0.58200 Y-0.38800
X0.52000 Y-1.03400
X0.48400 Y-0.69600
X0.48200 Y-0.38800
X0.48200 Y-0.48800
X0.42000 Y-1.03400
X0.42000 Y-1.30400
X0.42000 Y-1.56000
X0.38400 Y-0.69600
X0.32000 Y-1.03400
X0.32000 Y-1.30400
X0.32000 Y-1.56000
X0.22800 Y-0.52400
X0.22800 Y-0.82400
X0.22000 Y-1.03400
X0.22000 Y-1.30400
X0.22000 Y-1.56000


G00 Z1.00000 ( Retract )
T2
M5      ( Spindle stop.                )
M6      ( Tool change.                 )
(MSG, CHANGE TOOL BIT: to drill size 0.12000 inch)
M0      ( Temporary machine stop.      )
M3      ( Spindle on clockwise.        )

G81 R0.10000 Z-0.12500 F3.50000 X1.73200 Y-0.19400
X1.73200 Y-2.10000
X0.11800 Y-0.19400
X0.11800 Y-2.10000


G00 Z1.00000 ( All done -- retract )

M9 ( Coolant off. )
M2 ( Program end. )

