;row 3, col 2, min_width 0, min_height 0, max_width -1, max_height -1
;hori_sep 2
;vert_sep 3
;bounds:
;x_min: 0
;x_max: 19.2786
;y_min: -22.0472
;y_max: -1.016
;z_min: -3.175
;z_max: 25.4
( pcb2gcode 1.1.4 )

G94     ( Inches per minute feed rate. )
G20     ( Units == INCHES.             )
G90     ( Absolute coordinates.        )
S8000  ( RPM spindle speed.           )
M3      ( Spindle on clockwise.        )

f100

G64 P0.00500 ( set maximum deviation from commanded toolpath )

G04 P0 ( dwell for no time -- G64 should not smooth over this point )
G00 Z0.10000 ( retract )

G00 X0.04300 Y-0.04600 ( rapid move to begin. )
G01 Z-0.00500 
G04 P0 ( dwell for no time -- G64 should not smooth over this point )
X0.04300 Y-0.04600
X0.04300 Y-0.86400
X0.04400 Y-0.86400
X0.04400 Y-0.86600
X0.04500 Y-0.86600
X0.04500 Y-0.86700
X0.04600 Y-0.86700
X0.04600 Y-0.86800
X0.75600 Y-0.86800
X0.75600 Y-0.86700
X0.75700 Y-0.86700
X0.75700 Y-0.86600
X0.75800 Y-0.86600
X0.75800 Y-0.86400
X0.75900 Y-0.86400
X0.75900 Y-0.04400
X0.75800 Y-0.04400
X0.75800 Y-0.04200
X0.75700 Y-0.04200
X0.75700 Y-0.04100
X0.75600 Y-0.04100
X0.75600 Y-0.04000
X0.04600 Y-0.04000
X0.04600 Y-0.04100
X0.04500 Y-0.04100
X0.04500 Y-0.04200
X0.04400 Y-0.04200
X0.04400 Y-0.04400
X0.04300 Y-0.04400
X0.04300 Y-0.04600
G04 P0 ( dwell for no time -- G64 should not smooth over this point )
G00 Z0.10000 ( retract )

G00 X0.25000 Y-0.09300 ( rapid move to begin. )
G01 Z-0.00500 
G04 P0 ( dwell for no time -- G64 should not smooth over this point )
X0.25000 Y-0.09300
X0.24900 Y-0.09300
X0.24900 Y-0.09400
X0.24800 Y-0.09400
X0.24800 Y-0.09500
X0.24700 Y-0.09500
X0.24700 Y-0.09600
X0.24600 Y-0.09600
X0.24600 Y-0.09700
X0.24500 Y-0.09700
X0.24500 Y-0.09800
X0.24400 Y-0.09800
X0.24400 Y-0.09900
X0.24300 Y-0.09900
X0.24300 Y-0.10000
X0.24200 Y-0.10000
X0.24200 Y-0.10100
X0.24100 Y-0.10100
X0.24100 Y-0.10200
X0.24000 Y-0.10200
X0.24000 Y-0.10300
X0.23900 Y-0.10300
X0.23900 Y-0.10400
X0.23800 Y-0.10400
X0.23800 Y-0.10500
X0.23700 Y-0.10500
X0.23700 Y-0.10600
X0.23600 Y-0.10600
X0.23600 Y-0.10700
X0.23500 Y-0.10700
X0.23500 Y-0.10800
X0.23400 Y-0.10800
X0.23400 Y-0.10900
X0.23300 Y-0.10900
X0.23300 Y-0.11000
X0.23200 Y-0.11000
X0.23200 Y-0.11100
X0.23100 Y-0.11100
X0.23100 Y-0.11200
X0.23000 Y-0.11200
X0.23000 Y-0.11300
X0.22900 Y-0.11300
X0.22900 Y-0.11400
X0.22800 Y-0.11400
X0.22800 Y-0.11500
X0.22700 Y-0.11500
X0.22700 Y-0.11600
X0.22600 Y-0.11600
X0.22600 Y-0.11700
X0.22500 Y-0.11700
X0.22500 Y-0.11800
X0.22400 Y-0.11800
X0.22400 Y-0.11900
X0.22300 Y-0.11900
X0.22300 Y-0.12000
X0.22200 Y-0.12000
X0.22200 Y-0.12100
X0.22100 Y-0.12100
X0.22100 Y-0.12200
X0.22000 Y-0.12200
X0.22000 Y-0.12300
X0.21900 Y-0.12300
X0.21900 Y-0.12400
X0.21800 Y-0.12400
X0.21800 Y-0.12500
X0.21700 Y-0.12500
X0.21700 Y-0.12600
X0.21600 Y-0.12600
X0.21600 Y-0.12700
X0.21500 Y-0.12700
X0.21500 Y-0.12800
X0.21400 Y-0.12800
X0.21400 Y-0.12900
X0.21300 Y-0.12900
X0.21300 Y-0.13000
X0.21200 Y-0.13000
X0.21200 Y-0.13100
X0.21100 Y-0.13100
X0.21100 Y-0.13200
X0.21000 Y-0.13200
X0.21000 Y-0.13300
X0.20900 Y-0.13300
X0.20900 Y-0.13400
X0.20800 Y-0.13400
X0.20800 Y-0.13500
X0.20700 Y-0.13500
X0.20700 Y-0.13600
X0.20600 Y-0.13600
X0.20600 Y-0.13700
X0.20500 Y-0.13700
X0.20500 Y-0.13800
X0.20400 Y-0.13800
X0.20400 Y-0.13900
X0.20300 Y-0.13900
X0.20300 Y-0.14100
X0.20200 Y-0.14100
X0.20200 Y-0.14300
X0.20100 Y-0.14300
X0.20100 Y-0.21500
X0.19700 Y-0.21500
X0.19700 Y-0.21600
X0.19500 Y-0.21600
X0.19500 Y-0.21700
X0.19400 Y-0.21700
X0.19400 Y-0.21800
X0.19200 Y-0.21800
X0.19200 Y-0.21900
X0.19000 Y-0.21900
X0.19000 Y-0.22000
X0.18900 Y-0.22000
X0.18900 Y-0.22100
X0.18700 Y-0.22100
X0.18700 Y-0.22200
X0.18600 Y-0.22200
X0.18600 Y-0.22300
X0.18500 Y-0.22300
X0.18500 Y-0.22500
X0.18400 Y-0.22500
X0.18400 Y-0.22600
X0.18300 Y-0.22600
X0.18300 Y-0.22700
X0.18200 Y-0.22700
X0.18200 Y-0.22900
X0.18100 Y-0.22900
X0.18100 Y-0.23000
X0.18000 Y-0.23000
X0.18000 Y-0.23100
X0.17900 Y-0.23100
X0.17900 Y-0.23400
X0.17800 Y-0.23400
X0.17800 Y-0.23800
X0.17700 Y-0.23800
X0.17700 Y-0.26500
X0.17800 Y-0.26500
X0.17800 Y-0.26900
X0.17900 Y-0.26900
X0.17900 Y-0.27100
X0.18000 Y-0.27100
X0.18000 Y-0.27300
X0.18100 Y-0.27300
X0.18100 Y-0.27400
X0.18200 Y-0.27400
X0.18200 Y-0.27600
X0.18300 Y-0.27600
X0.18300 Y-0.27700
X0.18400 Y-0.27700
X0.18400 Y-0.27800
X0.18500 Y-0.27800
X0.18500 Y-0.28000
X0.18600 Y-0.28000
X0.18600 Y-0.28100
X0.18700 Y-0.28100
X0.18700 Y-0.28200
X0.18900 Y-0.28200
X0.18900 Y-0.28300
X0.19000 Y-0.28300
X0.19000 Y-0.28400
X0.19200 Y-0.28400
X0.19200 Y-0.28500
X0.19400 Y-0.28500
X0.19400 Y-0.28600
X0.19500 Y-0.28600
X0.19500 Y-0.28700
X0.19700 Y-0.28700
X0.19700 Y-0.28800
X0.20300 Y-0.28800
X0.20300 Y-0.28900
X0.22600 Y-0.28900
X0.22600 Y-0.28800
X0.23200 Y-0.28800
X0.23200 Y-0.28700
X0.23400 Y-0.28700
X0.23400 Y-0.28600
X0.23500 Y-0.28600
X0.23500 Y-0.28500
X0.23700 Y-0.28500
X0.23700 Y-0.28400
X0.23900 Y-0.28400
X0.23900 Y-0.28300
X0.24000 Y-0.28300
X0.24000 Y-0.28200
X0.24200 Y-0.28200
X0.24200 Y-0.28100
X0.24300 Y-0.28100
X0.24300 Y-0.28000
X0.24400 Y-0.28000
X0.24400 Y-0.27800
X0.24500 Y-0.27800
X0.24500 Y-0.27700
X0.24600 Y-0.27700
X0.24600 Y-0.27600
X0.24700 Y-0.27600
X0.24700 Y-0.27400
X0.24800 Y-0.27400
X0.24800 Y-0.27300
X0.24900 Y-0.27300
X0.24900 Y-0.27100
X0.25000 Y-0.27100
X0.25000 Y-0.26900
X0.25100 Y-0.26900
X0.25100 Y-0.26500
X0.25200 Y-0.26500
X0.25200 Y-0.23800
X0.25100 Y-0.23800
X0.25100 Y-0.23400
X0.25000 Y-0.23400
X0.25000 Y-0.23100
X0.24900 Y-0.23100
X0.24900 Y-0.23000
X0.24800 Y-0.23000
X0.24800 Y-0.22900
X0.24700 Y-0.22900
X0.24700 Y-0.22700
X0.24600 Y-0.22700
X0.24600 Y-0.22600
X0.24500 Y-0.22600
X0.24500 Y-0.22500
X0.24400 Y-0.22500
X0.24400 Y-0.22300
X0.24300 Y-0.22300
X0.24300 Y-0.22200
X0.24200 Y-0.22200
X0.24200 Y-0.22100
X0.24000 Y-0.22100
X0.24000 Y-0.22000
X0.23900 Y-0.22000
X0.23900 Y-0.21900
X0.23700 Y-0.21900
X0.23700 Y-0.21800
X0.23500 Y-0.21800
X0.23500 Y-0.21700
X0.23400 Y-0.21700
X0.23400 Y-0.21600
X0.23200 Y-0.21600
X0.23200 Y-0.21500
X0.22700 Y-0.21500
X0.22700 Y-0.15800
X0.22800 Y-0.15800
X0.22800 Y-0.15700
X0.22900 Y-0.15700
X0.22900 Y-0.15600
X0.23000 Y-0.15600
X0.23000 Y-0.15500
X0.23100 Y-0.15500
X0.23100 Y-0.15400
X0.23200 Y-0.15400
X0.23200 Y-0.15300
X0.23300 Y-0.15300
X0.23300 Y-0.15200
X0.23400 Y-0.15200
X0.23400 Y-0.15100
X0.23500 Y-0.15100
X0.23500 Y-0.15000
X0.23600 Y-0.15000
X0.23600 Y-0.14900
X0.23700 Y-0.14900
X0.23700 Y-0.14800
X0.23800 Y-0.14800
X0.23800 Y-0.14700
X0.23900 Y-0.14700
X0.23900 Y-0.14600
X0.24000 Y-0.14600
X0.24000 Y-0.14500
X0.24100 Y-0.14500
X0.24100 Y-0.14400
X0.24200 Y-0.14400
X0.24200 Y-0.14300
X0.24300 Y-0.14300
X0.24300 Y-0.14200
X0.24400 Y-0.14200
X0.24400 Y-0.14100
X0.24500 Y-0.14100
X0.24500 Y-0.14000
X0.24600 Y-0.14000
X0.24600 Y-0.13900
X0.24700 Y-0.13900
X0.24700 Y-0.13800
X0.24800 Y-0.13800
X0.24800 Y-0.13700
X0.24900 Y-0.13700
X0.24900 Y-0.13600
X0.25000 Y-0.13600
X0.25000 Y-0.13500
X0.25100 Y-0.13500
X0.25100 Y-0.13400
X0.25200 Y-0.13400
X0.25200 Y-0.13300
X0.25300 Y-0.13300
X0.25300 Y-0.13200
X0.25400 Y-0.13200
X0.25400 Y-0.13100
X0.25500 Y-0.13100
X0.25500 Y-0.13000
X0.25600 Y-0.13000
X0.25600 Y-0.12900
X0.25700 Y-0.12900
X0.25700 Y-0.12800
X0.25800 Y-0.12800
X0.25800 Y-0.12700
X0.25900 Y-0.12700
X0.25900 Y-0.12600
X0.26000 Y-0.12600
X0.26000 Y-0.12500
X0.26100 Y-0.12500
X0.26100 Y-0.12400
X0.26200 Y-0.12400
X0.26200 Y-0.12300
X0.26300 Y-0.12300
X0.26300 Y-0.12200
X0.26400 Y-0.12200
X0.26400 Y-0.12100
X0.26500 Y-0.12100
X0.26500 Y-0.12000
X0.26600 Y-0.12000
X0.26600 Y-0.11900
X0.26700 Y-0.11900
X0.26700 Y-0.11800
X0.26800 Y-0.11800
X0.26800 Y-0.11700
X0.26900 Y-0.11700
X0.26900 Y-0.11600
X0.27000 Y-0.11600
X0.27000 Y-0.11500
X0.27100 Y-0.11500
X0.27100 Y-0.11400
X0.27200 Y-0.11400
X0.27200 Y-0.11300
X0.55400 Y-0.11300
X0.55400 Y-0.11400
X0.55500 Y-0.11400
X0.55500 Y-0.11500
X0.55600 Y-0.11500
X0.55600 Y-0.11600
X0.55700 Y-0.11600
X0.55700 Y-0.11700
X0.55800 Y-0.11700
X0.55800 Y-0.11800
X0.55900 Y-0.11800
X0.55900 Y-0.11900
X0.56000 Y-0.11900
X0.56000 Y-0.12000
X0.56100 Y-0.12000
X0.56100 Y-0.12100
X0.56200 Y-0.12100
X0.56200 Y-0.12200
X0.56300 Y-0.12200
X0.56300 Y-0.12300
X0.56400 Y-0.12300
X0.56400 Y-0.12400
X0.56500 Y-0.12400
X0.56500 Y-0.12500
X0.56600 Y-0.12500
X0.56600 Y-0.12600
X0.56700 Y-0.12600
X0.56700 Y-0.12700
X0.56800 Y-0.12700
X0.56800 Y-0.12800
X0.56900 Y-0.12800
X0.56900 Y-0.12900
X0.57000 Y-0.12900
X0.57000 Y-0.13000
X0.57100 Y-0.13000
X0.57100 Y-0.13100
X0.57200 Y-0.13100
X0.57200 Y-0.13200
X0.57300 Y-0.13200
X0.57300 Y-0.13300
X0.57400 Y-0.13300
X0.57400 Y-0.13400
X0.57500 Y-0.13400
X0.57500 Y-0.13500
X0.57600 Y-0.13500
X0.57600 Y-0.13600
X0.57700 Y-0.13600
X0.57700 Y-0.13700
X0.57800 Y-0.13700
X0.57800 Y-0.13800
X0.57900 Y-0.13800
X0.57900 Y-0.13900
X0.58000 Y-0.13900
X0.58000 Y-0.14000
X0.58100 Y-0.14000
X0.58100 Y-0.14100
X0.58200 Y-0.14100
X0.58200 Y-0.14200
X0.58300 Y-0.14200
X0.58300 Y-0.14300
X0.58400 Y-0.14300
X0.58400 Y-0.14400
X0.58500 Y-0.14400
X0.58500 Y-0.14500
X0.58600 Y-0.14500
X0.58600 Y-0.14600
X0.58700 Y-0.14600
X0.58700 Y-0.14700
X0.58800 Y-0.14700
X0.58800 Y-0.14800
X0.58900 Y-0.14800
X0.58900 Y-0.14900
X0.59000 Y-0.14900
X0.59000 Y-0.15000
X0.59100 Y-0.15000
X0.59100 Y-0.15100
X0.59200 Y-0.15100
X0.59200 Y-0.15200
X0.59300 Y-0.15200
X0.59300 Y-0.15300
X0.59400 Y-0.15300
X0.59400 Y-0.15400
X0.59500 Y-0.15400
X0.59500 Y-0.15500
X0.59600 Y-0.15500
X0.59600 Y-0.15600
X0.59700 Y-0.15600
X0.59700 Y-0.15700
X0.59800 Y-0.15700
X0.59800 Y-0.15800
X0.59800 Y-0.15800
X0.59800 Y-0.15900
X0.59600 Y-0.15900
X0.59600 Y-0.16000
X0.59500 Y-0.16000
X0.59500 Y-0.16100
X0.59300 Y-0.16100
X0.59300 Y-0.16200
X0.59100 Y-0.16200
X0.59100 Y-0.16300
X0.59000 Y-0.16300
X0.59000 Y-0.16400
X0.58800 Y-0.16400
X0.58800 Y-0.16600
X0.58700 Y-0.16600
X0.58700 Y-0.16700
X0.58600 Y-0.16700
X0.58600 Y-0.16800
X0.58500 Y-0.16800
X0.58500 Y-0.17000
X0.58400 Y-0.17000
X0.58400 Y-0.17100
X0.58300 Y-0.17100
X0.58300 Y-0.17300
X0.58200 Y-0.17300
X0.58200 Y-0.17500
X0.58100 Y-0.17500
X0.58100 Y-0.18000
X0.58000 Y-0.18000
X0.58000 Y-0.18600
X0.57900 Y-0.18600
X0.57900 Y-0.25700
X0.58000 Y-0.25700
X0.58000 Y-0.26300
X0.58100 Y-0.26300
X0.58100 Y-0.26800
X0.58200 Y-0.26800
X0.58200 Y-0.27000
X0.58300 Y-0.27000
X0.58300 Y-0.27200
X0.58400 Y-0.27200
X0.58400 Y-0.27300
X0.58500 Y-0.27300
X0.58500 Y-0.27500
X0.58600 Y-0.27500
X0.58600 Y-0.27600
X0.58700 Y-0.27600
X0.58700 Y-0.27700
X0.58800 Y-0.27700
X0.58800 Y-0.27900
X0.59000 Y-0.27900
X0.59000 Y-0.28000
X0.59100 Y-0.28000
X0.59100 Y-0.28100
X0.59300 Y-0.28100
X0.59300 Y-0.28200
X0.59500 Y-0.28200
X0.59500 Y-0.28300
X0.59600 Y-0.28300
X0.59600 Y-0.28400
X0.59800 Y-0.28400
X0.59800 Y-0.28500
X0.60400 Y-0.28500
X0.60400 Y-0.28600
X0.62500 Y-0.28600
X0.62500 Y-0.28500
X0.63100 Y-0.28500
X0.63100 Y-0.28400
X0.63300 Y-0.28400
X0.63300 Y-0.28300
X0.63400 Y-0.28300
X0.63400 Y-0.28200
X0.63600 Y-0.28200
X0.63600 Y-0.28100
X0.63800 Y-0.28100
X0.63800 Y-0.28000
X0.63900 Y-0.28000
X0.63900 Y-0.27900
X0.64100 Y-0.27900
X0.64100 Y-0.27700
X0.64200 Y-0.27700
X0.64200 Y-0.27600
X0.64300 Y-0.27600
X0.64300 Y-0.27500
X0.64400 Y-0.27500
X0.64400 Y-0.27400
X0.64500 Y-0.27400
X0.64500 Y-0.27500
X0.64600 Y-0.27500
X0.64600 Y-0.27600
X0.64700 Y-0.27600
X0.64700 Y-0.27700
X0.64800 Y-0.27700
X0.64800 Y-0.27800
X0.64900 Y-0.27800
X0.64900 Y-0.27900
X0.65000 Y-0.27900
X0.65000 Y-0.28000
X0.65100 Y-0.28000
X0.65100 Y-0.28100
X0.65200 Y-0.28100
X0.65200 Y-0.28200
X0.65300 Y-0.28200
X0.65300 Y-0.28300
X0.65400 Y-0.28300
X0.65400 Y-0.28400
X0.65500 Y-0.28400
X0.65500 Y-0.28500
X0.65600 Y-0.28500
X0.65600 Y-0.28600
X0.65700 Y-0.28600
X0.65700 Y-0.28700
X0.65800 Y-0.28700
X0.65800 Y-0.28800
X0.65900 Y-0.28800
X0.65900 Y-0.28900
X0.66000 Y-0.28900
X0.66000 Y-0.29000
X0.66100 Y-0.29000
X0.66100 Y-0.63800
X0.65800 Y-0.63800
X0.65800 Y-0.63900
X0.65600 Y-0.63900
X0.65600 Y-0.64000
X0.65500 Y-0.64000
X0.65500 Y-0.64100
X0.65300 Y-0.64100
X0.65300 Y-0.64200
X0.65100 Y-0.64200
X0.65100 Y-0.64300
X0.65000 Y-0.64300
X0.65000 Y-0.64400
X0.64800 Y-0.64400
X0.64800 Y-0.64600
X0.64700 Y-0.64600
X0.64700 Y-0.64700
X0.64600 Y-0.64700
X0.64600 Y-0.64800
X0.64500 Y-0.64800
X0.64500 Y-0.65000
X0.64400 Y-0.65000
X0.64400 Y-0.65100
X0.64300 Y-0.65100
X0.64300 Y-0.65300
X0.64200 Y-0.65300
X0.64200 Y-0.65500
X0.64100 Y-0.65500
X0.64100 Y-0.66000
X0.64000 Y-0.66000
X0.64000 Y-0.66600
X0.63900 Y-0.66600
X0.63900 Y-0.73700
X0.64000 Y-0.73700
X0.64000 Y-0.74300
X0.64100 Y-0.74300
X0.64100 Y-0.74800
X0.64200 Y-0.74800
X0.64200 Y-0.75000
X0.64300 Y-0.75000
X0.64300 Y-0.75200
X0.64400 Y-0.75200
X0.64400 Y-0.75300
X0.64500 Y-0.75300
X0.64500 Y-0.75500
X0.64600 Y-0.75500
X0.64600 Y-0.75600
X0.64700 Y-0.75600
X0.64700 Y-0.75700
X0.64800 Y-0.75700
X0.64800 Y-0.75900
X0.65000 Y-0.75900
X0.65000 Y-0.76000
X0.65100 Y-0.76000
X0.65100 Y-0.76100
X0.65300 Y-0.76100
X0.65300 Y-0.76200
X0.65500 Y-0.76200
X0.65500 Y-0.76300
X0.65600 Y-0.76300
X0.65600 Y-0.76400
X0.65800 Y-0.76400
X0.65800 Y-0.76500
X0.66400 Y-0.76500
X0.66400 Y-0.76600
X0.68500 Y-0.76600
X0.68500 Y-0.76500
X0.69100 Y-0.76500
X0.69100 Y-0.76400
X0.69300 Y-0.76400
X0.69300 Y-0.76300
X0.69400 Y-0.76300
X0.69400 Y-0.76200
X0.69600 Y-0.76200
X0.69600 Y-0.76100
X0.69800 Y-0.76100
X0.69800 Y-0.76000
X0.69900 Y-0.76000
X0.69900 Y-0.75900
X0.70100 Y-0.75900
X0.70100 Y-0.75700
X0.70200 Y-0.75700
X0.70200 Y-0.75600
X0.70300 Y-0.75600
X0.70300 Y-0.75500
X0.70400 Y-0.75500
X0.70400 Y-0.75300
X0.70500 Y-0.75300
X0.70500 Y-0.75200
X0.70600 Y-0.75200
X0.70600 Y-0.75000
X0.70700 Y-0.75000
X0.70700 Y-0.74800
X0.70800 Y-0.74800
X0.70800 Y-0.74300
X0.70900 Y-0.74300
X0.70900 Y-0.73700
X0.71000 Y-0.73700
X0.71000 Y-0.66600
X0.70900 Y-0.66600
X0.70900 Y-0.66000
X0.70800 Y-0.66000
X0.70800 Y-0.65500
X0.70700 Y-0.65500
X0.70700 Y-0.65200
X0.70600 Y-0.65200
X0.70600 Y-0.65100
X0.70500 Y-0.65100
X0.70500 Y-0.65000
X0.70400 Y-0.65000
X0.70400 Y-0.64800
X0.70300 Y-0.64800
X0.70300 Y-0.64700
X0.70200 Y-0.64700
X0.70200 Y-0.64600
X0.70100 Y-0.64600
X0.70100 Y-0.64400
X0.69900 Y-0.64400
X0.69900 Y-0.64300
X0.69800 Y-0.64300
X0.69800 Y-0.64200
X0.69600 Y-0.64200
X0.69600 Y-0.64100
X0.69400 Y-0.64100
X0.69400 Y-0.64000
X0.69300 Y-0.64000
X0.69300 Y-0.63900
X0.69100 Y-0.63900
X0.69100 Y-0.63800
X0.68700 Y-0.63800
X0.68700 Y-0.27500
X0.68600 Y-0.27500
X0.68600 Y-0.27300
X0.68500 Y-0.27300
X0.68500 Y-0.27100
X0.68400 Y-0.27100
X0.68400 Y-0.27000
X0.68300 Y-0.27000
X0.68300 Y-0.26900
X0.68200 Y-0.26900
X0.68200 Y-0.26800
X0.68100 Y-0.26800
X0.68100 Y-0.26700
X0.68000 Y-0.26700
X0.68000 Y-0.26600
X0.67900 Y-0.26600
X0.67900 Y-0.26500
X0.67800 Y-0.26500
X0.67800 Y-0.26400
X0.67700 Y-0.26400
X0.67700 Y-0.26300
X0.67600 Y-0.26300
X0.67600 Y-0.26200
X0.67500 Y-0.26200
X0.67500 Y-0.26100
X0.67400 Y-0.26100
X0.67400 Y-0.26000
X0.67300 Y-0.26000
X0.67300 Y-0.25900
X0.67200 Y-0.25900
X0.67200 Y-0.25800
X0.67100 Y-0.25800
X0.67100 Y-0.25700
X0.67000 Y-0.25700
X0.67000 Y-0.25600
X0.66900 Y-0.25600
X0.66900 Y-0.25500
X0.66800 Y-0.25500
X0.66800 Y-0.25400
X0.66700 Y-0.25400
X0.66700 Y-0.25300
X0.66600 Y-0.25300
X0.66600 Y-0.25200
X0.66500 Y-0.25200
X0.66500 Y-0.25100
X0.66400 Y-0.25100
X0.66400 Y-0.25000
X0.66300 Y-0.25000
X0.66300 Y-0.24900
X0.66200 Y-0.24900
X0.66200 Y-0.24800
X0.66100 Y-0.24800
X0.66100 Y-0.24700
X0.66000 Y-0.24700
X0.66000 Y-0.24600
X0.65900 Y-0.24600
X0.65900 Y-0.24500
X0.65800 Y-0.24500
X0.65800 Y-0.24400
X0.65700 Y-0.24400
X0.65700 Y-0.24300
X0.65600 Y-0.24300
X0.65600 Y-0.24200
X0.65500 Y-0.24200
X0.65500 Y-0.24100
X0.65400 Y-0.24100
X0.65400 Y-0.24000
X0.65300 Y-0.24000
X0.65300 Y-0.23900
X0.65200 Y-0.23900
X0.65200 Y-0.23800
X0.65100 Y-0.23800
X0.65100 Y-0.23700
X0.65000 Y-0.23700
X0.65000 Y-0.18600
X0.64900 Y-0.18600
X0.64900 Y-0.18000
X0.64800 Y-0.18000
X0.64800 Y-0.17500
X0.64700 Y-0.17500
X0.64700 Y-0.17200
X0.64600 Y-0.17200
X0.64600 Y-0.17100
X0.64500 Y-0.17100
X0.64500 Y-0.17000
X0.64400 Y-0.17000
X0.64400 Y-0.16800
X0.64300 Y-0.16800
X0.64300 Y-0.16700
X0.64200 Y-0.16700
X0.64200 Y-0.16600
X0.64100 Y-0.16600
X0.64100 Y-0.16400
X0.63900 Y-0.16400
X0.63900 Y-0.16300
X0.63800 Y-0.16300
X0.63800 Y-0.16200
X0.63600 Y-0.16200
X0.63600 Y-0.16100
X0.63400 Y-0.16100
X0.63400 Y-0.16000
X0.63300 Y-0.16000
X0.63300 Y-0.15900
X0.63100 Y-0.15900
X0.63100 Y-0.15800
X0.62700 Y-0.15800
X0.62700 Y-0.14500
X0.62600 Y-0.14500
X0.62600 Y-0.14300
X0.62500 Y-0.14300
X0.62500 Y-0.14100
X0.62400 Y-0.14100
X0.62400 Y-0.14000
X0.62300 Y-0.14000
X0.62300 Y-0.13900
X0.62200 Y-0.13900
X0.62200 Y-0.13800
X0.62100 Y-0.13800
X0.62100 Y-0.13700
X0.62000 Y-0.13700
X0.62000 Y-0.13600
X0.61900 Y-0.13600
X0.61900 Y-0.13500
X0.61800 Y-0.13500
X0.61800 Y-0.13400
X0.61700 Y-0.13400
X0.61700 Y-0.13300
X0.61600 Y-0.13300
X0.61600 Y-0.13200
X0.61500 Y-0.13200
X0.61500 Y-0.13100
X0.61400 Y-0.13100
X0.61400 Y-0.13000
X0.61300 Y-0.13000
X0.61300 Y-0.12900
X0.61200 Y-0.12900
X0.61200 Y-0.12800
X0.61100 Y-0.12800
X0.61100 Y-0.12700
X0.61000 Y-0.12700
X0.61000 Y-0.12600
X0.60900 Y-0.12600
X0.60900 Y-0.12500
X0.60800 Y-0.12500
X0.60800 Y-0.12400
X0.60700 Y-0.12400
X0.60700 Y-0.12300
X0.60600 Y-0.12300
X0.60600 Y-0.12200
X0.60500 Y-0.12200
X0.60500 Y-0.12100
X0.60400 Y-0.12100
X0.60400 Y-0.12000
X0.60300 Y-0.12000
X0.60300 Y-0.11900
X0.60200 Y-0.11900
X0.60200 Y-0.11800
X0.60100 Y-0.11800
X0.60100 Y-0.11700
X0.60000 Y-0.11700
X0.60000 Y-0.11600
X0.59900 Y-0.11600
X0.59900 Y-0.11500
X0.59800 Y-0.11500
X0.59800 Y-0.11400
X0.59700 Y-0.11400
X0.59700 Y-0.11300
X0.59600 Y-0.11300
X0.59600 Y-0.11200
X0.59500 Y-0.11200
X0.59500 Y-0.11100
X0.59400 Y-0.11100
X0.59400 Y-0.11000
X0.59300 Y-0.11000
X0.59300 Y-0.10900
X0.59200 Y-0.10900
X0.59200 Y-0.10800
X0.59100 Y-0.10800
X0.59100 Y-0.10700
X0.59000 Y-0.10700
X0.59000 Y-0.10600
X0.58900 Y-0.10600
X0.58900 Y-0.10500
X0.58800 Y-0.10500
X0.58800 Y-0.10400
X0.58700 Y-0.10400
X0.58700 Y-0.10300
X0.58600 Y-0.10300
X0.58600 Y-0.10200
X0.58500 Y-0.10200
X0.58500 Y-0.10100
X0.58400 Y-0.10100
X0.58400 Y-0.10000
X0.58300 Y-0.10000
X0.58300 Y-0.09900
X0.58200 Y-0.09900
X0.58200 Y-0.09800
X0.58100 Y-0.09800
X0.58100 Y-0.09700
X0.58000 Y-0.09700
X0.58000 Y-0.09600
X0.57900 Y-0.09600
X0.57900 Y-0.09500
X0.57800 Y-0.09500
X0.57800 Y-0.09400
X0.57700 Y-0.09400
X0.57700 Y-0.09300
X0.57600 Y-0.09300
X0.57600 Y-0.09200
X0.57500 Y-0.09200
X0.57500 Y-0.09100
X0.57400 Y-0.09100
X0.57400 Y-0.09000
X0.57300 Y-0.09000
X0.57300 Y-0.08900
X0.57100 Y-0.08900
X0.57100 Y-0.08800
X0.56900 Y-0.08800
X0.56900 Y-0.08700
X0.25700 Y-0.08700
X0.25700 Y-0.08800
X0.25500 Y-0.08800
X0.25500 Y-0.08900
X0.25300 Y-0.08900
X0.25300 Y-0.09000
X0.25200 Y-0.09000
X0.25200 Y-0.09100
X0.25100 Y-0.09100
X0.25100 Y-0.09200
X0.25000 Y-0.09200
X0.25000 Y-0.09300
G04 P0 ( dwell for no time -- G64 should not smooth over this point )
G00 Z0.10000 ( retract )

G00 X0.49100 Y-0.16300 ( rapid move to begin. )
G01 Z-0.00500 
G04 P0 ( dwell for no time -- G64 should not smooth over this point )
X0.49100 Y-0.16300
X0.49000 Y-0.16300
X0.49000 Y-0.16400
X0.48800 Y-0.16400
X0.48800 Y-0.16600
X0.48700 Y-0.16600
X0.48700 Y-0.16700
X0.48600 Y-0.16700
X0.48600 Y-0.16800
X0.48500 Y-0.16800
X0.48500 Y-0.17000
X0.48400 Y-0.17000
X0.48400 Y-0.17100
X0.48300 Y-0.17100
X0.48300 Y-0.17300
X0.48200 Y-0.17300
X0.48200 Y-0.17500
X0.48100 Y-0.17500
X0.48100 Y-0.18000
X0.48000 Y-0.18000
X0.48000 Y-0.18600
X0.47900 Y-0.18600
X0.47900 Y-0.25700
X0.48000 Y-0.25700
X0.48000 Y-0.26300
X0.48100 Y-0.26300
X0.48100 Y-0.26800
X0.48200 Y-0.26800
X0.48200 Y-0.27000
X0.48300 Y-0.27000
X0.48300 Y-0.27200
X0.48400 Y-0.27200
X0.48400 Y-0.27300
X0.48500 Y-0.27300
X0.48500 Y-0.27500
X0.48600 Y-0.27500
X0.48600 Y-0.27600
X0.48700 Y-0.27600
X0.48700 Y-0.27700
X0.48800 Y-0.27700
X0.48800 Y-0.27900
X0.49000 Y-0.27900
X0.49000 Y-0.28000
X0.49100 Y-0.28000
X0.49100 Y-0.28100
X0.49300 Y-0.28100
X0.49300 Y-0.28200
X0.49500 Y-0.28200
X0.49500 Y-0.28300
X0.49600 Y-0.28300
X0.49600 Y-0.28400
X0.49800 Y-0.28400
X0.49800 Y-0.28500
X0.50100 Y-0.28500
X0.50100 Y-0.37100
X0.50200 Y-0.37100
X0.50200 Y-0.37300
X0.50300 Y-0.37300
X0.50300 Y-0.37500
X0.50400 Y-0.37500
X0.50400 Y-0.37600
X0.50500 Y-0.37600
X0.50500 Y-0.37700
X0.50600 Y-0.37700
X0.50600 Y-0.37800
X0.50700 Y-0.37800
X0.50700 Y-0.37900
X0.50800 Y-0.37900
X0.50800 Y-0.38000
X0.50900 Y-0.38000
X0.50900 Y-0.38100
X0.51000 Y-0.38100
X0.51000 Y-0.38200
X0.51100 Y-0.38200
X0.51100 Y-0.38300
X0.51200 Y-0.38300
X0.51200 Y-0.38400
X0.51300 Y-0.38400
X0.51300 Y-0.38500
X0.51400 Y-0.38500
X0.51400 Y-0.38600
X0.51500 Y-0.38600
X0.51500 Y-0.38700
X0.51600 Y-0.38700
X0.51600 Y-0.38800
X0.51700 Y-0.38800
X0.51700 Y-0.38900
X0.51800 Y-0.38900
X0.51800 Y-0.39000
X0.51900 Y-0.39000
X0.51900 Y-0.39100
X0.52000 Y-0.39100
X0.52000 Y-0.39200
X0.52100 Y-0.39200
X0.52100 Y-0.39300
X0.52100 Y-0.39300
X0.52100 Y-0.39400
X0.52000 Y-0.39400
X0.52000 Y-0.39500
X0.51900 Y-0.39500
X0.51900 Y-0.39600
X0.51800 Y-0.39600
X0.51800 Y-0.39700
X0.51700 Y-0.39700
X0.51700 Y-0.39800
X0.51600 Y-0.39800
X0.51600 Y-0.39900
X0.51500 Y-0.39900
X0.51500 Y-0.40000
X0.51400 Y-0.40000
X0.51400 Y-0.40100
X0.51300 Y-0.40100
X0.51300 Y-0.40200
X0.51200 Y-0.40200
X0.51200 Y-0.40300
X0.51100 Y-0.40300
X0.51100 Y-0.40400
X0.51000 Y-0.40400
X0.51000 Y-0.40500
X0.50900 Y-0.40500
X0.50900 Y-0.40600
X0.50800 Y-0.40600
X0.50800 Y-0.40700
X0.50700 Y-0.40700
X0.50700 Y-0.40800
X0.50600 Y-0.40800
X0.50600 Y-0.40900
X0.50500 Y-0.40900
X0.50500 Y-0.41000
X0.50400 Y-0.41000
X0.50400 Y-0.41100
X0.50300 Y-0.41100
X0.50300 Y-0.41200
X0.50200 Y-0.41200
X0.50200 Y-0.41300
X0.50100 Y-0.41300
X0.50100 Y-0.41400
X0.50000 Y-0.41400
X0.50000 Y-0.41500
X0.49900 Y-0.41500
X0.49900 Y-0.41600
X0.49800 Y-0.41600
X0.49800 Y-0.41700
X0.49700 Y-0.41700
X0.49700 Y-0.41800
X0.49600 Y-0.41800
X0.49600 Y-0.41900
X0.49500 Y-0.41900
X0.49500 Y-0.42000
X0.49400 Y-0.42000
X0.49400 Y-0.42100
X0.49300 Y-0.42100
X0.49300 Y-0.42200
X0.49200 Y-0.42200
X0.49200 Y-0.42300
X0.49100 Y-0.42300
X0.49100 Y-0.42400
X0.49000 Y-0.42400
X0.49000 Y-0.42500
X0.48900 Y-0.42500
X0.48900 Y-0.42600
X0.48800 Y-0.42600
X0.48800 Y-0.42700
X0.48700 Y-0.42700
X0.48700 Y-0.42800
X0.48600 Y-0.42800
X0.48600 Y-0.42900
X0.48500 Y-0.42900
X0.48500 Y-0.43000
X0.48400 Y-0.43000
X0.48400 Y-0.43100
X0.48300 Y-0.43100
X0.48300 Y-0.43200
X0.48200 Y-0.43200
X0.48200 Y-0.43300
X0.48100 Y-0.43300
X0.48100 Y-0.43400
X0.48000 Y-0.43400
X0.48000 Y-0.43500
X0.47900 Y-0.43500
X0.47900 Y-0.43600
X0.47800 Y-0.43600
X0.47800 Y-0.43700
X0.47700 Y-0.43700
X0.47700 Y-0.43800
X0.47600 Y-0.43800
X0.47600 Y-0.43900
X0.47500 Y-0.43900
X0.47500 Y-0.44000
X0.47400 Y-0.44000
X0.47400 Y-0.44100
X0.47300 Y-0.44100
X0.47300 Y-0.44200
X0.47200 Y-0.44200
X0.47200 Y-0.44300
X0.47100 Y-0.44300
X0.47100 Y-0.44400
X0.47000 Y-0.44400
X0.47000 Y-0.44500
X0.46900 Y-0.44500
X0.46900 Y-0.44600
X0.46800 Y-0.44600
X0.46800 Y-0.44700
X0.46700 Y-0.44700
X0.46700 Y-0.44800
X0.46600 Y-0.44800
X0.46600 Y-0.44900
X0.46500 Y-0.44900
X0.46500 Y-0.45000
X0.46400 Y-0.45000
X0.46400 Y-0.45100
X0.46300 Y-0.45100
X0.46300 Y-0.45200
X0.46200 Y-0.45200
X0.46200 Y-0.45300
X0.46100 Y-0.45300
X0.46100 Y-0.45400
X0.46000 Y-0.45400
X0.46000 Y-0.45500
X0.45900 Y-0.45500
X0.45900 Y-0.45600
X0.45800 Y-0.45600
X0.45800 Y-0.45700
X0.45700 Y-0.45700
X0.45700 Y-0.45800
X0.45600 Y-0.45800
X0.45600 Y-0.45900
X0.45500 Y-0.45900
X0.45500 Y-0.46000
X0.45400 Y-0.46000
X0.45400 Y-0.46100
X0.45300 Y-0.46100
X0.45300 Y-0.46200
X0.45200 Y-0.46200
X0.45200 Y-0.46300
X0.45100 Y-0.46300
X0.45100 Y-0.46400
X0.45000 Y-0.46400
X0.45000 Y-0.46500
X0.44900 Y-0.46500
X0.44900 Y-0.46600
X0.44800 Y-0.46600
X0.44800 Y-0.46700
X0.44700 Y-0.46700
X0.44700 Y-0.46800
X0.44600 Y-0.46800
X0.44600 Y-0.46900
X0.44500 Y-0.46900
X0.44500 Y-0.47000
X0.44400 Y-0.47000
X0.44400 Y-0.47100
X0.44300 Y-0.47100
X0.44300 Y-0.47200
X0.44200 Y-0.47200
X0.44200 Y-0.47300
X0.44100 Y-0.47300
X0.44100 Y-0.47400
X0.44000 Y-0.47400
X0.44000 Y-0.47500
X0.43900 Y-0.47500
X0.43900 Y-0.47600
X0.43800 Y-0.47600
X0.43800 Y-0.47700
X0.43700 Y-0.47700
X0.43700 Y-0.47800
X0.43600 Y-0.47800
X0.43600 Y-0.47900
X0.43500 Y-0.47900
X0.43500 Y-0.48000
X0.43400 Y-0.48000
X0.43400 Y-0.48100
X0.43300 Y-0.48100
X0.43300 Y-0.48200
X0.43200 Y-0.48200
X0.43200 Y-0.48300
X0.43100 Y-0.48300
X0.43100 Y-0.48400
X0.43000 Y-0.48400
X0.43000 Y-0.48500
X0.42900 Y-0.48500
X0.42900 Y-0.48600
X0.42800 Y-0.48600
X0.42800 Y-0.48700
X0.42700 Y-0.48700
X0.42700 Y-0.48800
X0.42600 Y-0.48800
X0.42600 Y-0.48900
X0.42500 Y-0.48900
X0.42500 Y-0.49000
X0.42400 Y-0.49000
X0.42400 Y-0.49100
X0.42300 Y-0.49100
X0.42300 Y-0.49200
X0.42200 Y-0.49200
X0.42200 Y-0.49300
X0.42100 Y-0.49300
X0.42100 Y-0.49400
X0.42000 Y-0.49400
X0.42000 Y-0.49500
X0.41900 Y-0.49500
X0.41900 Y-0.49600
X0.41800 Y-0.49600
X0.41800 Y-0.49700
X0.41700 Y-0.49700
X0.41700 Y-0.49800
X0.41600 Y-0.49800
X0.41600 Y-0.49900
X0.41500 Y-0.49900
X0.41500 Y-0.50000
X0.41400 Y-0.50000
X0.41400 Y-0.50100
X0.41300 Y-0.50100
X0.41300 Y-0.50200
X0.41200 Y-0.50200
X0.41200 Y-0.50300
X0.41100 Y-0.50300
X0.41100 Y-0.50400
X0.41000 Y-0.50400
X0.41000 Y-0.50500
X0.40900 Y-0.50500
X0.40900 Y-0.50600
X0.40800 Y-0.50600
X0.40800 Y-0.50700
X0.40700 Y-0.50700
X0.40700 Y-0.50800
X0.40600 Y-0.50800
X0.40600 Y-0.50900
X0.40500 Y-0.50900
X0.40500 Y-0.51000
X0.40400 Y-0.51000
X0.40400 Y-0.51100
X0.40300 Y-0.51100
X0.40300 Y-0.51200
X0.40200 Y-0.51200
X0.40200 Y-0.51300
X0.40100 Y-0.51300
X0.40100 Y-0.51400
X0.40000 Y-0.51400
X0.40000 Y-0.51500
X0.39900 Y-0.51500
X0.39900 Y-0.51600
X0.39800 Y-0.51600
X0.39800 Y-0.51700
X0.39700 Y-0.51700
X0.39700 Y-0.51800
X0.39600 Y-0.51800
X0.39600 Y-0.51900
X0.39500 Y-0.51900
X0.39500 Y-0.52000
X0.39400 Y-0.52000
X0.39400 Y-0.52100
X0.39300 Y-0.52100
X0.39300 Y-0.52200
X0.39200 Y-0.52200
X0.39200 Y-0.52300
X0.39100 Y-0.52300
X0.39100 Y-0.52400
X0.39000 Y-0.52400
X0.39000 Y-0.52500
X0.38900 Y-0.52500
X0.38900 Y-0.52600
X0.38800 Y-0.52600
X0.38800 Y-0.52700
X0.38700 Y-0.52700
X0.38700 Y-0.52800
X0.38600 Y-0.52800
X0.38600 Y-0.52900
X0.38500 Y-0.52900
X0.38500 Y-0.53000
X0.38400 Y-0.53000
X0.38400 Y-0.53100
X0.38300 Y-0.53100
X0.38300 Y-0.53200
X0.38200 Y-0.53200
X0.38200 Y-0.53300
X0.38100 Y-0.53300
X0.38100 Y-0.53400
X0.38000 Y-0.53400
X0.38000 Y-0.53500
X0.37900 Y-0.53500
X0.37900 Y-0.53600
X0.37800 Y-0.53600
X0.37800 Y-0.53700
X0.37700 Y-0.53700
X0.37700 Y-0.53800
X0.37600 Y-0.53800
X0.37600 Y-0.53900
X0.25200 Y-0.53900
X0.25200 Y-0.53800
X0.25100 Y-0.53800
X0.25100 Y-0.53400
X0.25000 Y-0.53400
X0.25000 Y-0.53100
X0.24900 Y-0.53100
X0.24900 Y-0.53000
X0.24800 Y-0.53000
X0.24800 Y-0.52900
X0.24700 Y-0.52900
X0.24700 Y-0.52700
X0.24600 Y-0.52700
X0.24600 Y-0.52600
X0.24500 Y-0.52600
X0.24500 Y-0.52500
X0.24400 Y-0.52500
X0.24400 Y-0.52300
X0.24300 Y-0.52300
X0.24300 Y-0.52200
X0.24200 Y-0.52200
X0.24200 Y-0.52100
X0.24000 Y-0.52100
X0.24000 Y-0.52000
X0.23900 Y-0.52000
X0.23900 Y-0.51900
X0.23700 Y-0.51900
X0.23700 Y-0.51800
X0.23500 Y-0.51800
X0.23500 Y-0.51700
X0.23400 Y-0.51700
X0.23400 Y-0.51600
X0.23200 Y-0.51600
X0.23200 Y-0.51500
X0.22600 Y-0.51500
X0.22600 Y-0.51400
X0.20300 Y-0.51400
X0.20300 Y-0.51500
X0.19700 Y-0.51500
X0.19700 Y-0.51600
X0.19500 Y-0.51600
X0.19500 Y-0.51700
X0.19400 Y-0.51700
X0.19400 Y-0.51800
X0.19200 Y-0.51800
X0.19200 Y-0.51900
X0.19000 Y-0.51900
X0.19000 Y-0.52000
X0.18900 Y-0.52000
X0.18900 Y-0.52100
X0.18700 Y-0.52100
X0.18700 Y-0.52200
X0.18600 Y-0.52200
X0.18600 Y-0.52300
X0.18500 Y-0.52300
X0.18500 Y-0.52500
X0.18400 Y-0.52500
X0.18400 Y-0.52600
X0.18300 Y-0.52600
X0.18300 Y-0.52700
X0.18200 Y-0.52700
X0.18200 Y-0.52900
X0.18100 Y-0.52900
X0.18100 Y-0.53000
X0.18000 Y-0.53000
X0.18000 Y-0.53100
X0.17900 Y-0.53100
X0.17900 Y-0.53400
X0.17800 Y-0.53400
X0.17800 Y-0.53800
X0.17700 Y-0.53800
X0.17700 Y-0.56500
X0.17800 Y-0.56500
X0.17800 Y-0.56900
X0.17900 Y-0.56900
X0.17900 Y-0.57100
X0.18000 Y-0.57100
X0.18000 Y-0.57300
X0.18100 Y-0.57300
X0.18100 Y-0.57400
X0.18200 Y-0.57400
X0.18200 Y-0.57600
X0.18300 Y-0.57600
X0.18300 Y-0.57700
X0.18400 Y-0.57700
X0.18400 Y-0.57800
X0.18500 Y-0.57800
X0.18500 Y-0.58000
X0.18600 Y-0.58000
X0.18600 Y-0.58100
X0.18700 Y-0.58100
X0.18700 Y-0.58200
X0.18900 Y-0.58200
X0.18900 Y-0.58300
X0.19000 Y-0.58300
X0.19000 Y-0.58400
X0.19200 Y-0.58400
X0.19200 Y-0.58500
X0.19400 Y-0.58500
X0.19400 Y-0.58600
X0.19500 Y-0.58600
X0.19500 Y-0.58700
X0.19700 Y-0.58700
X0.19700 Y-0.58800
X0.20300 Y-0.58800
X0.20300 Y-0.58900
X0.22600 Y-0.58900
X0.22600 Y-0.58800
X0.23200 Y-0.58800
X0.23200 Y-0.58700
X0.23400 Y-0.58700
X0.23400 Y-0.58600
X0.23500 Y-0.58600
X0.23500 Y-0.58500
X0.23700 Y-0.58500
X0.23700 Y-0.58400
X0.23900 Y-0.58400
X0.23900 Y-0.58300
X0.24000 Y-0.58300
X0.24000 Y-0.58200
X0.24200 Y-0.58200
X0.24200 Y-0.58100
X0.24300 Y-0.58100
X0.24300 Y-0.58000
X0.24400 Y-0.58000
X0.24400 Y-0.57800
X0.24500 Y-0.57800
X0.24500 Y-0.57700
X0.24600 Y-0.57700
X0.24600 Y-0.57600
X0.24700 Y-0.57600
X0.24700 Y-0.57400
X0.24800 Y-0.57400
X0.24800 Y-0.57300
X0.24900 Y-0.57300
X0.24900 Y-0.57100
X0.25000 Y-0.57100
X0.25000 Y-0.56900
X0.25100 Y-0.56900
X0.25100 Y-0.56500
X0.39100 Y-0.56500
X0.39100 Y-0.56400
X0.39300 Y-0.56400
X0.39300 Y-0.56300
X0.39500 Y-0.56300
X0.39500 Y-0.56200
X0.39600 Y-0.56200
X0.39600 Y-0.56100
X0.39700 Y-0.56100
X0.39700 Y-0.56000
X0.39800 Y-0.56000
X0.39800 Y-0.55900
X0.39900 Y-0.55900
X0.39900 Y-0.55800
X0.40000 Y-0.55800
X0.40000 Y-0.55700
X0.40100 Y-0.55700
X0.40100 Y-0.55600
X0.40200 Y-0.55600
X0.40200 Y-0.55500
X0.40300 Y-0.55500
X0.40300 Y-0.55400
X0.40400 Y-0.55400
X0.40400 Y-0.55300
X0.40500 Y-0.55300
X0.40500 Y-0.55200
X0.40600 Y-0.55200
X0.40600 Y-0.55100
X0.40700 Y-0.55100
X0.40700 Y-0.55000
X0.40800 Y-0.55000
X0.40800 Y-0.54900
X0.40900 Y-0.54900
X0.40900 Y-0.54800
X0.41000 Y-0.54800
X0.41000 Y-0.54700
X0.41100 Y-0.54700
X0.41100 Y-0.54600
X0.41200 Y-0.54600
X0.41200 Y-0.54500
X0.41300 Y-0.54500
X0.41300 Y-0.54400
X0.41400 Y-0.54400
X0.41400 Y-0.54300
X0.41500 Y-0.54300
X0.41500 Y-0.54200
X0.41600 Y-0.54200
X0.41600 Y-0.54100
X0.41700 Y-0.54100
X0.41700 Y-0.54000
X0.41800 Y-0.54000
X0.41800 Y-0.53900
X0.41900 Y-0.53900
X0.41900 Y-0.53800
X0.42000 Y-0.53800
X0.42000 Y-0.53700
X0.42100 Y-0.53700
X0.42100 Y-0.53600
X0.42200 Y-0.53600
X0.42200 Y-0.53500
X0.42300 Y-0.53500
X0.42300 Y-0.53400
X0.42400 Y-0.53400
X0.42400 Y-0.53300
X0.42500 Y-0.53300
X0.42500 Y-0.53200
X0.42600 Y-0.53200
X0.42600 Y-0.53100
X0.42700 Y-0.53100
X0.42700 Y-0.53000
X0.42800 Y-0.53000
X0.42800 Y-0.52900
X0.42900 Y-0.52900
X0.42900 Y-0.52800
X0.43000 Y-0.52800
X0.43000 Y-0.52700
X0.43100 Y-0.52700
X0.43100 Y-0.52600
X0.43200 Y-0.52600
X0.43200 Y-0.52500
X0.43300 Y-0.52500
X0.43300 Y-0.52400
X0.43400 Y-0.52400
X0.43400 Y-0.52300
X0.43500 Y-0.52300
X0.43500 Y-0.52200
X0.43600 Y-0.52200
X0.43600 Y-0.52100
X0.43700 Y-0.52100
X0.43700 Y-0.52000
X0.43800 Y-0.52000
X0.43800 Y-0.51900
X0.43900 Y-0.51900
X0.43900 Y-0.51800
X0.44000 Y-0.51800
X0.44000 Y-0.51700
X0.44100 Y-0.51700
X0.44100 Y-0.51600
X0.44200 Y-0.51600
X0.44200 Y-0.51500
X0.44300 Y-0.51500
X0.44300 Y-0.51400
X0.44400 Y-0.51400
X0.44400 Y-0.51300
X0.44500 Y-0.51300
X0.44500 Y-0.51200
X0.44600 Y-0.51200
X0.44600 Y-0.51100
X0.44700 Y-0.51100
X0.44700 Y-0.51000
X0.44800 Y-0.51000
X0.44800 Y-0.50900
X0.44900 Y-0.50900
X0.44900 Y-0.50800
X0.45000 Y-0.50800
X0.45000 Y-0.50700
X0.45100 Y-0.50700
X0.45100 Y-0.50600
X0.45200 Y-0.50600
X0.45200 Y-0.50500
X0.45300 Y-0.50500
X0.45300 Y-0.50400
X0.45400 Y-0.50400
X0.45400 Y-0.50300
X0.45500 Y-0.50300
X0.45500 Y-0.50200
X0.45600 Y-0.50200
X0.45600 Y-0.50100
X0.45700 Y-0.50100
X0.45700 Y-0.50000
X0.45800 Y-0.50000
X0.45800 Y-0.49900
X0.45900 Y-0.49900
X0.45900 Y-0.49800
X0.46000 Y-0.49800
X0.46000 Y-0.49700
X0.46100 Y-0.49700
X0.46100 Y-0.49600
X0.46200 Y-0.49600
X0.46200 Y-0.49500
X0.46300 Y-0.49500
X0.46300 Y-0.49400
X0.46400 Y-0.49400
X0.46400 Y-0.49300
X0.46500 Y-0.49300
X0.46500 Y-0.49200
X0.46600 Y-0.49200
X0.46600 Y-0.49100
X0.46700 Y-0.49100
X0.46700 Y-0.49000
X0.46800 Y-0.49000
X0.46800 Y-0.48900
X0.46900 Y-0.48900
X0.46900 Y-0.48800
X0.47000 Y-0.48800
X0.47000 Y-0.48700
X0.47100 Y-0.48700
X0.47100 Y-0.48600
X0.47200 Y-0.48600
X0.47200 Y-0.48500
X0.47300 Y-0.48500
X0.47300 Y-0.48400
X0.47400 Y-0.48400
X0.47400 Y-0.48300
X0.47500 Y-0.48300
X0.47500 Y-0.48200
X0.47600 Y-0.48200
X0.47600 Y-0.48100
X0.47700 Y-0.48100
X0.47700 Y-0.48000
X0.47800 Y-0.48000
X0.47800 Y-0.47900
X0.47900 Y-0.47900
X0.47900 Y-0.47800
X0.48000 Y-0.47800
X0.48000 Y-0.47700
X0.48100 Y-0.47700
X0.48100 Y-0.47600
X0.48200 Y-0.47600
X0.48200 Y-0.47500
X0.48300 Y-0.47500
X0.48300 Y-0.47400
X0.48400 Y-0.47400
X0.48400 Y-0.47300
X0.48500 Y-0.47300
X0.48500 Y-0.47200
X0.48600 Y-0.47200
X0.48600 Y-0.47100
X0.48700 Y-0.47100
X0.48700 Y-0.47000
X0.48800 Y-0.47000
X0.48800 Y-0.46900
X0.48900 Y-0.46900
X0.48900 Y-0.46800
X0.49000 Y-0.46800
X0.49000 Y-0.46700
X0.49100 Y-0.46700
X0.49100 Y-0.46600
X0.49200 Y-0.46600
X0.49200 Y-0.46500
X0.49300 Y-0.46500
X0.49300 Y-0.46400
X0.49400 Y-0.46400
X0.49400 Y-0.46300
X0.49500 Y-0.46300
X0.49500 Y-0.46200
X0.49600 Y-0.46200
X0.49600 Y-0.46100
X0.49700 Y-0.46100
X0.49700 Y-0.46000
X0.49800 Y-0.46000
X0.49800 Y-0.45900
X0.49900 Y-0.45900
X0.49900 Y-0.45800
X0.50000 Y-0.45800
X0.50000 Y-0.45700
X0.50100 Y-0.45700
X0.50100 Y-0.45600
X0.50200 Y-0.45600
X0.50200 Y-0.45500
X0.50300 Y-0.45500
X0.50300 Y-0.45400
X0.50400 Y-0.45400
X0.50400 Y-0.45300
X0.50500 Y-0.45300
X0.50500 Y-0.45200
X0.50600 Y-0.45200
X0.50600 Y-0.45100
X0.50700 Y-0.45100
X0.50700 Y-0.45000
X0.50800 Y-0.45000
X0.50800 Y-0.44900
X0.50900 Y-0.44900
X0.50900 Y-0.44800
X0.51000 Y-0.44800
X0.51000 Y-0.44700
X0.51100 Y-0.44700
X0.51100 Y-0.44600
X0.51200 Y-0.44600
X0.51200 Y-0.44500
X0.51300 Y-0.44500
X0.51300 Y-0.44400
X0.51400 Y-0.44400
X0.51400 Y-0.44300
X0.51500 Y-0.44300
X0.51500 Y-0.44200
X0.51600 Y-0.44200
X0.51600 Y-0.44100
X0.51700 Y-0.44100
X0.51700 Y-0.44000
X0.51800 Y-0.44000
X0.51800 Y-0.43900
X0.51900 Y-0.43900
X0.51900 Y-0.43800
X0.52000 Y-0.43800
X0.52000 Y-0.43700
X0.52100 Y-0.43700
X0.52100 Y-0.43600
X0.52200 Y-0.43600
X0.52200 Y-0.43500
X0.52300 Y-0.43500
X0.52300 Y-0.43400
X0.52400 Y-0.43400
X0.52400 Y-0.43300
X0.52500 Y-0.43300
X0.52500 Y-0.43200
X0.52600 Y-0.43200
X0.52600 Y-0.43100
X0.52700 Y-0.43100
X0.52700 Y-0.43000
X0.52800 Y-0.43000
X0.52800 Y-0.42900
X0.52900 Y-0.42900
X0.52900 Y-0.42800
X0.53000 Y-0.42800
X0.53000 Y-0.42700
X0.53100 Y-0.42700
X0.53100 Y-0.42600
X0.53200 Y-0.42600
X0.53200 Y-0.42500
X0.53300 Y-0.42500
X0.53300 Y-0.42400
X0.53400 Y-0.42400
X0.53400 Y-0.42300
X0.53500 Y-0.42300
X0.53500 Y-0.42200
X0.53600 Y-0.42200
X0.53600 Y-0.42100
X0.53700 Y-0.42100
X0.53700 Y-0.42000
X0.53800 Y-0.42000
X0.53800 Y-0.41900
X0.53900 Y-0.41900
X0.53900 Y-0.41800
X0.54000 Y-0.41800
X0.54000 Y-0.41700
X0.54100 Y-0.41700
X0.54100 Y-0.41600
X0.54200 Y-0.41600
X0.54200 Y-0.41500
X0.54300 Y-0.41500
X0.54300 Y-0.41500
X0.54400 Y-0.41500
X0.54400 Y-0.41600
X0.54500 Y-0.41600
X0.54500 Y-0.41700
X0.54600 Y-0.41700
X0.54600 Y-0.41800
X0.54700 Y-0.41800
X0.54700 Y-0.41900
X0.54800 Y-0.41900
X0.54800 Y-0.42000
X0.54900 Y-0.42000
X0.54900 Y-0.42100
X0.55000 Y-0.42100
X0.55000 Y-0.42200
X0.55100 Y-0.42200
X0.55100 Y-0.42300
X0.55200 Y-0.42300
X0.55200 Y-0.42400
X0.55300 Y-0.42400
X0.55300 Y-0.42500
X0.55400 Y-0.42500
X0.55400 Y-0.42600
X0.55500 Y-0.42600
X0.55500 Y-0.42700
X0.55600 Y-0.42700
X0.55600 Y-0.42800
X0.55700 Y-0.42800
X0.55700 Y-0.42900
X0.55800 Y-0.42900
X0.55800 Y-0.43000
X0.55900 Y-0.43000
X0.55900 Y-0.43100
X0.56000 Y-0.43100
X0.56000 Y-0.43200
X0.56100 Y-0.43200
X0.56100 Y-0.63800
X0.55800 Y-0.63800
X0.55800 Y-0.63900
X0.55600 Y-0.63900
X0.55600 Y-0.64000
X0.55500 Y-0.64000
X0.55500 Y-0.64100
X0.55300 Y-0.64100
X0.55300 Y-0.64200
X0.55100 Y-0.64200
X0.55100 Y-0.64300
X0.55000 Y-0.64300
X0.55000 Y-0.64400
X0.54800 Y-0.64400
X0.54800 Y-0.64600
X0.54700 Y-0.64600
X0.54700 Y-0.64700
X0.54600 Y-0.64700
X0.54600 Y-0.64800
X0.54500 Y-0.64800
X0.54500 Y-0.65000
X0.54400 Y-0.65000
X0.54400 Y-0.65100
X0.54300 Y-0.65100
X0.54300 Y-0.65300
X0.54200 Y-0.65300
X0.54200 Y-0.65500
X0.54100 Y-0.65500
X0.54100 Y-0.66000
X0.54000 Y-0.66000
X0.54000 Y-0.66600
X0.53900 Y-0.66600
X0.53900 Y-0.73700
X0.54000 Y-0.73700
X0.54000 Y-0.74300
X0.54100 Y-0.74300
X0.54100 Y-0.74800
X0.54200 Y-0.74800
X0.54200 Y-0.75000
X0.54300 Y-0.75000
X0.54300 Y-0.75200
X0.54400 Y-0.75200
X0.54400 Y-0.75300
X0.54500 Y-0.75300
X0.54500 Y-0.75500
X0.54600 Y-0.75500
X0.54600 Y-0.75600
X0.54700 Y-0.75600
X0.54700 Y-0.75700
X0.54800 Y-0.75700
X0.54800 Y-0.75900
X0.55000 Y-0.75900
X0.55000 Y-0.76000
X0.55100 Y-0.76000
X0.55100 Y-0.76100
X0.55300 Y-0.76100
X0.55300 Y-0.76200
X0.55500 Y-0.76200
X0.55500 Y-0.76300
X0.55600 Y-0.76300
X0.55600 Y-0.76400
X0.55800 Y-0.76400
X0.55800 Y-0.76500
X0.56400 Y-0.76500
X0.56400 Y-0.76600
X0.58500 Y-0.76600
X0.58500 Y-0.76500
X0.59100 Y-0.76500
X0.59100 Y-0.76400
X0.59300 Y-0.76400
X0.59300 Y-0.76300
X0.59400 Y-0.76300
X0.59400 Y-0.76200
X0.59600 Y-0.76200
X0.59600 Y-0.76100
X0.59800 Y-0.76100
X0.59800 Y-0.76000
X0.59900 Y-0.76000
X0.59900 Y-0.75900
X0.60100 Y-0.75900
X0.60100 Y-0.75700
X0.60200 Y-0.75700
X0.60200 Y-0.75600
X0.60300 Y-0.75600
X0.60300 Y-0.75500
X0.60400 Y-0.75500
X0.60400 Y-0.75300
X0.60500 Y-0.75300
X0.60500 Y-0.75200
X0.60600 Y-0.75200
X0.60600 Y-0.75000
X0.60700 Y-0.75000
X0.60700 Y-0.74800
X0.60800 Y-0.74800
X0.60800 Y-0.74300
X0.60900 Y-0.74300
X0.60900 Y-0.73700
X0.61000 Y-0.73700
X0.61000 Y-0.66600
X0.60900 Y-0.66600
X0.60900 Y-0.66000
X0.60800 Y-0.66000
X0.60800 Y-0.65500
X0.60700 Y-0.65500
X0.60700 Y-0.65200
X0.60600 Y-0.65200
X0.60600 Y-0.65100
X0.60500 Y-0.65100
X0.60500 Y-0.65000
X0.60400 Y-0.65000
X0.60400 Y-0.64800
X0.60300 Y-0.64800
X0.60300 Y-0.64700
X0.60200 Y-0.64700
X0.60200 Y-0.64600
X0.60100 Y-0.64600
X0.60100 Y-0.64400
X0.59900 Y-0.64400
X0.59900 Y-0.64300
X0.59800 Y-0.64300
X0.59800 Y-0.64200
X0.59600 Y-0.64200
X0.59600 Y-0.64100
X0.59400 Y-0.64100
X0.59400 Y-0.64000
X0.59300 Y-0.64000
X0.59300 Y-0.63900
X0.59100 Y-0.63900
X0.59100 Y-0.63800
X0.58700 Y-0.63800
X0.58700 Y-0.41700
X0.58600 Y-0.41700
X0.58600 Y-0.41500
X0.58500 Y-0.41500
X0.58500 Y-0.41300
X0.58400 Y-0.41300
X0.58400 Y-0.41200
X0.58300 Y-0.41200
X0.58300 Y-0.41100
X0.58200 Y-0.41100
X0.58200 Y-0.41000
X0.58100 Y-0.41000
X0.58100 Y-0.40900
X0.58000 Y-0.40900
X0.58000 Y-0.40800
X0.57900 Y-0.40800
X0.57900 Y-0.40700
X0.57800 Y-0.40700
X0.57800 Y-0.40600
X0.57700 Y-0.40600
X0.57700 Y-0.40500
X0.57600 Y-0.40500
X0.57600 Y-0.40400
X0.57500 Y-0.40400
X0.57500 Y-0.40300
X0.57400 Y-0.40300
X0.57400 Y-0.40200
X0.57300 Y-0.40200
X0.57300 Y-0.40100
X0.57200 Y-0.40100
X0.57200 Y-0.40000
X0.57100 Y-0.40000
X0.57100 Y-0.39900
X0.57000 Y-0.39900
X0.57000 Y-0.39800
X0.56900 Y-0.39800
X0.56900 Y-0.39700
X0.56800 Y-0.39700
X0.56800 Y-0.39600
X0.56700 Y-0.39600
X0.56700 Y-0.39500
X0.56600 Y-0.39500
X0.56600 Y-0.39400
X0.56500 Y-0.39400
X0.56500 Y-0.39300
X0.56400 Y-0.39300
X0.56400 Y-0.39200
X0.56300 Y-0.39200
X0.56300 Y-0.39100
X0.56200 Y-0.39100
X0.56200 Y-0.39000
X0.56100 Y-0.39000
X0.56100 Y-0.38900
X0.56000 Y-0.38900
X0.56000 Y-0.38800
X0.55900 Y-0.38800
X0.55900 Y-0.38700
X0.55800 Y-0.38700
X0.55800 Y-0.38600
X0.55700 Y-0.38600
X0.55700 Y-0.38500
X0.55600 Y-0.38500
X0.55600 Y-0.38400
X0.55500 Y-0.38400
X0.55500 Y-0.38300
X0.55400 Y-0.38300
X0.55400 Y-0.38200
X0.55300 Y-0.38200
X0.55300 Y-0.38100
X0.55200 Y-0.38100
X0.55200 Y-0.38000
X0.55100 Y-0.38000
X0.55100 Y-0.37900
X0.55000 Y-0.37900
X0.55000 Y-0.37800
X0.54900 Y-0.37800
X0.54900 Y-0.37700
X0.54800 Y-0.37700
X0.54800 Y-0.37600
X0.54700 Y-0.37600
X0.54700 Y-0.37500
X0.54600 Y-0.37500
X0.54600 Y-0.37400
X0.54500 Y-0.37400
X0.54500 Y-0.37300
X0.54400 Y-0.37300
X0.54400 Y-0.37200
X0.54300 Y-0.37200
X0.54300 Y-0.37100
X0.54200 Y-0.37100
X0.54200 Y-0.37000
X0.54100 Y-0.37000
X0.54100 Y-0.36900
X0.54000 Y-0.36900
X0.54000 Y-0.36800
X0.53900 Y-0.36800
X0.53900 Y-0.36700
X0.53800 Y-0.36700
X0.53800 Y-0.36600
X0.53700 Y-0.36600
X0.53700 Y-0.36500
X0.53600 Y-0.36500
X0.53600 Y-0.36400
X0.53500 Y-0.36400
X0.53500 Y-0.36300
X0.53400 Y-0.36300
X0.53400 Y-0.36200
X0.53300 Y-0.36200
X0.53300 Y-0.36100
X0.53200 Y-0.36100
X0.53200 Y-0.36000
X0.53100 Y-0.36000
X0.53100 Y-0.35900
X0.53000 Y-0.35900
X0.53000 Y-0.35800
X0.52900 Y-0.35800
X0.52900 Y-0.35700
X0.52800 Y-0.35700
X0.52800 Y-0.35600
X0.52700 Y-0.35600
X0.52700 Y-0.28500
X0.53100 Y-0.28500
X0.53100 Y-0.28400
X0.53300 Y-0.28400
X0.53300 Y-0.28300
X0.53400 Y-0.28300
X0.53400 Y-0.28200
X0.53600 Y-0.28200
X0.53600 Y-0.28100
X0.53800 Y-0.28100
X0.53800 Y-0.28000
X0.53900 Y-0.28000
X0.53900 Y-0.27900
X0.54100 Y-0.27900
X0.54100 Y-0.27700
X0.54200 Y-0.27700
X0.54200 Y-0.27600
X0.54300 Y-0.27600
X0.54300 Y-0.27500
X0.54400 Y-0.27500
X0.54400 Y-0.27300
X0.54500 Y-0.27300
X0.54500 Y-0.27200
X0.54600 Y-0.27200
X0.54600 Y-0.27000
X0.54700 Y-0.27000
X0.54700 Y-0.26800
X0.54800 Y-0.26800
X0.54800 Y-0.26300
X0.54900 Y-0.26300
X0.54900 Y-0.25700
X0.55000 Y-0.25700
X0.55000 Y-0.18600
X0.54900 Y-0.18600
X0.54900 Y-0.18000
X0.54800 Y-0.18000
X0.54800 Y-0.17500
X0.54700 Y-0.17500
X0.54700 Y-0.17200
X0.54600 Y-0.17200
X0.54600 Y-0.17100
X0.54500 Y-0.17100
X0.54500 Y-0.17000
X0.54400 Y-0.17000
X0.54400 Y-0.16800
X0.54300 Y-0.16800
X0.54300 Y-0.16700
X0.54200 Y-0.16700
X0.54200 Y-0.16600
X0.54100 Y-0.16600
X0.54100 Y-0.16400
X0.53900 Y-0.16400
X0.53900 Y-0.16300
X0.53800 Y-0.16300
X0.53800 Y-0.16200
X0.53600 Y-0.16200
X0.53600 Y-0.16100
X0.53400 Y-0.16100
X0.53400 Y-0.16000
X0.53300 Y-0.16000
X0.53300 Y-0.15900
X0.53100 Y-0.15900
X0.53100 Y-0.15800
X0.52500 Y-0.15800
X0.52500 Y-0.15700
X0.50400 Y-0.15700
X0.50400 Y-0.15800
X0.49800 Y-0.15800
X0.49800 Y-0.15900
X0.49600 Y-0.15900
X0.49600 Y-0.16000
X0.49500 Y-0.16000
X0.49500 Y-0.16100
X0.49300 Y-0.16100
X0.49300 Y-0.16200
X0.49100 Y-0.16200
X0.49100 Y-0.16300
G04 P0 ( dwell for no time -- G64 should not smooth over this point )
G00 Z0.10000 ( retract )

G00 X0.45100 Y-0.64300 ( rapid move to begin. )
G01 Z-0.00500 
G04 P0 ( dwell for no time -- G64 should not smooth over this point )
X0.45100 Y-0.64300
X0.45000 Y-0.64300
X0.45000 Y-0.64400
X0.44800 Y-0.64400
X0.44800 Y-0.64600
X0.44700 Y-0.64600
X0.44700 Y-0.64700
X0.44600 Y-0.64700
X0.44600 Y-0.64800
X0.44500 Y-0.64800
X0.44500 Y-0.65000
X0.44400 Y-0.65000
X0.44400 Y-0.65100
X0.44300 Y-0.65100
X0.44300 Y-0.65300
X0.44200 Y-0.65300
X0.44200 Y-0.65500
X0.44100 Y-0.65500
X0.44100 Y-0.66000
X0.44000 Y-0.66000
X0.44000 Y-0.66600
X0.43900 Y-0.66600
X0.43900 Y-0.73700
X0.44000 Y-0.73700
X0.44000 Y-0.74300
X0.44100 Y-0.74300
X0.44100 Y-0.74800
X0.44200 Y-0.74800
X0.44200 Y-0.75000
X0.44300 Y-0.75000
X0.44300 Y-0.75200
X0.44400 Y-0.75200
X0.44400 Y-0.75300
X0.44500 Y-0.75300
X0.44500 Y-0.75500
X0.44600 Y-0.75500
X0.44600 Y-0.75600
X0.44700 Y-0.75600
X0.44700 Y-0.75700
X0.44800 Y-0.75700
X0.44800 Y-0.75900
X0.45000 Y-0.75900
X0.45000 Y-0.76000
X0.45100 Y-0.76000
X0.45100 Y-0.76100
X0.45300 Y-0.76100
X0.45300 Y-0.76200
X0.45500 Y-0.76200
X0.45500 Y-0.76300
X0.45600 Y-0.76300
X0.45600 Y-0.76400
X0.45800 Y-0.76400
X0.45800 Y-0.76500
X0.46400 Y-0.76500
X0.46400 Y-0.76600
X0.48500 Y-0.76600
X0.48500 Y-0.76500
X0.49100 Y-0.76500
X0.49100 Y-0.76400
X0.49300 Y-0.76400
X0.49300 Y-0.76300
X0.49400 Y-0.76300
X0.49400 Y-0.76200
X0.49600 Y-0.76200
X0.49600 Y-0.76100
X0.49800 Y-0.76100
X0.49800 Y-0.76000
X0.49900 Y-0.76000
X0.49900 Y-0.75900
X0.50100 Y-0.75900
X0.50100 Y-0.75700
X0.50200 Y-0.75700
X0.50200 Y-0.75600
X0.50300 Y-0.75600
X0.50300 Y-0.75500
X0.50400 Y-0.75500
X0.50400 Y-0.75300
X0.50500 Y-0.75300
X0.50500 Y-0.75200
X0.50600 Y-0.75200
X0.50600 Y-0.75000
X0.50700 Y-0.75000
X0.50700 Y-0.74800
X0.50800 Y-0.74800
X0.50800 Y-0.74300
X0.50900 Y-0.74300
X0.50900 Y-0.73700
X0.51000 Y-0.73700
X0.51000 Y-0.66600
X0.50900 Y-0.66600
X0.50900 Y-0.66000
X0.50800 Y-0.66000
X0.50800 Y-0.65500
X0.50700 Y-0.65500
X0.50700 Y-0.65200
X0.50600 Y-0.65200
X0.50600 Y-0.65100
X0.50500 Y-0.65100
X0.50500 Y-0.65000
X0.50400 Y-0.65000
X0.50400 Y-0.64800
X0.50300 Y-0.64800
X0.50300 Y-0.64700
X0.50200 Y-0.64700
X0.50200 Y-0.64600
X0.50100 Y-0.64600
X0.50100 Y-0.64400
X0.49900 Y-0.64400
X0.49900 Y-0.64300
X0.49800 Y-0.64300
X0.49800 Y-0.64200
X0.49600 Y-0.64200
X0.49600 Y-0.64100
X0.49400 Y-0.64100
X0.49400 Y-0.64000
X0.49300 Y-0.64000
X0.49300 Y-0.63900
X0.49100 Y-0.63900
X0.49100 Y-0.63800
X0.48500 Y-0.63800
X0.48500 Y-0.63700
X0.46400 Y-0.63700
X0.46400 Y-0.63800
X0.45800 Y-0.63800
X0.45800 Y-0.63900
X0.45600 Y-0.63900
X0.45600 Y-0.64000
X0.45500 Y-0.64000
X0.45500 Y-0.64100
X0.45300 Y-0.64100
X0.45300 Y-0.64200
X0.45100 Y-0.64200
X0.45100 Y-0.64300

G04 P0 ( dwell for no time -- G64 should not smooth over this point )
G00 Z1.00000 ( retract )


( pcb2gcode 1.1.4 )

( This file uses 2 drill bit sizes. )

G94     ( Inches per minute feed rate. )
G20     ( Units == INCHES.             )
G90     ( Absolute coordinates.        )
S8000  ( RPM spindle speed.           )

G00 Z1.00000 ( Retract )
T1
M5      ( Spindle stop.                )
M6      ( Tool change.                 )
(MSG, CHANGE TOOL BIT: to drill size 0.03200 inch)
M0      ( Temporary machine stop.      )
M3      ( Spindle on clockwise.        )

g0 z0.10000
g0 x0.21400y-0.25200
g1 z-0.12500
g0 z0.10000

g0 z0.10000
g0 x0.21400y-0.55200
g1 z-0.12500
g0 z0.10000



G00 Z1.00000 ( Retract )
T2
M5      ( Spindle stop.                )
M6      ( Tool change.                 )
(MSG, CHANGE TOOL BIT: to drill size 0.03900 inch)
M0      ( Temporary machine stop.      )
M3      ( Spindle on clockwise.        )

g0 z0.10000
g0 x0.67400y-0.70200
g1 z-0.12500
g0 z0.10000

g0 z0.10000
g0 x0.61400y-0.22200
g1 z-0.12500
g0 z0.10000

g0 z0.10000
g0 x0.57400y-0.70200
g1 z-0.12500
g0 z0.10000

g0 z0.10000
g0 x0.51400y-0.22200
g1 z-0.12500
g0 z0.10000

g0 z0.10000
g0 x0.47400y-0.70200
g1 z-0.12500
g0 z0.10000

g0 z0.10000
g0 x0.41400y-0.22200
g1 z-0.12500
g0 z0.10000

g0 z0.10000
g0 x0.37400y-0.70200
g1 z-0.12500
g0 z0.10000



G00 Z1.00000 ( All done -- retract )

M9 ( Coolant off. )
 ( Program end. )



G94     
g20     
G90     
S8000  
M3      


G64 P0.00500 

G04 P0 
G00 Z0.10000 

G00 X0.880740157480315 Y-0.046 
G01 Z-0.00500 
G04 P0 
X0.880740157480315 Y-0.046
X0.880740157480315 Y-0.864
X0.881740157480315 Y-0.864
X0.881740157480315 Y-0.866
X0.882740157480315 Y-0.866
X0.882740157480315 Y-0.867
X0.883740157480315 Y-0.867
X0.883740157480315 Y-0.868
X1.59374015748032 Y-0.868
X1.59374015748032 Y-0.867
X1.59474015748032 Y-0.867
X1.59474015748032 Y-0.866
X1.59574015748032 Y-0.866
X1.59574015748032 Y-0.864
X1.59674015748032 Y-0.864
X1.59674015748032 Y-0.044
X1.59574015748032 Y-0.044
X1.59574015748032 Y-0.042
X1.59474015748032 Y-0.042
X1.59474015748032 Y-0.041
X1.59374015748032 Y-0.041
X1.59374015748032 Y-0.04
X0.883740157480315 Y-0.04
X0.883740157480315 Y-0.041
X0.882740157480315 Y-0.041
X0.882740157480315 Y-0.042
X0.881740157480315 Y-0.042
X0.881740157480315 Y-0.044
X0.880740157480315 Y-0.044
X0.880740157480315 Y-0.046
G04 P0 
G00 Z0.10000 

G00 X1.08774015748031 Y-0.093 
G01 Z-0.00500 
G04 P0 
X1.08774015748031 Y-0.093
X1.08674015748032 Y-0.093
X1.08674015748032 Y-0.094
X1.08574015748031 Y-0.094
X1.08574015748031 Y-0.095
X1.08474015748032 Y-0.095
X1.08474015748032 Y-0.096
X1.08374015748032 Y-0.096
X1.08374015748032 Y-0.097
X1.08274015748032 Y-0.097
X1.08274015748032 Y-0.098
X1.08174015748031 Y-0.098
X1.08174015748031 Y-0.099
X1.08074015748032 Y-0.099
X1.08074015748032 Y-0.1
X1.07974015748031 Y-0.1
X1.07974015748031 Y-0.101
X1.07874015748032 Y-0.101
X1.07874015748032 Y-0.102
X1.07774015748032 Y-0.102
X1.07774015748032 Y-0.103
X1.07674015748032 Y-0.103
X1.07674015748032 Y-0.104
X1.07574015748031 Y-0.104
X1.07574015748031 Y-0.105
X1.07474015748032 Y-0.105
X1.07474015748032 Y-0.106
X1.07374015748031 Y-0.106
X1.07374015748031 Y-0.107
X1.07274015748032 Y-0.107
X1.07274015748032 Y-0.108
X1.07174015748032 Y-0.108
X1.07174015748032 Y-0.109
X1.07074015748032 Y-0.109
X1.07074015748032 Y-0.11
X1.06974015748032 Y-0.11
X1.06974015748032 Y-0.111
X1.06874015748032 Y-0.111
X1.06874015748032 Y-0.112
X1.06774015748031 Y-0.112
X1.06774015748031 Y-0.113
X1.06674015748032 Y-0.113
X1.06674015748032 Y-0.114
X1.06574015748032 Y-0.114
X1.06574015748032 Y-0.115
X1.06474015748032 Y-0.115
X1.06474015748032 Y-0.116
X1.06374015748032 Y-0.116
X1.06374015748032 Y-0.117
X1.06274015748032 Y-0.117
X1.06274015748032 Y-0.118
X1.06174015748031 Y-0.118
X1.06174015748031 Y-0.119
X1.06074015748032 Y-0.119
X1.06074015748032 Y-0.12
X1.05974015748032 Y-0.12
X1.05974015748032 Y-0.121
X1.05874015748032 Y-0.121
X1.05874015748032 Y-0.122
X1.05774015748032 Y-0.122
X1.05774015748032 Y-0.123
X1.05674015748032 Y-0.123
X1.05674015748032 Y-0.124
X1.05574015748031 Y-0.124
X1.05574015748031 Y-0.125
X1.05474015748032 Y-0.125
X1.05474015748032 Y-0.126
X1.05374015748032 Y-0.126
X1.05374015748032 Y-0.127
X1.05274015748032 Y-0.127
X1.05274015748032 Y-0.128
X1.05174015748032 Y-0.128
X1.05174015748032 Y-0.129
X1.05074015748032 Y-0.129
X1.05074015748032 Y-0.13
X1.04974015748031 Y-0.13
X1.04974015748031 Y-0.131
X1.04874015748032 Y-0.131
X1.04874015748032 Y-0.132
X1.04774015748032 Y-0.132
X1.04774015748032 Y-0.133
X1.04674015748032 Y-0.133
X1.04674015748032 Y-0.134
X1.04574015748032 Y-0.134
X1.04574015748032 Y-0.135
X1.04474015748032 Y-0.135
X1.04474015748032 Y-0.136
X1.04374015748031 Y-0.136
X1.04374015748031 Y-0.137
X1.04274015748032 Y-0.137
X1.04274015748032 Y-0.138
X1.04174015748032 Y-0.138
X1.04174015748032 Y-0.139
X1.04074015748032 Y-0.139
X1.04074015748032 Y-0.141
X1.03974015748032 Y-0.141
X1.03974015748032 Y-0.143
X1.03874015748032 Y-0.143
X1.03874015748032 Y-0.215
X1.03474015748032 Y-0.215
X1.03474015748032 Y-0.216
X1.03274015748032 Y-0.216
X1.03274015748032 Y-0.217
X1.03174015748032 Y-0.217
X1.03174015748032 Y-0.218
X1.02974015748032 Y-0.218
X1.02974015748032 Y-0.219
X1.02774015748032 Y-0.219
X1.02774015748032 Y-0.22
X1.02674015748031 Y-0.22
X1.02674015748031 Y-0.221
X1.02474015748031 Y-0.221
X1.02474015748031 Y-0.222
X1.02374015748032 Y-0.222
X1.02374015748032 Y-0.223
X1.02274015748032 Y-0.223
X1.02274015748032 Y-0.225
X1.02174015748032 Y-0.225
X1.02174015748032 Y-0.226
X1.02074015748031 Y-0.226
X1.02074015748031 Y-0.227
X1.01974015748032 Y-0.227
X1.01974015748032 Y-0.229
X1.01874015748031 Y-0.229
X1.01874015748031 Y-0.23
X1.01774015748032 Y-0.23
X1.01774015748032 Y-0.231
X1.01674015748032 Y-0.231
X1.01674015748032 Y-0.234
X1.01574015748032 Y-0.234
X1.01574015748032 Y-0.238
X1.01474015748031 Y-0.238
X1.01474015748031 Y-0.265
X1.01574015748032 Y-0.265
X1.01574015748032 Y-0.269
X1.01674015748032 Y-0.269
X1.01674015748032 Y-0.271
X1.01774015748032 Y-0.271
X1.01774015748032 Y-0.273
X1.01874015748031 Y-0.273
X1.01874015748031 Y-0.274
X1.01974015748032 Y-0.274
X1.01974015748032 Y-0.276
X1.02074015748031 Y-0.276
X1.02074015748031 Y-0.277
X1.02174015748032 Y-0.277
X1.02174015748032 Y-0.278
X1.02274015748032 Y-0.278
X1.02274015748032 Y-0.28
X1.02374015748032 Y-0.28
X1.02374015748032 Y-0.281
X1.02474015748031 Y-0.281
X1.02474015748031 Y-0.282
X1.02674015748031 Y-0.282
X1.02674015748031 Y-0.283
X1.02774015748032 Y-0.283
X1.02774015748032 Y-0.284
X1.02974015748032 Y-0.284
X1.02974015748032 Y-0.285
X1.03174015748032 Y-0.285
X1.03174015748032 Y-0.286
X1.03274015748032 Y-0.286
X1.03274015748032 Y-0.287
X1.03474015748032 Y-0.287
X1.03474015748032 Y-0.288
X1.04074015748032 Y-0.288
X1.04074015748032 Y-0.289
X1.06374015748032 Y-0.289
X1.06374015748032 Y-0.288
X1.06974015748032 Y-0.288
X1.06974015748032 Y-0.287
X1.07174015748032 Y-0.287
X1.07174015748032 Y-0.286
X1.07274015748032 Y-0.286
X1.07274015748032 Y-0.285
X1.07474015748032 Y-0.285
X1.07474015748032 Y-0.284
X1.07674015748032 Y-0.284
X1.07674015748032 Y-0.283
X1.07774015748032 Y-0.283
X1.07774015748032 Y-0.282
X1.07974015748031 Y-0.282
X1.07974015748031 Y-0.281
X1.08074015748032 Y-0.281
X1.08074015748032 Y-0.28
X1.08174015748031 Y-0.28
X1.08174015748031 Y-0.278
X1.08274015748032 Y-0.278
X1.08274015748032 Y-0.277
X1.08374015748032 Y-0.277
X1.08374015748032 Y-0.276
X1.08474015748032 Y-0.276
X1.08474015748032 Y-0.274
X1.08574015748031 Y-0.274
X1.08574015748031 Y-0.273
X1.08674015748032 Y-0.273
X1.08674015748032 Y-0.271
X1.08774015748031 Y-0.271
X1.08774015748031 Y-0.269
X1.08874015748032 Y-0.269
X1.08874015748032 Y-0.265
X1.08974015748032 Y-0.265
X1.08974015748032 Y-0.238
X1.08874015748032 Y-0.238
X1.08874015748032 Y-0.234
X1.08774015748031 Y-0.234
X1.08774015748031 Y-0.231
X1.08674015748032 Y-0.231
X1.08674015748032 Y-0.23
X1.08574015748031 Y-0.23
X1.08574015748031 Y-0.229
X1.08474015748032 Y-0.229
X1.08474015748032 Y-0.227
X1.08374015748032 Y-0.227
X1.08374015748032 Y-0.226
X1.08274015748032 Y-0.226
X1.08274015748032 Y-0.225
X1.08174015748031 Y-0.225
X1.08174015748031 Y-0.223
X1.08074015748032 Y-0.223
X1.08074015748032 Y-0.222
X1.07974015748031 Y-0.222
X1.07974015748031 Y-0.221
X1.07774015748032 Y-0.221
X1.07774015748032 Y-0.22
X1.07674015748032 Y-0.22
X1.07674015748032 Y-0.219
X1.07474015748032 Y-0.219
X1.07474015748032 Y-0.218
X1.07274015748032 Y-0.218
X1.07274015748032 Y-0.217
X1.07174015748032 Y-0.217
X1.07174015748032 Y-0.216
X1.06974015748032 Y-0.216
X1.06974015748032 Y-0.215
X1.06474015748032 Y-0.215
X1.06474015748032 Y-0.158
X1.06574015748032 Y-0.158
X1.06574015748032 Y-0.157
X1.06674015748032 Y-0.157
X1.06674015748032 Y-0.156
X1.06774015748031 Y-0.156
X1.06774015748031 Y-0.155
X1.06874015748032 Y-0.155
X1.06874015748032 Y-0.154
X1.06974015748032 Y-0.154
X1.06974015748032 Y-0.153
X1.07074015748032 Y-0.153
X1.07074015748032 Y-0.152
X1.07174015748032 Y-0.152
X1.07174015748032 Y-0.151
X1.07274015748032 Y-0.151
X1.07274015748032 Y-0.15
X1.07374015748031 Y-0.15
X1.07374015748031 Y-0.149
X1.07474015748032 Y-0.149
X1.07474015748032 Y-0.148
X1.07574015748031 Y-0.148
X1.07574015748031 Y-0.147
X1.07674015748032 Y-0.147
X1.07674015748032 Y-0.146
X1.07774015748032 Y-0.146
X1.07774015748032 Y-0.145
X1.07874015748032 Y-0.145
X1.07874015748032 Y-0.144
X1.07974015748031 Y-0.144
X1.07974015748031 Y-0.143
X1.08074015748032 Y-0.143
X1.08074015748032 Y-0.142
X1.08174015748031 Y-0.142
X1.08174015748031 Y-0.141
X1.08274015748032 Y-0.141
X1.08274015748032 Y-0.14
X1.08374015748032 Y-0.14
X1.08374015748032 Y-0.139
X1.08474015748032 Y-0.139
X1.08474015748032 Y-0.138
X1.08574015748031 Y-0.138
X1.08574015748031 Y-0.137
X1.08674015748032 Y-0.137
X1.08674015748032 Y-0.136
X1.08774015748031 Y-0.136
X1.08774015748031 Y-0.135
X1.08874015748032 Y-0.135
X1.08874015748032 Y-0.134
X1.08974015748032 Y-0.134
X1.08974015748032 Y-0.133
X1.09074015748032 Y-0.133
X1.09074015748032 Y-0.132
X1.09174015748031 Y-0.132
X1.09174015748031 Y-0.131
X1.09274015748032 Y-0.131
X1.09274015748032 Y-0.13
X1.09374015748031 Y-0.13
X1.09374015748031 Y-0.129
X1.09474015748032 Y-0.129
X1.09474015748032 Y-0.128
X1.09574015748032 Y-0.128
X1.09574015748032 Y-0.127
X1.09674015748032 Y-0.127
X1.09674015748032 Y-0.126
X1.09774015748031 Y-0.126
X1.09774015748031 Y-0.125
X1.09874015748032 Y-0.125
X1.09874015748032 Y-0.124
X1.09974015748031 Y-0.124
X1.09974015748031 Y-0.123
X1.10074015748032 Y-0.123
X1.10074015748032 Y-0.122
X1.10174015748032 Y-0.122
X1.10174015748032 Y-0.121
X1.10274015748032 Y-0.121
X1.10274015748032 Y-0.12
X1.10374015748031 Y-0.12
X1.10374015748031 Y-0.119
X1.10474015748032 Y-0.119
X1.10474015748032 Y-0.118
X1.10574015748031 Y-0.118
X1.10574015748031 Y-0.117
X1.10674015748032 Y-0.117
X1.10674015748032 Y-0.116
X1.10774015748032 Y-0.116
X1.10774015748032 Y-0.115
X1.10874015748032 Y-0.115
X1.10874015748032 Y-0.114
X1.10974015748031 Y-0.114
X1.10974015748031 Y-0.113
X1.39174015748031 Y-0.113
X1.39174015748031 Y-0.114
X1.39274015748032 Y-0.114
X1.39274015748032 Y-0.115
X1.39374015748032 Y-0.115
X1.39374015748032 Y-0.116
X1.39474015748032 Y-0.116
X1.39474015748032 Y-0.117
X1.39574015748032 Y-0.117
X1.39574015748032 Y-0.118
X1.39674015748032 Y-0.118
X1.39674015748032 Y-0.119
X1.39774015748031 Y-0.119
X1.39774015748031 Y-0.12
X1.39874015748032 Y-0.12
X1.39874015748032 Y-0.121
X1.39974015748032 Y-0.121
X1.39974015748032 Y-0.122
X1.40074015748032 Y-0.122
X1.40074015748032 Y-0.123
X1.40174015748031 Y-0.123
X1.40174015748031 Y-0.124
X1.40274015748031 Y-0.124
X1.40274015748031 Y-0.125
X1.40374015748031 Y-0.125
X1.40374015748031 Y-0.126
X1.40474015748031 Y-0.126
X1.40474015748031 Y-0.127
X1.40574015748032 Y-0.127
X1.40574015748032 Y-0.128
X1.40674015748032 Y-0.128
X1.40674015748032 Y-0.129
X1.40774015748032 Y-0.129
X1.40774015748032 Y-0.13
X1.40874015748031 Y-0.13
X1.40874015748031 Y-0.131
X1.40974015748032 Y-0.131
X1.40974015748032 Y-0.132
X1.41074015748031 Y-0.132
X1.41074015748031 Y-0.133
X1.41174015748032 Y-0.133
X1.41174015748032 Y-0.134
X1.41274015748032 Y-0.134
X1.41274015748032 Y-0.135
X1.41374015748032 Y-0.135
X1.41374015748032 Y-0.136
X1.41474015748031 Y-0.136
X1.41474015748031 Y-0.137
X1.41574015748032 Y-0.137
X1.41574015748032 Y-0.138
X1.41674015748031 Y-0.138
X1.41674015748031 Y-0.139
X1.41774015748032 Y-0.139
X1.41774015748032 Y-0.14
X1.41874015748032 Y-0.14
X1.41874015748032 Y-0.141
X1.41974015748032 Y-0.141
X1.41974015748032 Y-0.142
X1.42074015748031 Y-0.142
X1.42074015748031 Y-0.143
X1.42174015748032 Y-0.143
X1.42174015748032 Y-0.144
X1.42274015748031 Y-0.144
X1.42274015748031 Y-0.145
X1.42374015748032 Y-0.145
X1.42374015748032 Y-0.146
X1.42474015748032 Y-0.146
X1.42474015748032 Y-0.147
X1.42574015748032 Y-0.147
X1.42574015748032 Y-0.148
X1.42674015748031 Y-0.148
X1.42674015748031 Y-0.149
X1.42774015748032 Y-0.149
X1.42774015748032 Y-0.15
X1.42874015748031 Y-0.15
X1.42874015748031 Y-0.151
X1.42974015748032 Y-0.151
X1.42974015748032 Y-0.152
X1.43074015748032 Y-0.152
X1.43074015748032 Y-0.153
X1.43174015748032 Y-0.153
X1.43174015748032 Y-0.154
X1.43274015748031 Y-0.154
X1.43274015748031 Y-0.155
X1.43374015748032 Y-0.155
X1.43374015748032 Y-0.156
X1.43474015748031 Y-0.156
X1.43474015748031 Y-0.157
X1.43574015748032 Y-0.157
X1.43574015748032 Y-0.158
X1.43574015748032 Y-0.158
X1.43574015748032 Y-0.159
X1.43374015748032 Y-0.159
X1.43374015748032 Y-0.16
X1.43274015748031 Y-0.16
X1.43274015748031 Y-0.161
X1.43074015748032 Y-0.161
X1.43074015748032 Y-0.162
X1.42874015748031 Y-0.162
X1.42874015748031 Y-0.163
X1.42774015748032 Y-0.163
X1.42774015748032 Y-0.164
X1.42574015748032 Y-0.164
X1.42574015748032 Y-0.166
X1.42474015748032 Y-0.166
X1.42474015748032 Y-0.167
X1.42374015748032 Y-0.167
X1.42374015748032 Y-0.168
X1.42274015748031 Y-0.168
X1.42274015748031 Y-0.17
X1.42174015748032 Y-0.17
X1.42174015748032 Y-0.171
X1.42074015748031 Y-0.171
X1.42074015748031 Y-0.173
X1.41974015748032 Y-0.173
X1.41974015748032 Y-0.175
X1.41874015748032 Y-0.175
X1.41874015748032 Y-0.18
X1.41774015748032 Y-0.18
X1.41774015748032 Y-0.186
X1.41674015748031 Y-0.186
X1.41674015748031 Y-0.257
X1.41774015748032 Y-0.257
X1.41774015748032 Y-0.263
X1.41874015748032 Y-0.263
X1.41874015748032 Y-0.268
X1.41974015748032 Y-0.268
X1.41974015748032 Y-0.27
X1.42074015748031 Y-0.27
X1.42074015748031 Y-0.272
X1.42174015748032 Y-0.272
X1.42174015748032 Y-0.273
X1.42274015748031 Y-0.273
X1.42274015748031 Y-0.275
X1.42374015748032 Y-0.275
X1.42374015748032 Y-0.276
X1.42474015748032 Y-0.276
X1.42474015748032 Y-0.277
X1.42574015748032 Y-0.277
X1.42574015748032 Y-0.279
X1.42774015748032 Y-0.279
X1.42774015748032 Y-0.28
X1.42874015748031 Y-0.28
X1.42874015748031 Y-0.281
X1.43074015748032 Y-0.281
X1.43074015748032 Y-0.282
X1.43274015748031 Y-0.282
X1.43274015748031 Y-0.283
X1.43374015748032 Y-0.283
X1.43374015748032 Y-0.284
X1.43574015748032 Y-0.284
X1.43574015748032 Y-0.285
X1.44174015748032 Y-0.285
X1.44174015748032 Y-0.286
X1.46274015748031 Y-0.286
X1.46274015748031 Y-0.285
X1.46874015748031 Y-0.285
X1.46874015748031 Y-0.284
X1.47074015748031 Y-0.284
X1.47074015748031 Y-0.283
X1.47174015748031 Y-0.283
X1.47174015748031 Y-0.282
X1.47374015748032 Y-0.282
X1.47374015748032 Y-0.281
X1.47574015748032 Y-0.281
X1.47574015748032 Y-0.28
X1.47674015748031 Y-0.28
X1.47674015748031 Y-0.279
X1.47874015748032 Y-0.279
X1.47874015748032 Y-0.277
X1.47974015748032 Y-0.277
X1.47974015748032 Y-0.276
X1.48074015748031 Y-0.276
X1.48074015748031 Y-0.275
X1.48174015748032 Y-0.275
X1.48174015748032 Y-0.274
X1.48274015748031 Y-0.274
X1.48274015748031 Y-0.275
X1.48374015748031 Y-0.275
X1.48374015748031 Y-0.276
X1.48474015748032 Y-0.276
X1.48474015748032 Y-0.277
X1.48574015748032 Y-0.277
X1.48574015748032 Y-0.278
X1.48674015748031 Y-0.278
X1.48674015748031 Y-0.279
X1.48774015748032 Y-0.279
X1.48774015748032 Y-0.28
X1.48874015748031 Y-0.28
X1.48874015748031 Y-0.281
X1.48974015748031 Y-0.281
X1.48974015748031 Y-0.282
X1.49074015748032 Y-0.282
X1.49074015748032 Y-0.283
X1.49174015748032 Y-0.283
X1.49174015748032 Y-0.284
X1.49274015748031 Y-0.284
X1.49274015748031 Y-0.285
X1.49374015748032 Y-0.285
X1.49374015748032 Y-0.286
X1.49474015748031 Y-0.286
X1.49474015748031 Y-0.287
X1.49574015748031 Y-0.287
X1.49574015748031 Y-0.288
X1.49674015748032 Y-0.288
X1.49674015748032 Y-0.289
X1.49774015748032 Y-0.289
X1.49774015748032 Y-0.29
X1.49874015748031 Y-0.29
X1.49874015748031 Y-0.638
X1.49574015748031 Y-0.638
X1.49574015748031 Y-0.639
X1.49374015748032 Y-0.639
X1.49374015748032 Y-0.64
X1.49274015748031 Y-0.64
X1.49274015748031 Y-0.641
X1.49074015748032 Y-0.641
X1.49074015748032 Y-0.642
X1.48874015748031 Y-0.642
X1.48874015748031 Y-0.643
X1.48774015748032 Y-0.643
X1.48774015748032 Y-0.644
X1.48574015748032 Y-0.644
X1.48574015748032 Y-0.646
X1.48474015748032 Y-0.646
X1.48474015748032 Y-0.647
X1.48374015748031 Y-0.647
X1.48374015748031 Y-0.648
X1.48274015748031 Y-0.648
X1.48274015748031 Y-0.65
X1.48174015748032 Y-0.65
X1.48174015748032 Y-0.651
X1.48074015748031 Y-0.651
X1.48074015748031 Y-0.653
X1.47974015748032 Y-0.653
X1.47974015748032 Y-0.655
X1.47874015748032 Y-0.655
X1.47874015748032 Y-0.66
X1.47774015748031 Y-0.66
X1.47774015748031 Y-0.666
X1.47674015748031 Y-0.666
X1.47674015748031 Y-0.737
X1.47774015748031 Y-0.737
X1.47774015748031 Y-0.743
X1.47874015748032 Y-0.743
X1.47874015748032 Y-0.748
X1.47974015748032 Y-0.748
X1.47974015748032 Y-0.75
X1.48074015748031 Y-0.75
X1.48074015748031 Y-0.752
X1.48174015748032 Y-0.752
X1.48174015748032 Y-0.753
X1.48274015748031 Y-0.753
X1.48274015748031 Y-0.755
X1.48374015748031 Y-0.755
X1.48374015748031 Y-0.756
X1.48474015748032 Y-0.756
X1.48474015748032 Y-0.757
X1.48574015748032 Y-0.757
X1.48574015748032 Y-0.759
X1.48774015748032 Y-0.759
X1.48774015748032 Y-0.76
X1.48874015748031 Y-0.76
X1.48874015748031 Y-0.761
X1.49074015748032 Y-0.761
X1.49074015748032 Y-0.762
X1.49274015748031 Y-0.762
X1.49274015748031 Y-0.763
X1.49374015748032 Y-0.763
X1.49374015748032 Y-0.764
X1.49574015748031 Y-0.764
X1.49574015748031 Y-0.765
X1.50174015748031 Y-0.765
X1.50174015748031 Y-0.766
X1.52274015748031 Y-0.766
X1.52274015748031 Y-0.765
X1.52874015748031 Y-0.765
X1.52874015748031 Y-0.764
X1.53074015748031 Y-0.764
X1.53074015748031 Y-0.763
X1.53174015748031 Y-0.763
X1.53174015748031 Y-0.762
X1.53374015748031 Y-0.762
X1.53374015748031 Y-0.761
X1.53574015748032 Y-0.761
X1.53574015748032 Y-0.76
X1.53674015748031 Y-0.76
X1.53674015748031 Y-0.759
X1.53874015748032 Y-0.759
X1.53874015748032 Y-0.757
X1.53974015748031 Y-0.757
X1.53974015748031 Y-0.756
X1.54074015748032 Y-0.756
X1.54074015748032 Y-0.755
X1.54174015748032 Y-0.755
X1.54174015748032 Y-0.753
X1.54274015748031 Y-0.753
X1.54274015748031 Y-0.752
X1.54374015748031 Y-0.752
X1.54374015748031 Y-0.75
X1.54474015748032 Y-0.75
X1.54474015748032 Y-0.748
X1.54574015748031 Y-0.748
X1.54574015748031 Y-0.743
X1.54674015748032 Y-0.743
X1.54674015748032 Y-0.737
X1.54774015748032 Y-0.737
X1.54774015748032 Y-0.666
X1.54674015748032 Y-0.666
X1.54674015748032 Y-0.66
X1.54574015748031 Y-0.66
X1.54574015748031 Y-0.655
X1.54474015748032 Y-0.655
X1.54474015748032 Y-0.652
X1.54374015748031 Y-0.652
X1.54374015748031 Y-0.651
X1.54274015748031 Y-0.651
X1.54274015748031 Y-0.65
X1.54174015748032 Y-0.65
X1.54174015748032 Y-0.648
X1.54074015748032 Y-0.648
X1.54074015748032 Y-0.647
X1.53974015748031 Y-0.647
X1.53974015748031 Y-0.646
X1.53874015748032 Y-0.646
X1.53874015748032 Y-0.644
X1.53674015748031 Y-0.644
X1.53674015748031 Y-0.643
X1.53574015748032 Y-0.643
X1.53574015748032 Y-0.642
X1.53374015748031 Y-0.642
X1.53374015748031 Y-0.641
X1.53174015748031 Y-0.641
X1.53174015748031 Y-0.64
X1.53074015748031 Y-0.64
X1.53074015748031 Y-0.639
X1.52874015748031 Y-0.639
X1.52874015748031 Y-0.638
X1.52474015748031 Y-0.638
X1.52474015748031 Y-0.275
X1.52374015748032 Y-0.275
X1.52374015748032 Y-0.273
X1.52274015748031 Y-0.273
X1.52274015748031 Y-0.271
X1.52174015748032 Y-0.271
X1.52174015748032 Y-0.27
X1.52074015748032 Y-0.27
X1.52074015748032 Y-0.269
X1.51974015748031 Y-0.269
X1.51974015748031 Y-0.268
X1.51874015748031 Y-0.268
X1.51874015748031 Y-0.267
X1.51774015748032 Y-0.267
X1.51774015748032 Y-0.266
X1.51674015748031 Y-0.266
X1.51674015748031 Y-0.265
X1.51574015748032 Y-0.265
X1.51574015748032 Y-0.264
X1.51474015748032 Y-0.264
X1.51474015748032 Y-0.263
X1.51374015748031 Y-0.263
X1.51374015748031 Y-0.262
X1.51274015748031 Y-0.262
X1.51274015748031 Y-0.261
X1.51174015748032 Y-0.261
X1.51174015748032 Y-0.26
X1.51074015748031 Y-0.26
X1.51074015748031 Y-0.259
X1.50974015748032 Y-0.259
X1.50974015748032 Y-0.258
X1.50874015748032 Y-0.258
X1.50874015748032 Y-0.257
X1.50774015748031 Y-0.257
X1.50774015748031 Y-0.256
X1.50674015748031 Y-0.256
X1.50674015748031 Y-0.255
X1.50574015748032 Y-0.255
X1.50574015748032 Y-0.254
X1.50474015748031 Y-0.254
X1.50474015748031 Y-0.253
X1.50374015748032 Y-0.253
X1.50374015748032 Y-0.252
X1.50274015748032 Y-0.252
X1.50274015748032 Y-0.251
X1.50174015748031 Y-0.251
X1.50174015748031 Y-0.25
X1.50074015748031 Y-0.25
X1.50074015748031 Y-0.249
X1.49974015748032 Y-0.249
X1.49974015748032 Y-0.248
X1.49874015748031 Y-0.248
X1.49874015748031 Y-0.247
X1.49774015748032 Y-0.247
X1.49774015748032 Y-0.246
X1.49674015748032 Y-0.246
X1.49674015748032 Y-0.245
X1.49574015748031 Y-0.245
X1.49574015748031 Y-0.244
X1.49474015748031 Y-0.244
X1.49474015748031 Y-0.243
X1.49374015748032 Y-0.243
X1.49374015748032 Y-0.242
X1.49274015748031 Y-0.242
X1.49274015748031 Y-0.241
X1.49174015748032 Y-0.241
X1.49174015748032 Y-0.24
X1.49074015748032 Y-0.24
X1.49074015748032 Y-0.239
X1.48974015748031 Y-0.239
X1.48974015748031 Y-0.238
X1.48874015748031 Y-0.238
X1.48874015748031 Y-0.237
X1.48774015748032 Y-0.237
X1.48774015748032 Y-0.186
X1.48674015748031 Y-0.186
X1.48674015748031 Y-0.18
X1.48574015748032 Y-0.18
X1.48574015748032 Y-0.175
X1.48474015748032 Y-0.175
X1.48474015748032 Y-0.172
X1.48374015748031 Y-0.172
X1.48374015748031 Y-0.171
X1.48274015748031 Y-0.171
X1.48274015748031 Y-0.17
X1.48174015748032 Y-0.17
X1.48174015748032 Y-0.168
X1.48074015748031 Y-0.168
X1.48074015748031 Y-0.167
X1.47974015748032 Y-0.167
X1.47974015748032 Y-0.166
X1.47874015748032 Y-0.166
X1.47874015748032 Y-0.164
X1.47674015748031 Y-0.164
X1.47674015748031 Y-0.163
X1.47574015748032 Y-0.163
X1.47574015748032 Y-0.162
X1.47374015748032 Y-0.162
X1.47374015748032 Y-0.161
X1.47174015748031 Y-0.161
X1.47174015748031 Y-0.16
X1.47074015748031 Y-0.16
X1.47074015748031 Y-0.159
X1.46874015748031 Y-0.159
X1.46874015748031 Y-0.158
X1.46474015748031 Y-0.158
X1.46474015748031 Y-0.145
X1.46374015748032 Y-0.145
X1.46374015748032 Y-0.143
X1.46274015748031 Y-0.143
X1.46274015748031 Y-0.141
X1.46174015748032 Y-0.141
X1.46174015748032 Y-0.14
X1.46074015748032 Y-0.14
X1.46074015748032 Y-0.139
X1.45974015748031 Y-0.139
X1.45974015748031 Y-0.138
X1.45874015748031 Y-0.138
X1.45874015748031 Y-0.137
X1.45774015748032 Y-0.137
X1.45774015748032 Y-0.136
X1.45674015748031 Y-0.136
X1.45674015748031 Y-0.135
X1.45574015748032 Y-0.135
X1.45574015748032 Y-0.134
X1.45474015748032 Y-0.134
X1.45474015748032 Y-0.133
X1.45374015748031 Y-0.133
X1.45374015748031 Y-0.132
X1.45274015748031 Y-0.132
X1.45274015748031 Y-0.131
X1.45174015748032 Y-0.131
X1.45174015748032 Y-0.13
X1.45074015748031 Y-0.13
X1.45074015748031 Y-0.129
X1.44974015748032 Y-0.129
X1.44974015748032 Y-0.128
X1.44874015748032 Y-0.128
X1.44874015748032 Y-0.127
X1.44774015748031 Y-0.127
X1.44774015748031 Y-0.126
X1.44674015748031 Y-0.126
X1.44674015748031 Y-0.125
X1.44574015748032 Y-0.125
X1.44574015748032 Y-0.124
X1.44474015748031 Y-0.124
X1.44474015748031 Y-0.123
X1.44374015748032 Y-0.123
X1.44374015748032 Y-0.122
X1.44274015748032 Y-0.122
X1.44274015748032 Y-0.121
X1.44174015748032 Y-0.121
X1.44174015748032 Y-0.12
X1.44074015748031 Y-0.12
X1.44074015748031 Y-0.119
X1.43974015748032 Y-0.119
X1.43974015748032 Y-0.118
X1.43874015748031 Y-0.118
X1.43874015748031 Y-0.117
X1.43774015748032 Y-0.117
X1.43774015748032 Y-0.116
X1.43674015748032 Y-0.116
X1.43674015748032 Y-0.115
X1.43574015748032 Y-0.115
X1.43574015748032 Y-0.114
X1.43474015748031 Y-0.114
X1.43474015748031 Y-0.113
X1.43374015748032 Y-0.113
X1.43374015748032 Y-0.112
X1.43274015748031 Y-0.112
X1.43274015748031 Y-0.111
X1.43174015748032 Y-0.111
X1.43174015748032 Y-0.11
X1.43074015748032 Y-0.11
X1.43074015748032 Y-0.109
X1.42974015748032 Y-0.109
X1.42974015748032 Y-0.108
X1.42874015748031 Y-0.108
X1.42874015748031 Y-0.107
X1.42774015748032 Y-0.107
X1.42774015748032 Y-0.106
X1.42674015748031 Y-0.106
X1.42674015748031 Y-0.105
X1.42574015748032 Y-0.105
X1.42574015748032 Y-0.104
X1.42474015748032 Y-0.104
X1.42474015748032 Y-0.103
X1.42374015748032 Y-0.103
X1.42374015748032 Y-0.102
X1.42274015748031 Y-0.102
X1.42274015748031 Y-0.101
X1.42174015748032 Y-0.101
X1.42174015748032 Y-0.1
X1.42074015748031 Y-0.1
X1.42074015748031 Y-0.099
X1.41974015748032 Y-0.099
X1.41974015748032 Y-0.098
X1.41874015748032 Y-0.098
X1.41874015748032 Y-0.097
X1.41774015748032 Y-0.097
X1.41774015748032 Y-0.096
X1.41674015748031 Y-0.096
X1.41674015748031 Y-0.095
X1.41574015748032 Y-0.095
X1.41574015748032 Y-0.094
X1.41474015748031 Y-0.094
X1.41474015748031 Y-0.093
X1.41374015748032 Y-0.093
X1.41374015748032 Y-0.092
X1.41274015748032 Y-0.092
X1.41274015748032 Y-0.091
X1.41174015748032 Y-0.091
X1.41174015748032 Y-0.09
X1.41074015748031 Y-0.09
X1.41074015748031 Y-0.089
X1.40874015748031 Y-0.089
X1.40874015748031 Y-0.088
X1.40674015748032 Y-0.088
X1.40674015748032 Y-0.087
X1.09474015748032 Y-0.087
X1.09474015748032 Y-0.088
X1.09274015748032 Y-0.088
X1.09274015748032 Y-0.089
X1.09074015748032 Y-0.089
X1.09074015748032 Y-0.09
X1.08974015748032 Y-0.09
X1.08974015748032 Y-0.091
X1.08874015748032 Y-0.091
X1.08874015748032 Y-0.092
X1.08774015748031 Y-0.092
X1.08774015748031 Y-0.093
G04 P0 
G00 Z0.10000 

G00 X1.32874015748032 Y-0.163 
G01 Z-0.00500 
G04 P0 
X1.32874015748032 Y-0.163
X1.32774015748032 Y-0.163
X1.32774015748032 Y-0.164
X1.32574015748031 Y-0.164
X1.32574015748031 Y-0.166
X1.32474015748032 Y-0.166
X1.32474015748032 Y-0.167
X1.32374015748031 Y-0.167
X1.32374015748031 Y-0.168
X1.32274015748032 Y-0.168
X1.32274015748032 Y-0.17
X1.32174015748032 Y-0.17
X1.32174015748032 Y-0.171
X1.32074015748032 Y-0.171
X1.32074015748032 Y-0.173
X1.31974015748031 Y-0.173
X1.31974015748031 Y-0.175
X1.31874015748032 Y-0.175
X1.31874015748032 Y-0.18
X1.31774015748031 Y-0.18
X1.31774015748031 Y-0.186
X1.31674015748032 Y-0.186
X1.31674015748032 Y-0.257
X1.31774015748031 Y-0.257
X1.31774015748031 Y-0.263
X1.31874015748032 Y-0.263
X1.31874015748032 Y-0.268
X1.31974015748031 Y-0.268
X1.31974015748031 Y-0.27
X1.32074015748032 Y-0.27
X1.32074015748032 Y-0.272
X1.32174015748032 Y-0.272
X1.32174015748032 Y-0.273
X1.32274015748032 Y-0.273
X1.32274015748032 Y-0.275
X1.32374015748031 Y-0.275
X1.32374015748031 Y-0.276
X1.32474015748032 Y-0.276
X1.32474015748032 Y-0.277
X1.32574015748031 Y-0.277
X1.32574015748031 Y-0.279
X1.32774015748032 Y-0.279
X1.32774015748032 Y-0.28
X1.32874015748032 Y-0.28
X1.32874015748032 Y-0.281
X1.33074015748032 Y-0.281
X1.33074015748032 Y-0.282
X1.33274015748032 Y-0.282
X1.33274015748032 Y-0.283
X1.33374015748032 Y-0.283
X1.33374015748032 Y-0.284
X1.33574015748031 Y-0.284
X1.33574015748031 Y-0.285
X1.33874015748032 Y-0.285
X1.33874015748032 Y-0.371
X1.33974015748032 Y-0.371
X1.33974015748032 Y-0.373
X1.34074015748032 Y-0.373
X1.34074015748032 Y-0.375
X1.34174015748031 Y-0.375
X1.34174015748031 Y-0.376
X1.34274015748032 Y-0.376
X1.34274015748032 Y-0.377
X1.34374015748031 Y-0.377
X1.34374015748031 Y-0.378
X1.34474015748032 Y-0.378
X1.34474015748032 Y-0.379
X1.34574015748032 Y-0.379
X1.34574015748032 Y-0.38
X1.34674015748032 Y-0.38
X1.34674015748032 Y-0.381
X1.34774015748031 Y-0.381
X1.34774015748031 Y-0.382
X1.34874015748032 Y-0.382
X1.34874015748032 Y-0.383
X1.34974015748031 Y-0.383
X1.34974015748031 Y-0.384
X1.35074015748032 Y-0.384
X1.35074015748032 Y-0.385
X1.35174015748032 Y-0.385
X1.35174015748032 Y-0.386
X1.35274015748032 Y-0.386
X1.35274015748032 Y-0.387
X1.35374015748031 Y-0.387
X1.35374015748031 Y-0.388
X1.35474015748032 Y-0.388
X1.35474015748032 Y-0.389
X1.35574015748031 Y-0.389
X1.35574015748031 Y-0.39
X1.35674015748032 Y-0.39
X1.35674015748032 Y-0.391
X1.35774015748032 Y-0.391
X1.35774015748032 Y-0.392
X1.35874015748032 Y-0.392
X1.35874015748032 Y-0.393
X1.35874015748032 Y-0.393
X1.35874015748032 Y-0.394
X1.35774015748032 Y-0.394
X1.35774015748032 Y-0.395
X1.35674015748032 Y-0.395
X1.35674015748032 Y-0.396
X1.35574015748031 Y-0.396
X1.35574015748031 Y-0.397
X1.35474015748032 Y-0.397
X1.35474015748032 Y-0.398
X1.35374015748031 Y-0.398
X1.35374015748031 Y-0.399
X1.35274015748032 Y-0.399
X1.35274015748032 Y-0.4
X1.35174015748032 Y-0.4
X1.35174015748032 Y-0.401
X1.35074015748032 Y-0.401
X1.35074015748032 Y-0.402
X1.34974015748031 Y-0.402
X1.34974015748031 Y-0.403
X1.34874015748032 Y-0.403
X1.34874015748032 Y-0.404
X1.34774015748031 Y-0.404
X1.34774015748031 Y-0.405
X1.34674015748032 Y-0.405
X1.34674015748032 Y-0.406
X1.34574015748032 Y-0.406
X1.34574015748032 Y-0.407
X1.34474015748032 Y-0.407
X1.34474015748032 Y-0.408
X1.34374015748031 Y-0.408
X1.34374015748031 Y-0.409
X1.34274015748032 Y-0.409
X1.34274015748032 Y-0.41
X1.34174015748031 Y-0.41
X1.34174015748031 Y-0.411
X1.34074015748032 Y-0.411
X1.34074015748032 Y-0.412
X1.33974015748032 Y-0.412
X1.33974015748032 Y-0.413
X1.33874015748032 Y-0.413
X1.33874015748032 Y-0.414
X1.33774015748031 Y-0.414
X1.33774015748031 Y-0.415
X1.33674015748032 Y-0.415
X1.33674015748032 Y-0.416
X1.33574015748031 Y-0.416
X1.33574015748031 Y-0.417
X1.33474015748032 Y-0.417
X1.33474015748032 Y-0.418
X1.33374015748032 Y-0.418
X1.33374015748032 Y-0.419
X1.33274015748032 Y-0.419
X1.33274015748032 Y-0.42
X1.33174015748031 Y-0.42
X1.33174015748031 Y-0.421
X1.33074015748032 Y-0.421
X1.33074015748032 Y-0.422
X1.32974015748031 Y-0.422
X1.32974015748031 Y-0.423
X1.32874015748032 Y-0.423
X1.32874015748032 Y-0.424
X1.32774015748032 Y-0.424
X1.32774015748032 Y-0.425
X1.32674015748032 Y-0.425
X1.32674015748032 Y-0.426
X1.32574015748031 Y-0.426
X1.32574015748031 Y-0.427
X1.32474015748032 Y-0.427
X1.32474015748032 Y-0.428
X1.32374015748031 Y-0.428
X1.32374015748031 Y-0.429
X1.32274015748032 Y-0.429
X1.32274015748032 Y-0.43
X1.32174015748032 Y-0.43
X1.32174015748032 Y-0.431
X1.32074015748032 Y-0.431
X1.32074015748032 Y-0.432
X1.31974015748031 Y-0.432
X1.31974015748031 Y-0.433
X1.31874015748032 Y-0.433
X1.31874015748032 Y-0.434
X1.31774015748031 Y-0.434
X1.31774015748031 Y-0.435
X1.31674015748032 Y-0.435
X1.31674015748032 Y-0.436
X1.31574015748032 Y-0.436
X1.31574015748032 Y-0.437
X1.31474015748032 Y-0.437
X1.31474015748032 Y-0.438
X1.31374015748031 Y-0.438
X1.31374015748031 Y-0.439
X1.31274015748032 Y-0.439
X1.31274015748032 Y-0.44
X1.31174015748031 Y-0.44
X1.31174015748031 Y-0.441
X1.31074015748032 Y-0.441
X1.31074015748032 Y-0.442
X1.30974015748032 Y-0.442
X1.30974015748032 Y-0.443
X1.30874015748032 Y-0.443
X1.30874015748032 Y-0.444
X1.30774015748031 Y-0.444
X1.30774015748031 Y-0.445
X1.30674015748032 Y-0.445
X1.30674015748032 Y-0.446
X1.30574015748032 Y-0.446
X1.30574015748032 Y-0.447
X1.30474015748032 Y-0.447
X1.30474015748032 Y-0.448
X1.30374015748032 Y-0.448
X1.30374015748032 Y-0.449
X1.30274015748032 Y-0.449
X1.30274015748032 Y-0.45
X1.30174015748031 Y-0.45
X1.30174015748031 Y-0.451
X1.30074015748032 Y-0.451
X1.30074015748032 Y-0.452
X1.29974015748032 Y-0.452
X1.29974015748032 Y-0.453
X1.29874015748032 Y-0.453
X1.29874015748032 Y-0.454
X1.29774015748032 Y-0.454
X1.29774015748032 Y-0.455
X1.29674015748032 Y-0.455
X1.29674015748032 Y-0.456
X1.29574015748031 Y-0.456
X1.29574015748031 Y-0.457
X1.29474015748032 Y-0.457
X1.29474015748032 Y-0.458
X1.29374015748032 Y-0.458
X1.29374015748032 Y-0.459
X1.29274015748032 Y-0.459
X1.29274015748032 Y-0.46
X1.29174015748032 Y-0.46
X1.29174015748032 Y-0.461
X1.29074015748032 Y-0.461
X1.29074015748032 Y-0.462
X1.28974015748032 Y-0.462
X1.28974015748032 Y-0.463
X1.28874015748032 Y-0.463
X1.28874015748032 Y-0.464
X1.28774015748032 Y-0.464
X1.28774015748032 Y-0.465
X1.28674015748032 Y-0.465
X1.28674015748032 Y-0.466
X1.28574015748032 Y-0.466
X1.28574015748032 Y-0.467
X1.28474015748032 Y-0.467
X1.28474015748032 Y-0.468
X1.28374015748032 Y-0.468
X1.28374015748032 Y-0.469
X1.28274015748032 Y-0.469
X1.28274015748032 Y-0.47
X1.28174015748032 Y-0.47
X1.28174015748032 Y-0.471
X1.28074015748032 Y-0.471
X1.28074015748032 Y-0.472
X1.27974015748032 Y-0.472
X1.27974015748032 Y-0.473
X1.27874015748032 Y-0.473
X1.27874015748032 Y-0.474
X1.27774015748032 Y-0.474
X1.27774015748032 Y-0.475
X1.27674015748031 Y-0.475
X1.27674015748031 Y-0.476
X1.27574015748032 Y-0.476
X1.27574015748032 Y-0.477
X1.27474015748031 Y-0.477
X1.27474015748031 Y-0.478
X1.27374015748032 Y-0.478
X1.27374015748032 Y-0.479
X1.27274015748032 Y-0.479
X1.27274015748032 Y-0.48
X1.27174015748032 Y-0.48
X1.27174015748032 Y-0.481
X1.27074015748031 Y-0.481
X1.27074015748031 Y-0.482
X1.26974015748032 Y-0.482
X1.26974015748032 Y-0.483
X1.26874015748031 Y-0.483
X1.26874015748031 Y-0.484
X1.26774015748032 Y-0.484
X1.26774015748032 Y-0.485
X1.26674015748032 Y-0.485
X1.26674015748032 Y-0.486
X1.26574015748032 Y-0.486
X1.26574015748032 Y-0.487
X1.26474015748031 Y-0.487
X1.26474015748031 Y-0.488
X1.26374015748032 Y-0.488
X1.26374015748032 Y-0.489
X1.26274015748031 Y-0.489
X1.26274015748031 Y-0.49
X1.26174015748032 Y-0.49
X1.26174015748032 Y-0.491
X1.26074015748032 Y-0.491
X1.26074015748032 Y-0.492
X1.25974015748032 Y-0.492
X1.25974015748032 Y-0.493
X1.25874015748031 Y-0.493
X1.25874015748031 Y-0.494
X1.25774015748032 Y-0.494
X1.25774015748032 Y-0.495
X1.25674015748031 Y-0.495
X1.25674015748031 Y-0.496
X1.25574015748032 Y-0.496
X1.25574015748032 Y-0.497
X1.25474015748031 Y-0.497
X1.25474015748031 Y-0.498
X1.25374015748032 Y-0.498
X1.25374015748032 Y-0.499
X1.25274015748031 Y-0.499
X1.25274015748031 Y-0.5
X1.25174015748032 Y-0.5
X1.25174015748032 Y-0.501
X1.25074015748031 Y-0.501
X1.25074015748031 Y-0.502
X1.24974015748032 Y-0.502
X1.24974015748032 Y-0.503
X1.24874015748031 Y-0.503
X1.24874015748031 Y-0.504
X1.24774015748032 Y-0.504
X1.24774015748032 Y-0.505
X1.24674015748031 Y-0.505
X1.24674015748031 Y-0.506
X1.24574015748032 Y-0.506
X1.24574015748032 Y-0.507
X1.24474015748031 Y-0.507
X1.24474015748031 Y-0.508
X1.24374015748032 Y-0.508
X1.24374015748032 Y-0.509
X1.24274015748032 Y-0.509
X1.24274015748032 Y-0.51
X1.24174015748032 Y-0.51
X1.24174015748032 Y-0.511
X1.24074015748031 Y-0.511
X1.24074015748031 Y-0.512
X1.23974015748032 Y-0.512
X1.23974015748032 Y-0.513
X1.23874015748031 Y-0.513
X1.23874015748031 Y-0.514
X1.23774015748032 Y-0.514
X1.23774015748032 Y-0.515
X1.23674015748032 Y-0.515
X1.23674015748032 Y-0.516
X1.23574015748032 Y-0.516
X1.23574015748032 Y-0.517
X1.23474015748031 Y-0.517
X1.23474015748031 Y-0.518
X1.23374015748032 Y-0.518
X1.23374015748032 Y-0.519
X1.23274015748031 Y-0.519
X1.23274015748031 Y-0.52
X1.23174015748032 Y-0.52
X1.23174015748032 Y-0.521
X1.23074015748032 Y-0.521
X1.23074015748032 Y-0.522
X1.22974015748032 Y-0.522
X1.22974015748032 Y-0.523
X1.22874015748031 Y-0.523
X1.22874015748031 Y-0.524
X1.22774015748032 Y-0.524
X1.22774015748032 Y-0.525
X1.22674015748031 Y-0.525
X1.22674015748031 Y-0.526
X1.22574015748032 Y-0.526
X1.22574015748032 Y-0.527
X1.22474015748032 Y-0.527
X1.22474015748032 Y-0.528
X1.22374015748032 Y-0.528
X1.22374015748032 Y-0.529
X1.22274015748031 Y-0.529
X1.22274015748031 Y-0.53
X1.22174015748032 Y-0.53
X1.22174015748032 Y-0.531
X1.22074015748031 Y-0.531
X1.22074015748031 Y-0.532
X1.21974015748032 Y-0.532
X1.21974015748032 Y-0.533
X1.21874015748032 Y-0.533
X1.21874015748032 Y-0.534
X1.21774015748032 Y-0.534
X1.21774015748032 Y-0.535
X1.21674015748032 Y-0.535
X1.21674015748032 Y-0.536
X1.21574015748032 Y-0.536
X1.21574015748032 Y-0.537
X1.21474015748031 Y-0.537
X1.21474015748031 Y-0.538
X1.21374015748032 Y-0.538
X1.21374015748032 Y-0.539
X1.08974015748032 Y-0.539
X1.08974015748032 Y-0.538
X1.08874015748032 Y-0.538
X1.08874015748032 Y-0.534
X1.08774015748031 Y-0.534
X1.08774015748031 Y-0.531
X1.08674015748032 Y-0.531
X1.08674015748032 Y-0.53
X1.08574015748031 Y-0.53
X1.08574015748031 Y-0.529
X1.08474015748032 Y-0.529
X1.08474015748032 Y-0.527
X1.08374015748032 Y-0.527
X1.08374015748032 Y-0.526
X1.08274015748032 Y-0.526
X1.08274015748032 Y-0.525
X1.08174015748031 Y-0.525
X1.08174015748031 Y-0.523
X1.08074015748032 Y-0.523
X1.08074015748032 Y-0.522
X1.07974015748031 Y-0.522
X1.07974015748031 Y-0.521
X1.07774015748032 Y-0.521
X1.07774015748032 Y-0.52
X1.07674015748032 Y-0.52
X1.07674015748032 Y-0.519
X1.07474015748032 Y-0.519
X1.07474015748032 Y-0.518
X1.07274015748032 Y-0.518
X1.07274015748032 Y-0.517
X1.07174015748032 Y-0.517
X1.07174015748032 Y-0.516
X1.06974015748032 Y-0.516
X1.06974015748032 Y-0.515
X1.06374015748032 Y-0.515
X1.06374015748032 Y-0.514
X1.04074015748032 Y-0.514
X1.04074015748032 Y-0.515
X1.03474015748032 Y-0.515
X1.03474015748032 Y-0.516
X1.03274015748032 Y-0.516
X1.03274015748032 Y-0.517
X1.03174015748032 Y-0.517
X1.03174015748032 Y-0.518
X1.02974015748032 Y-0.518
X1.02974015748032 Y-0.519
X1.02774015748032 Y-0.519
X1.02774015748032 Y-0.52
X1.02674015748031 Y-0.52
X1.02674015748031 Y-0.521
X1.02474015748031 Y-0.521
X1.02474015748031 Y-0.522
X1.02374015748032 Y-0.522
X1.02374015748032 Y-0.523
X1.02274015748032 Y-0.523
X1.02274015748032 Y-0.525
X1.02174015748032 Y-0.525
X1.02174015748032 Y-0.526
X1.02074015748031 Y-0.526
X1.02074015748031 Y-0.527
X1.01974015748032 Y-0.527
X1.01974015748032 Y-0.529
X1.01874015748031 Y-0.529
X1.01874015748031 Y-0.53
X1.01774015748032 Y-0.53
X1.01774015748032 Y-0.531
X1.01674015748032 Y-0.531
X1.01674015748032 Y-0.534
X1.01574015748032 Y-0.534
X1.01574015748032 Y-0.538
X1.01474015748031 Y-0.538
X1.01474015748031 Y-0.565
X1.01574015748032 Y-0.565
X1.01574015748032 Y-0.569
X1.01674015748032 Y-0.569
X1.01674015748032 Y-0.571
X1.01774015748032 Y-0.571
X1.01774015748032 Y-0.573
X1.01874015748031 Y-0.573
X1.01874015748031 Y-0.574
X1.01974015748032 Y-0.574
X1.01974015748032 Y-0.576
X1.02074015748031 Y-0.576
X1.02074015748031 Y-0.577
X1.02174015748032 Y-0.577
X1.02174015748032 Y-0.578
X1.02274015748032 Y-0.578
X1.02274015748032 Y-0.58
X1.02374015748032 Y-0.58
X1.02374015748032 Y-0.581
X1.02474015748031 Y-0.581
X1.02474015748031 Y-0.582
X1.02674015748031 Y-0.582
X1.02674015748031 Y-0.583
X1.02774015748032 Y-0.583
X1.02774015748032 Y-0.584
X1.02974015748032 Y-0.584
X1.02974015748032 Y-0.585
X1.03174015748032 Y-0.585
X1.03174015748032 Y-0.586
X1.03274015748032 Y-0.586
X1.03274015748032 Y-0.587
X1.03474015748032 Y-0.587
X1.03474015748032 Y-0.588
X1.04074015748032 Y-0.588
X1.04074015748032 Y-0.589
X1.06374015748032 Y-0.589
X1.06374015748032 Y-0.588
X1.06974015748032 Y-0.588
X1.06974015748032 Y-0.587
X1.07174015748032 Y-0.587
X1.07174015748032 Y-0.586
X1.07274015748032 Y-0.586
X1.07274015748032 Y-0.585
X1.07474015748032 Y-0.585
X1.07474015748032 Y-0.584
X1.07674015748032 Y-0.584
X1.07674015748032 Y-0.583
X1.07774015748032 Y-0.583
X1.07774015748032 Y-0.582
X1.07974015748031 Y-0.582
X1.07974015748031 Y-0.581
X1.08074015748032 Y-0.581
X1.08074015748032 Y-0.58
X1.08174015748031 Y-0.58
X1.08174015748031 Y-0.578
X1.08274015748032 Y-0.578
X1.08274015748032 Y-0.577
X1.08374015748032 Y-0.577
X1.08374015748032 Y-0.576
X1.08474015748032 Y-0.576
X1.08474015748032 Y-0.574
X1.08574015748031 Y-0.574
X1.08574015748031 Y-0.573
X1.08674015748032 Y-0.573
X1.08674015748032 Y-0.571
X1.08774015748031 Y-0.571
X1.08774015748031 Y-0.569
X1.08874015748032 Y-0.569
X1.08874015748032 Y-0.565
X1.22874015748031 Y-0.565
X1.22874015748031 Y-0.564
X1.23074015748032 Y-0.564
X1.23074015748032 Y-0.563
X1.23274015748031 Y-0.563
X1.23274015748031 Y-0.562
X1.23374015748032 Y-0.562
X1.23374015748032 Y-0.561
X1.23474015748031 Y-0.561
X1.23474015748031 Y-0.56
X1.23574015748032 Y-0.56
X1.23574015748032 Y-0.559
X1.23674015748032 Y-0.559
X1.23674015748032 Y-0.558
X1.23774015748032 Y-0.558
X1.23774015748032 Y-0.557
X1.23874015748031 Y-0.557
X1.23874015748031 Y-0.556
X1.23974015748032 Y-0.556
X1.23974015748032 Y-0.555
X1.24074015748031 Y-0.555
X1.24074015748031 Y-0.554
X1.24174015748032 Y-0.554
X1.24174015748032 Y-0.553
X1.24274015748032 Y-0.553
X1.24274015748032 Y-0.552
X1.24374015748032 Y-0.552
X1.24374015748032 Y-0.551
X1.24474015748031 Y-0.551
X1.24474015748031 Y-0.55
X1.24574015748032 Y-0.55
X1.24574015748032 Y-0.549
X1.24674015748031 Y-0.549
X1.24674015748031 Y-0.548
X1.24774015748032 Y-0.548
X1.24774015748032 Y-0.547
X1.24874015748031 Y-0.547
X1.24874015748031 Y-0.546
X1.24974015748032 Y-0.546
X1.24974015748032 Y-0.545
X1.25074015748031 Y-0.545
X1.25074015748031 Y-0.544
X1.25174015748032 Y-0.544
X1.25174015748032 Y-0.543
X1.25274015748031 Y-0.543
X1.25274015748031 Y-0.542
X1.25374015748032 Y-0.542
X1.25374015748032 Y-0.541
X1.25474015748031 Y-0.541
X1.25474015748031 Y-0.54
X1.25574015748032 Y-0.54
X1.25574015748032 Y-0.539
X1.25674015748031 Y-0.539
X1.25674015748031 Y-0.538
X1.25774015748032 Y-0.538
X1.25774015748032 Y-0.537
X1.25874015748031 Y-0.537
X1.25874015748031 Y-0.536
X1.25974015748032 Y-0.536
X1.25974015748032 Y-0.535
X1.26074015748032 Y-0.535
X1.26074015748032 Y-0.534
X1.26174015748032 Y-0.534
X1.26174015748032 Y-0.533
X1.26274015748031 Y-0.533
X1.26274015748031 Y-0.532
X1.26374015748032 Y-0.532
X1.26374015748032 Y-0.531
X1.26474015748031 Y-0.531
X1.26474015748031 Y-0.53
X1.26574015748032 Y-0.53
X1.26574015748032 Y-0.529
X1.26674015748032 Y-0.529
X1.26674015748032 Y-0.528
X1.26774015748032 Y-0.528
X1.26774015748032 Y-0.527
X1.26874015748031 Y-0.527
X1.26874015748031 Y-0.526
X1.26974015748032 Y-0.526
X1.26974015748032 Y-0.525
X1.27074015748031 Y-0.525
X1.27074015748031 Y-0.524
X1.27174015748032 Y-0.524
X1.27174015748032 Y-0.523
X1.27274015748032 Y-0.523
X1.27274015748032 Y-0.522
X1.27374015748032 Y-0.522
X1.27374015748032 Y-0.521
X1.27474015748031 Y-0.521
X1.27474015748031 Y-0.52
X1.27574015748032 Y-0.52
X1.27574015748032 Y-0.519
X1.27674015748031 Y-0.519
X1.27674015748031 Y-0.518
X1.27774015748032 Y-0.518
X1.27774015748032 Y-0.517
X1.27874015748032 Y-0.517
X1.27874015748032 Y-0.516
X1.27974015748032 Y-0.516
X1.27974015748032 Y-0.515
X1.28074015748032 Y-0.515
X1.28074015748032 Y-0.514
X1.28174015748032 Y-0.514
X1.28174015748032 Y-0.513
X1.28274015748032 Y-0.513
X1.28274015748032 Y-0.512
X1.28374015748032 Y-0.512
X1.28374015748032 Y-0.511
X1.28474015748032 Y-0.511
X1.28474015748032 Y-0.51
X1.28574015748032 Y-0.51
X1.28574015748032 Y-0.509
X1.28674015748032 Y-0.509
X1.28674015748032 Y-0.508
X1.28774015748032 Y-0.508
X1.28774015748032 Y-0.507
X1.28874015748032 Y-0.507
X1.28874015748032 Y-0.506
X1.28974015748032 Y-0.506
X1.28974015748032 Y-0.505
X1.29074015748032 Y-0.505
X1.29074015748032 Y-0.504
X1.29174015748032 Y-0.504
X1.29174015748032 Y-0.503
X1.29274015748032 Y-0.503
X1.29274015748032 Y-0.502
X1.29374015748032 Y-0.502
X1.29374015748032 Y-0.501
X1.29474015748032 Y-0.501
X1.29474015748032 Y-0.5
X1.29574015748031 Y-0.5
X1.29574015748031 Y-0.499
X1.29674015748032 Y-0.499
X1.29674015748032 Y-0.498
X1.29774015748032 Y-0.498
X1.29774015748032 Y-0.497
X1.29874015748032 Y-0.497
X1.29874015748032 Y-0.496
X1.29974015748032 Y-0.496
X1.29974015748032 Y-0.495
X1.30074015748032 Y-0.495
X1.30074015748032 Y-0.494
X1.30174015748031 Y-0.494
X1.30174015748031 Y-0.493
X1.30274015748032 Y-0.493
X1.30274015748032 Y-0.492
X1.30374015748032 Y-0.492
X1.30374015748032 Y-0.491
X1.30474015748032 Y-0.491
X1.30474015748032 Y-0.49
X1.30574015748032 Y-0.49
X1.30574015748032 Y-0.489
X1.30674015748032 Y-0.489
X1.30674015748032 Y-0.488
X1.30774015748031 Y-0.488
X1.30774015748031 Y-0.487
X1.30874015748032 Y-0.487
X1.30874015748032 Y-0.486
X1.30974015748032 Y-0.486
X1.30974015748032 Y-0.485
X1.31074015748032 Y-0.485
X1.31074015748032 Y-0.484
X1.31174015748031 Y-0.484
X1.31174015748031 Y-0.483
X1.31274015748032 Y-0.483
X1.31274015748032 Y-0.482
X1.31374015748031 Y-0.482
X1.31374015748031 Y-0.481
X1.31474015748032 Y-0.481
X1.31474015748032 Y-0.48
X1.31574015748032 Y-0.48
X1.31574015748032 Y-0.479
X1.31674015748032 Y-0.479
X1.31674015748032 Y-0.478
X1.31774015748031 Y-0.478
X1.31774015748031 Y-0.477
X1.31874015748032 Y-0.477
X1.31874015748032 Y-0.476
X1.31974015748031 Y-0.476
X1.31974015748031 Y-0.475
X1.32074015748032 Y-0.475
X1.32074015748032 Y-0.474
X1.32174015748032 Y-0.474
X1.32174015748032 Y-0.473
X1.32274015748032 Y-0.473
X1.32274015748032 Y-0.472
X1.32374015748031 Y-0.472
X1.32374015748031 Y-0.471
X1.32474015748032 Y-0.471
X1.32474015748032 Y-0.47
X1.32574015748031 Y-0.47
X1.32574015748031 Y-0.469
X1.32674015748032 Y-0.469
X1.32674015748032 Y-0.468
X1.32774015748032 Y-0.468
X1.32774015748032 Y-0.467
X1.32874015748032 Y-0.467
X1.32874015748032 Y-0.466
X1.32974015748031 Y-0.466
X1.32974015748031 Y-0.465
X1.33074015748032 Y-0.465
X1.33074015748032 Y-0.464
X1.33174015748031 Y-0.464
X1.33174015748031 Y-0.463
X1.33274015748032 Y-0.463
X1.33274015748032 Y-0.462
X1.33374015748032 Y-0.462
X1.33374015748032 Y-0.461
X1.33474015748032 Y-0.461
X1.33474015748032 Y-0.46
X1.33574015748031 Y-0.46
X1.33574015748031 Y-0.459
X1.33674015748032 Y-0.459
X1.33674015748032 Y-0.458
X1.33774015748031 Y-0.458
X1.33774015748031 Y-0.457
X1.33874015748032 Y-0.457
X1.33874015748032 Y-0.456
X1.33974015748032 Y-0.456
X1.33974015748032 Y-0.455
X1.34074015748032 Y-0.455
X1.34074015748032 Y-0.454
X1.34174015748031 Y-0.454
X1.34174015748031 Y-0.453
X1.34274015748032 Y-0.453
X1.34274015748032 Y-0.452
X1.34374015748031 Y-0.452
X1.34374015748031 Y-0.451
X1.34474015748032 Y-0.451
X1.34474015748032 Y-0.45
X1.34574015748032 Y-0.45
X1.34574015748032 Y-0.449
X1.34674015748032 Y-0.449
X1.34674015748032 Y-0.448
X1.34774015748031 Y-0.448
X1.34774015748031 Y-0.447
X1.34874015748032 Y-0.447
X1.34874015748032 Y-0.446
X1.34974015748031 Y-0.446
X1.34974015748031 Y-0.445
X1.35074015748032 Y-0.445
X1.35074015748032 Y-0.444
X1.35174015748032 Y-0.444
X1.35174015748032 Y-0.443
X1.35274015748032 Y-0.443
X1.35274015748032 Y-0.442
X1.35374015748031 Y-0.442
X1.35374015748031 Y-0.441
X1.35474015748032 Y-0.441
X1.35474015748032 Y-0.44
X1.35574015748031 Y-0.44
X1.35574015748031 Y-0.439
X1.35674015748032 Y-0.439
X1.35674015748032 Y-0.438
X1.35774015748032 Y-0.438
X1.35774015748032 Y-0.437
X1.35874015748032 Y-0.437
X1.35874015748032 Y-0.436
X1.35974015748031 Y-0.436
X1.35974015748031 Y-0.435
X1.36074015748032 Y-0.435
X1.36074015748032 Y-0.434
X1.36174015748031 Y-0.434
X1.36174015748031 Y-0.433
X1.36274015748032 Y-0.433
X1.36274015748032 Y-0.432
X1.36374015748032 Y-0.432
X1.36374015748032 Y-0.431
X1.36474015748032 Y-0.431
X1.36474015748032 Y-0.43
X1.36574015748031 Y-0.43
X1.36574015748031 Y-0.429
X1.36674015748032 Y-0.429
X1.36674015748032 Y-0.428
X1.36774015748031 Y-0.428
X1.36774015748031 Y-0.427
X1.36874015748032 Y-0.427
X1.36874015748032 Y-0.426
X1.36974015748032 Y-0.426
X1.36974015748032 Y-0.425
X1.37074015748032 Y-0.425
X1.37074015748032 Y-0.424
X1.37174015748031 Y-0.424
X1.37174015748031 Y-0.423
X1.37274015748032 Y-0.423
X1.37274015748032 Y-0.422
X1.37374015748031 Y-0.422
X1.37374015748031 Y-0.421
X1.37474015748031 Y-0.421
X1.37474015748031 Y-0.42
X1.37574015748032 Y-0.42
X1.37574015748032 Y-0.419
X1.37674015748032 Y-0.419
X1.37674015748032 Y-0.418
X1.37774015748031 Y-0.418
X1.37774015748031 Y-0.417
X1.37874015748032 Y-0.417
X1.37874015748032 Y-0.416
X1.37974015748031 Y-0.416
X1.37974015748031 Y-0.415
X1.38074015748031 Y-0.415
X1.38074015748031 Y-0.415
X1.38174015748032 Y-0.415
X1.38174015748032 Y-0.416
X1.38274015748032 Y-0.416
X1.38274015748032 Y-0.417
X1.38374015748031 Y-0.417
X1.38374015748031 Y-0.418
X1.38474015748032 Y-0.418
X1.38474015748032 Y-0.419
X1.38574015748031 Y-0.419
X1.38574015748031 Y-0.42
X1.38674015748031 Y-0.42
X1.38674015748031 Y-0.421
X1.38774015748032 Y-0.421
X1.38774015748032 Y-0.422
X1.38874015748032 Y-0.422
X1.38874015748032 Y-0.423
X1.38974015748032 Y-0.423
X1.38974015748032 Y-0.424
X1.39074015748032 Y-0.424
X1.39074015748032 Y-0.425
X1.39174015748031 Y-0.425
X1.39174015748031 Y-0.426
X1.39274015748032 Y-0.426
X1.39274015748032 Y-0.427
X1.39374015748032 Y-0.427
X1.39374015748032 Y-0.428
X1.39474015748032 Y-0.428
X1.39474015748032 Y-0.429
X1.39574015748032 Y-0.429
X1.39574015748032 Y-0.43
X1.39674015748032 Y-0.43
X1.39674015748032 Y-0.431
X1.39774015748031 Y-0.431
X1.39774015748031 Y-0.432
X1.39874015748032 Y-0.432
X1.39874015748032 Y-0.638
X1.39574015748032 Y-0.638
X1.39574015748032 Y-0.639
X1.39374015748032 Y-0.639
X1.39374015748032 Y-0.64
X1.39274015748032 Y-0.64
X1.39274015748032 Y-0.641
X1.39074015748032 Y-0.641
X1.39074015748032 Y-0.642
X1.38874015748032 Y-0.642
X1.38874015748032 Y-0.643
X1.38774015748032 Y-0.643
X1.38774015748032 Y-0.644
X1.38574015748031 Y-0.644
X1.38574015748031 Y-0.646
X1.38474015748032 Y-0.646
X1.38474015748032 Y-0.647
X1.38374015748031 Y-0.647
X1.38374015748031 Y-0.648
X1.38274015748032 Y-0.648
X1.38274015748032 Y-0.65
X1.38174015748032 Y-0.65
X1.38174015748032 Y-0.651
X1.38074015748031 Y-0.651
X1.38074015748031 Y-0.653
X1.37974015748031 Y-0.653
X1.37974015748031 Y-0.655
X1.37874015748032 Y-0.655
X1.37874015748032 Y-0.66
X1.37774015748031 Y-0.66
X1.37774015748031 Y-0.666
X1.37674015748032 Y-0.666
X1.37674015748032 Y-0.737
X1.37774015748031 Y-0.737
X1.37774015748031 Y-0.743
X1.37874015748032 Y-0.743
X1.37874015748032 Y-0.748
X1.37974015748031 Y-0.748
X1.37974015748031 Y-0.75
X1.38074015748031 Y-0.75
X1.38074015748031 Y-0.752
X1.38174015748032 Y-0.752
X1.38174015748032 Y-0.753
X1.38274015748032 Y-0.753
X1.38274015748032 Y-0.755
X1.38374015748031 Y-0.755
X1.38374015748031 Y-0.756
X1.38474015748032 Y-0.756
X1.38474015748032 Y-0.757
X1.38574015748031 Y-0.757
X1.38574015748031 Y-0.759
X1.38774015748032 Y-0.759
X1.38774015748032 Y-0.76
X1.38874015748032 Y-0.76
X1.38874015748032 Y-0.761
X1.39074015748032 Y-0.761
X1.39074015748032 Y-0.762
X1.39274015748032 Y-0.762
X1.39274015748032 Y-0.763
X1.39374015748032 Y-0.763
X1.39374015748032 Y-0.764
X1.39574015748032 Y-0.764
X1.39574015748032 Y-0.765
X1.40174015748031 Y-0.765
X1.40174015748031 Y-0.766
X1.42274015748031 Y-0.766
X1.42274015748031 Y-0.765
X1.42874015748031 Y-0.765
X1.42874015748031 Y-0.764
X1.43074015748032 Y-0.764
X1.43074015748032 Y-0.763
X1.43174015748032 Y-0.763
X1.43174015748032 Y-0.762
X1.43374015748032 Y-0.762
X1.43374015748032 Y-0.761
X1.43574015748032 Y-0.761
X1.43574015748032 Y-0.76
X1.43674015748032 Y-0.76
X1.43674015748032 Y-0.759
X1.43874015748031 Y-0.759
X1.43874015748031 Y-0.757
X1.43974015748032 Y-0.757
X1.43974015748032 Y-0.756
X1.44074015748031 Y-0.756
X1.44074015748031 Y-0.755
X1.44174015748032 Y-0.755
X1.44174015748032 Y-0.753
X1.44274015748032 Y-0.753
X1.44274015748032 Y-0.752
X1.44374015748032 Y-0.752
X1.44374015748032 Y-0.75
X1.44474015748031 Y-0.75
X1.44474015748031 Y-0.748
X1.44574015748032 Y-0.748
X1.44574015748032 Y-0.743
X1.44674015748031 Y-0.743
X1.44674015748031 Y-0.737
X1.44774015748031 Y-0.737
X1.44774015748031 Y-0.666
X1.44674015748031 Y-0.666
X1.44674015748031 Y-0.66
X1.44574015748032 Y-0.66
X1.44574015748032 Y-0.655
X1.44474015748031 Y-0.655
X1.44474015748031 Y-0.652
X1.44374015748032 Y-0.652
X1.44374015748032 Y-0.651
X1.44274015748032 Y-0.651
X1.44274015748032 Y-0.65
X1.44174015748032 Y-0.65
X1.44174015748032 Y-0.648
X1.44074015748031 Y-0.648
X1.44074015748031 Y-0.647
X1.43974015748032 Y-0.647
X1.43974015748032 Y-0.646
X1.43874015748031 Y-0.646
X1.43874015748031 Y-0.644
X1.43674015748032 Y-0.644
X1.43674015748032 Y-0.643
X1.43574015748032 Y-0.643
X1.43574015748032 Y-0.642
X1.43374015748032 Y-0.642
X1.43374015748032 Y-0.641
X1.43174015748032 Y-0.641
X1.43174015748032 Y-0.64
X1.43074015748032 Y-0.64
X1.43074015748032 Y-0.639
X1.42874015748031 Y-0.639
X1.42874015748031 Y-0.638
X1.42474015748032 Y-0.638
X1.42474015748032 Y-0.417
X1.42374015748032 Y-0.417
X1.42374015748032 Y-0.415
X1.42274015748031 Y-0.415
X1.42274015748031 Y-0.413
X1.42174015748032 Y-0.413
X1.42174015748032 Y-0.412
X1.42074015748031 Y-0.412
X1.42074015748031 Y-0.411
X1.41974015748032 Y-0.411
X1.41974015748032 Y-0.41
X1.41874015748032 Y-0.41
X1.41874015748032 Y-0.409
X1.41774015748032 Y-0.409
X1.41774015748032 Y-0.408
X1.41674015748031 Y-0.408
X1.41674015748031 Y-0.407
X1.41574015748032 Y-0.407
X1.41574015748032 Y-0.406
X1.41474015748031 Y-0.406
X1.41474015748031 Y-0.405
X1.41374015748032 Y-0.405
X1.41374015748032 Y-0.404
X1.41274015748032 Y-0.404
X1.41274015748032 Y-0.403
X1.41174015748032 Y-0.403
X1.41174015748032 Y-0.402
X1.41074015748031 Y-0.402
X1.41074015748031 Y-0.401
X1.40974015748032 Y-0.401
X1.40974015748032 Y-0.4
X1.40874015748031 Y-0.4
X1.40874015748031 Y-0.399
X1.40774015748032 Y-0.399
X1.40774015748032 Y-0.398
X1.40674015748032 Y-0.398
X1.40674015748032 Y-0.397
X1.40574015748032 Y-0.397
X1.40574015748032 Y-0.396
X1.40474015748031 Y-0.396
X1.40474015748031 Y-0.395
X1.40374015748031 Y-0.395
X1.40374015748031 Y-0.394
X1.40274015748031 Y-0.394
X1.40274015748031 Y-0.393
X1.40174015748031 Y-0.393
X1.40174015748031 Y-0.392
X1.40074015748032 Y-0.392
X1.40074015748032 Y-0.391
X1.39974015748032 Y-0.391
X1.39974015748032 Y-0.39
X1.39874015748032 Y-0.39
X1.39874015748032 Y-0.389
X1.39774015748031 Y-0.389
X1.39774015748031 Y-0.388
X1.39674015748032 Y-0.388
X1.39674015748032 Y-0.387
X1.39574015748032 Y-0.387
X1.39574015748032 Y-0.386
X1.39474015748032 Y-0.386
X1.39474015748032 Y-0.385
X1.39374015748032 Y-0.385
X1.39374015748032 Y-0.384
X1.39274015748032 Y-0.384
X1.39274015748032 Y-0.383
X1.39174015748031 Y-0.383
X1.39174015748031 Y-0.382
X1.39074015748032 Y-0.382
X1.39074015748032 Y-0.381
X1.38974015748032 Y-0.381
X1.38974015748032 Y-0.38
X1.38874015748032 Y-0.38
X1.38874015748032 Y-0.379
X1.38774015748032 Y-0.379
X1.38774015748032 Y-0.378
X1.38674015748031 Y-0.378
X1.38674015748031 Y-0.377
X1.38574015748031 Y-0.377
X1.38574015748031 Y-0.376
X1.38474015748032 Y-0.376
X1.38474015748032 Y-0.375
X1.38374015748031 Y-0.375
X1.38374015748031 Y-0.374
X1.38274015748032 Y-0.374
X1.38274015748032 Y-0.373
X1.38174015748032 Y-0.373
X1.38174015748032 Y-0.372
X1.38074015748031 Y-0.372
X1.38074015748031 Y-0.371
X1.37974015748031 Y-0.371
X1.37974015748031 Y-0.37
X1.37874015748032 Y-0.37
X1.37874015748032 Y-0.369
X1.37774015748031 Y-0.369
X1.37774015748031 Y-0.368
X1.37674015748032 Y-0.368
X1.37674015748032 Y-0.367
X1.37574015748032 Y-0.367
X1.37574015748032 Y-0.366
X1.37474015748031 Y-0.366
X1.37474015748031 Y-0.365
X1.37374015748031 Y-0.365
X1.37374015748031 Y-0.364
X1.37274015748032 Y-0.364
X1.37274015748032 Y-0.363
X1.37174015748031 Y-0.363
X1.37174015748031 Y-0.362
X1.37074015748032 Y-0.362
X1.37074015748032 Y-0.361
X1.36974015748032 Y-0.361
X1.36974015748032 Y-0.36
X1.36874015748032 Y-0.36
X1.36874015748032 Y-0.359
X1.36774015748031 Y-0.359
X1.36774015748031 Y-0.358
X1.36674015748032 Y-0.358
X1.36674015748032 Y-0.357
X1.36574015748031 Y-0.357
X1.36574015748031 Y-0.356
X1.36474015748032 Y-0.356
X1.36474015748032 Y-0.285
X1.36874015748032 Y-0.285
X1.36874015748032 Y-0.284
X1.37074015748032 Y-0.284
X1.37074015748032 Y-0.283
X1.37174015748031 Y-0.283
X1.37174015748031 Y-0.282
X1.37374015748031 Y-0.282
X1.37374015748031 Y-0.281
X1.37574015748032 Y-0.281
X1.37574015748032 Y-0.28
X1.37674015748032 Y-0.28
X1.37674015748032 Y-0.279
X1.37874015748032 Y-0.279
X1.37874015748032 Y-0.277
X1.37974015748031 Y-0.277
X1.37974015748031 Y-0.276
X1.38074015748031 Y-0.276
X1.38074015748031 Y-0.275
X1.38174015748032 Y-0.275
X1.38174015748032 Y-0.273
X1.38274015748032 Y-0.273
X1.38274015748032 Y-0.272
X1.38374015748031 Y-0.272
X1.38374015748031 Y-0.27
X1.38474015748032 Y-0.27
X1.38474015748032 Y-0.268
X1.38574015748031 Y-0.268
X1.38574015748031 Y-0.263
X1.38674015748031 Y-0.263
X1.38674015748031 Y-0.257
X1.38774015748032 Y-0.257
X1.38774015748032 Y-0.186
X1.38674015748031 Y-0.186
X1.38674015748031 Y-0.18
X1.38574015748031 Y-0.18
X1.38574015748031 Y-0.175
X1.38474015748032 Y-0.175
X1.38474015748032 Y-0.172
X1.38374015748031 Y-0.172
X1.38374015748031 Y-0.171
X1.38274015748032 Y-0.171
X1.38274015748032 Y-0.17
X1.38174015748032 Y-0.17
X1.38174015748032 Y-0.168
X1.38074015748031 Y-0.168
X1.38074015748031 Y-0.167
X1.37974015748031 Y-0.167
