( pcb2gcode 1.1.4 )

G94     ( Inches per minute feed rate. )
G20     ( Units == INCHES.             )
G90     ( Absolute coordinates.        )
S8000  ( RPM spindle speed.           )
M3      ( Spindle on clockwise.        )

G64 P0.00500 ( set maximum deviation from commanded toolpath )

G04 P0 ( dwell for no time -- G64 should not smooth over this point )
G00 Z0.10000 ( retract )

G00 X0.01700 Y-0.01900 ( rapid move to begin. )
G01 Z-0.00500 F3.50000 ( plunge. )
G04 P0 ( dwell for no time -- G64 should not smooth over this point )
X0.01700 Y-0.01900
X0.01600 Y-0.01900
X0.01600 Y-0.86100
X0.01700 Y-0.86100
X0.01700 Y-0.86300
X0.01800 Y-0.86300
X0.01800 Y-0.86500
X0.02000 Y-0.86500
X0.02000 Y-0.86600
X0.02200 Y-0.86600
X0.02200 Y-0.86700
X0.92000 Y-0.86700
X0.92000 Y-0.86600
X0.92200 Y-0.86600
X0.92200 Y-0.86500
X0.92400 Y-0.86500
X0.92400 Y-0.86300
X0.92500 Y-0.86300
X0.92500 Y-0.86100
X0.92600 Y-0.86100
X0.92600 Y-0.01900
X0.92500 Y-0.01900
X0.92500 Y-0.01700
X0.92400 Y-0.01700
X0.92400 Y-0.01500
X0.92200 Y-0.01500
X0.92200 Y-0.01400
X0.92000 Y-0.01400
X0.92000 Y-0.01300
X0.02200 Y-0.01300
X0.02200 Y-0.01400
X0.02000 Y-0.01400
X0.02000 Y-0.01500
X0.01800 Y-0.01500
X0.01800 Y-0.01700
X0.01700 Y-0.01700
X0.01700 Y-0.01900
G04 P0 ( dwell for no time -- G64 should not smooth over this point )
G00 Z0.10000 ( retract )

G00 X0.25800 Y-0.05400 ( rapid move to begin. )
G01 Z-0.00500 F3.50000 ( plunge. )
G04 P0 ( dwell for no time -- G64 should not smooth over this point )
X0.25800 Y-0.05400
X0.25800 Y-0.18300
X0.25700 Y-0.18300
X0.25700 Y-0.18400
X0.25600 Y-0.18400
X0.25600 Y-0.18500
X0.25500 Y-0.18500
X0.25500 Y-0.18600
X0.25400 Y-0.18600
X0.25400 Y-0.18700
X0.25300 Y-0.18700
X0.25300 Y-0.18800
X0.25200 Y-0.18800
X0.25200 Y-0.18900
X0.25100 Y-0.18900
X0.25100 Y-0.19000
X0.25000 Y-0.19000
X0.25000 Y-0.19100
X0.24900 Y-0.19100
X0.24900 Y-0.19200
X0.24800 Y-0.19200
X0.24800 Y-0.19300
X0.24700 Y-0.19300
X0.24700 Y-0.19400
X0.24600 Y-0.19400
X0.24600 Y-0.19500
X0.24500 Y-0.19500
X0.24500 Y-0.19600
X0.24400 Y-0.19600
X0.24400 Y-0.19700
X0.24300 Y-0.19700
X0.24300 Y-0.19800
X0.24200 Y-0.19800
X0.24200 Y-0.19900
X0.24100 Y-0.19900
X0.24100 Y-0.20000
X0.24000 Y-0.20000
X0.24000 Y-0.20100
X0.23900 Y-0.20100
X0.23900 Y-0.20200
X0.23800 Y-0.20200
X0.23800 Y-0.20300
X0.23700 Y-0.20300
X0.23700 Y-0.20400
X0.23600 Y-0.20400
X0.23600 Y-0.20500
X0.23500 Y-0.20500
X0.23500 Y-0.20600
X0.23300 Y-0.20600
X0.23300 Y-0.20700
X0.23200 Y-0.20700
X0.23200 Y-0.20800
X0.23100 Y-0.20800
X0.23100 Y-0.20900
X0.23000 Y-0.20900
X0.23000 Y-0.21000
X0.22900 Y-0.21000
X0.22900 Y-0.21100
X0.22800 Y-0.21100
X0.22800 Y-0.21200
X0.22700 Y-0.21200
X0.22700 Y-0.21300
X0.22600 Y-0.21300
X0.22600 Y-0.21400
X0.22500 Y-0.21400
X0.22500 Y-0.21500
X0.22400 Y-0.21500
X0.22400 Y-0.21600
X0.22300 Y-0.21600
X0.22300 Y-0.21700
X0.22200 Y-0.21700
X0.22200 Y-0.21800
X0.22100 Y-0.21800
X0.22100 Y-0.21900
X0.22000 Y-0.21900
X0.22000 Y-0.22000
X0.21900 Y-0.22000
X0.21900 Y-0.22100
X0.21800 Y-0.22100
X0.21800 Y-0.22200
X0.21700 Y-0.22200
X0.21700 Y-0.22300
X0.21600 Y-0.22300
X0.21600 Y-0.22400
X0.21500 Y-0.22400
X0.21500 Y-0.22500
X0.21400 Y-0.22500
X0.21400 Y-0.22600
X0.21300 Y-0.22600
X0.21300 Y-0.22700
X0.21200 Y-0.22700
X0.21200 Y-0.22800
X0.21100 Y-0.22800
X0.21100 Y-0.22900
X0.21000 Y-0.22900
X0.21000 Y-0.23000
X0.20900 Y-0.23000
X0.20900 Y-0.23100
X0.20800 Y-0.23100
X0.20800 Y-0.23200
X0.20700 Y-0.23200
X0.20700 Y-0.23300
X0.20500 Y-0.23300
X0.20500 Y-0.23400
X0.20400 Y-0.23400
X0.20400 Y-0.23500
X0.20300 Y-0.23500
X0.20300 Y-0.23600
X0.20200 Y-0.23600
X0.20200 Y-0.23700
X0.20100 Y-0.23700
X0.20100 Y-0.23800
X0.20000 Y-0.23800
X0.20000 Y-0.23900
X0.19900 Y-0.23900
X0.19900 Y-0.24000
X0.19800 Y-0.24000
X0.19800 Y-0.24100
X0.19700 Y-0.24100
X0.19700 Y-0.24200
X0.19600 Y-0.24200
X0.19600 Y-0.24300
X0.19500 Y-0.24300
X0.19500 Y-0.24400
X0.19400 Y-0.24400
X0.19400 Y-0.24500
X0.19300 Y-0.24500
X0.19300 Y-0.24600
X0.19200 Y-0.24600
X0.19200 Y-0.24700
X0.19100 Y-0.24700
X0.19100 Y-0.24800
X0.19000 Y-0.24800
X0.19000 Y-0.24900
X0.18900 Y-0.24900
X0.18900 Y-0.25000
X0.18800 Y-0.25000
X0.18800 Y-0.25100
X0.18700 Y-0.25100
X0.18700 Y-0.25200
X0.18600 Y-0.25200
X0.18600 Y-0.25300
X0.18500 Y-0.25300
X0.18500 Y-0.25400
X0.18400 Y-0.25400
X0.18400 Y-0.25500
X0.18300 Y-0.25500
X0.18300 Y-0.25600
X0.18200 Y-0.25600
X0.18200 Y-0.25700
X0.18100 Y-0.25700
X0.18100 Y-0.25800
X0.18000 Y-0.25800
X0.18000 Y-0.25900
X0.17900 Y-0.25900
X0.17900 Y-0.26000
X0.05400 Y-0.26000
X0.05400 Y-0.26100
X0.05300 Y-0.26100
X0.05300 Y-0.26200
X0.05200 Y-0.26200
X0.05200 Y-0.26400
X0.05100 Y-0.26400
X0.05100 Y-0.62500
X0.05200 Y-0.62500
X0.05200 Y-0.62700
X0.05300 Y-0.62700
X0.05300 Y-0.62800
X0.05400 Y-0.62800
X0.05400 Y-0.62900
X0.20200 Y-0.62900
X0.20200 Y-0.63000
X0.20300 Y-0.63000
X0.20300 Y-0.63200
X0.20400 Y-0.63200
X0.20400 Y-0.63300
X0.20500 Y-0.63300
X0.20500 Y-0.63400
X0.20600 Y-0.63400
X0.20600 Y-0.63600
X0.20700 Y-0.63600
X0.20700 Y-0.63700
X0.20800 Y-0.63700
X0.20800 Y-0.63800
X0.20900 Y-0.63800
X0.20900 Y-0.64000
X0.21000 Y-0.64000
X0.21000 Y-0.64100
X0.21100 Y-0.64100
X0.21100 Y-0.64200
X0.21200 Y-0.64200
X0.21200 Y-0.64300
X0.21300 Y-0.64300
X0.21300 Y-0.64500
X0.21400 Y-0.64500
X0.21400 Y-0.64600
X0.21500 Y-0.64600
X0.21500 Y-0.64700
X0.21600 Y-0.64700
X0.21600 Y-0.64900
X0.21700 Y-0.64900
X0.21700 Y-0.65000
X0.21800 Y-0.65000
X0.21800 Y-0.65100
X0.21900 Y-0.65100
X0.21900 Y-0.65300
X0.22000 Y-0.65300
X0.22000 Y-0.65400
X0.22100 Y-0.65400
X0.22100 Y-0.65500
X0.22200 Y-0.65500
X0.22200 Y-0.65700
X0.22300 Y-0.65700
X0.22300 Y-0.65800
X0.22400 Y-0.65800
X0.22400 Y-0.65900
X0.22500 Y-0.65900
X0.22500 Y-0.66000
X0.22600 Y-0.66000
X0.22600 Y-0.66100
X0.24300 Y-0.66100
X0.24300 Y-0.66000
X0.24400 Y-0.66000
X0.24400 Y-0.65800
X0.24500 Y-0.65800
X0.24500 Y-0.58900
X0.24600 Y-0.58900
X0.24600 Y-0.58500
X0.24700 Y-0.58500
X0.24700 Y-0.58000
X0.24800 Y-0.58000
X0.24800 Y-0.57800
X0.24900 Y-0.57800
X0.24900 Y-0.57600
X0.25000 Y-0.57600
X0.25000 Y-0.57500
X0.25100 Y-0.57500
X0.25100 Y-0.57300
X0.25200 Y-0.57300
X0.25200 Y-0.57100
X0.25300 Y-0.57100
X0.25300 Y-0.57000
X0.25400 Y-0.57000
X0.25400 Y-0.56900
X0.25500 Y-0.56900
X0.25500 Y-0.56800
X0.25600 Y-0.56800
X0.25600 Y-0.56700
X0.25700 Y-0.56700
X0.25700 Y-0.56600
X0.25800 Y-0.56600
X0.25800 Y-0.56500
X0.25900 Y-0.56500
X0.25900 Y-0.56400
X0.26000 Y-0.56400
X0.26000 Y-0.56300
X0.26100 Y-0.56300
X0.26100 Y-0.56200
X0.26200 Y-0.56200
X0.26200 Y-0.56100
X0.26300 Y-0.56100
X0.26300 Y-0.56000
X0.26400 Y-0.56000
X0.26400 Y-0.55900
X0.26500 Y-0.55900
X0.26500 Y-0.55800
X0.26600 Y-0.55800
X0.26600 Y-0.55700
X0.26700 Y-0.55700
X0.26700 Y-0.55600
X0.26800 Y-0.55600
X0.26800 Y-0.55500
X0.26900 Y-0.55500
X0.26900 Y-0.55400
X0.27000 Y-0.55400
X0.27000 Y-0.55300
X0.27100 Y-0.55300
X0.27100 Y-0.55200
X0.27200 Y-0.55200
X0.27200 Y-0.55100
X0.27300 Y-0.55100
X0.27300 Y-0.55000
X0.27400 Y-0.55000
X0.27400 Y-0.54900
X0.27500 Y-0.54900
X0.27500 Y-0.54800
X0.27600 Y-0.54800
X0.27600 Y-0.54700
X0.27700 Y-0.54700
X0.27700 Y-0.54600
X0.27800 Y-0.54600
X0.27800 Y-0.54500
X0.27900 Y-0.54500
X0.27900 Y-0.54400
X0.28000 Y-0.54400
X0.28000 Y-0.54300
X0.28100 Y-0.54300
X0.28100 Y-0.54200
X0.28200 Y-0.54200
X0.28200 Y-0.54100
X0.28300 Y-0.54100
X0.28300 Y-0.54000
X0.28400 Y-0.54000
X0.28400 Y-0.53900
X0.28500 Y-0.53900
X0.28500 Y-0.53800
X0.28600 Y-0.53800
X0.28600 Y-0.53700
X0.28700 Y-0.53700
X0.28700 Y-0.53600
X0.28800 Y-0.53600
X0.28800 Y-0.53500
X0.28900 Y-0.53500
X0.28900 Y-0.53400
X0.29000 Y-0.53400
X0.29000 Y-0.53300
X0.29100 Y-0.53300
X0.29100 Y-0.53200
X0.29200 Y-0.53200
X0.29200 Y-0.53100
X0.29300 Y-0.53100
X0.29300 Y-0.53000
X0.29400 Y-0.53000
X0.29400 Y-0.52900
X0.29500 Y-0.52900
X0.29500 Y-0.52800
X0.29600 Y-0.52800
X0.29600 Y-0.52700
X0.29700 Y-0.52700
X0.29700 Y-0.52600
X0.29800 Y-0.52600
X0.29800 Y-0.52500
X0.29900 Y-0.52500
X0.29900 Y-0.52400
X0.30000 Y-0.52400
X0.30000 Y-0.52300
X0.30100 Y-0.52300
X0.30100 Y-0.52200
X0.30200 Y-0.52200
X0.30200 Y-0.52100
X0.30300 Y-0.52100
X0.30300 Y-0.52000
X0.30400 Y-0.52000
X0.30400 Y-0.51900
X0.30500 Y-0.51900
X0.30500 Y-0.51800
X0.30600 Y-0.51800
X0.30600 Y-0.51700
X0.30700 Y-0.51700
X0.30700 Y-0.51600
X0.30800 Y-0.51600
X0.30800 Y-0.51500
X0.30900 Y-0.51500
X0.30900 Y-0.51400
X0.31000 Y-0.51400
X0.31000 Y-0.51300
X0.31100 Y-0.51300
X0.31100 Y-0.51200
X0.31200 Y-0.51200
X0.31200 Y-0.51100
X0.31300 Y-0.51100
X0.31300 Y-0.51000
X0.31400 Y-0.51000
X0.31400 Y-0.50700
X0.31500 Y-0.50700
X0.31500 Y-0.48800
X0.31400 Y-0.48800
X0.31400 Y-0.48500
X0.31300 Y-0.48500
X0.31300 Y-0.48400
X0.31200 Y-0.48400
X0.31200 Y-0.48300
X0.31100 Y-0.48300
X0.31100 Y-0.48200
X0.31000 Y-0.48200
X0.31000 Y-0.48100
X0.30900 Y-0.48100
X0.30900 Y-0.48000
X0.30800 Y-0.48000
X0.30800 Y-0.47900
X0.30700 Y-0.47900
X0.30700 Y-0.47800
X0.30600 Y-0.47800
X0.30600 Y-0.47700
X0.30500 Y-0.47700
X0.30500 Y-0.47600
X0.30400 Y-0.47600
X0.30400 Y-0.47500
X0.30300 Y-0.47500
X0.30300 Y-0.47400
X0.30200 Y-0.47400
X0.30200 Y-0.47300
X0.30100 Y-0.47300
X0.30100 Y-0.47200
X0.30000 Y-0.47200
X0.30000 Y-0.47100
X0.29900 Y-0.47100
X0.29900 Y-0.47000
X0.29800 Y-0.47000
X0.29800 Y-0.46800
X0.29700 Y-0.46800
X0.29700 Y-0.46600
X0.29600 Y-0.46600
X0.29600 Y-0.46400
X0.29500 Y-0.46400
X0.29500 Y-0.46100
X0.29400 Y-0.46100
X0.29400 Y-0.45900
X0.29300 Y-0.45900
X0.29300 Y-0.45700
X0.29200 Y-0.45700
X0.29200 Y-0.45400
X0.29100 Y-0.45400
X0.29100 Y-0.45200
X0.29000 Y-0.45200
X0.29000 Y-0.44000
X0.29100 Y-0.44000
X0.29100 Y-0.43800
X0.29200 Y-0.43800
X0.29200 Y-0.43500
X0.29300 Y-0.43500
X0.29300 Y-0.43300
X0.29400 Y-0.43300
X0.29400 Y-0.43100
X0.29500 Y-0.43100
X0.29500 Y-0.42800
X0.29600 Y-0.42800
X0.29600 Y-0.42600
X0.29700 Y-0.42600
X0.29700 Y-0.42400
X0.29800 Y-0.42400
X0.29800 Y-0.42200
X0.29900 Y-0.42200
X0.29900 Y-0.42100
X0.30000 Y-0.42100
X0.30000 Y-0.42000
X0.30100 Y-0.42000
X0.30100 Y-0.41900
X0.30200 Y-0.41900
X0.30200 Y-0.41800
X0.30300 Y-0.41800
X0.30300 Y-0.41700
X0.30400 Y-0.41700
X0.30400 Y-0.41600
X0.30500 Y-0.41600
X0.30500 Y-0.41500
X0.30600 Y-0.41500
X0.30600 Y-0.41400
X0.30700 Y-0.41400
X0.30700 Y-0.41300
X0.30800 Y-0.41300
X0.30800 Y-0.41200
X0.30900 Y-0.41200
X0.30900 Y-0.41100
X0.31000 Y-0.41100
X0.31000 Y-0.41000
X0.31100 Y-0.41000
X0.31100 Y-0.40900
X0.31200 Y-0.40900
X0.31200 Y-0.40800
X0.31300 Y-0.40800
X0.31300 Y-0.40700
X0.31400 Y-0.40700
X0.31400 Y-0.40400
X0.31500 Y-0.40400
X0.31500 Y-0.31600
X0.31400 Y-0.31600
X0.31400 Y-0.31300
X0.31300 Y-0.31300
X0.31300 Y-0.31200
X0.31200 Y-0.31200
X0.31200 Y-0.31100
X0.31100 Y-0.31100
X0.31100 Y-0.31000
X0.31000 Y-0.31000
X0.31000 Y-0.30900
X0.30900 Y-0.30900
X0.30900 Y-0.30800
X0.30800 Y-0.30800
X0.30800 Y-0.30700
X0.30700 Y-0.30700
X0.30700 Y-0.30600
X0.30600 Y-0.30600
X0.30600 Y-0.30500
X0.30500 Y-0.30500
X0.30500 Y-0.30400
X0.30400 Y-0.30400
X0.30400 Y-0.30300
X0.30300 Y-0.30300
X0.30300 Y-0.30200
X0.30200 Y-0.30200
X0.30200 Y-0.30100
X0.30100 Y-0.30100
X0.30100 Y-0.29900
X0.30000 Y-0.29900
X0.30000 Y-0.29700
X0.29900 Y-0.29700
X0.29900 Y-0.29400
X0.29800 Y-0.29400
X0.29800 Y-0.29200
X0.29700 Y-0.29200
X0.29700 Y-0.28900
X0.29600 Y-0.28900
X0.29600 Y-0.28700
X0.29500 Y-0.28700
X0.29500 Y-0.28400
X0.29400 Y-0.28400
X0.29400 Y-0.21200
X0.29500 Y-0.21200
X0.29500 Y-0.20900
X0.29600 Y-0.20900
X0.29600 Y-0.20700
X0.29700 Y-0.20700
X0.29700 Y-0.20400
X0.29800 Y-0.20400
X0.29800 Y-0.20200
X0.29900 Y-0.20200
X0.29900 Y-0.19900
X0.30000 Y-0.19900
X0.30000 Y-0.19700
X0.30100 Y-0.19700
X0.30100 Y-0.19500
X0.30200 Y-0.19500
X0.30200 Y-0.19400
X0.30300 Y-0.19400
X0.30300 Y-0.19300
X0.30400 Y-0.19300
X0.30400 Y-0.19200
X0.30500 Y-0.19200
X0.30500 Y-0.19100
X0.30600 Y-0.19100
X0.30600 Y-0.19000
X0.30700 Y-0.19000
X0.30700 Y-0.18900
X0.30800 Y-0.18900
X0.30800 Y-0.18800
X0.30900 Y-0.18800
X0.30900 Y-0.18700
X0.31000 Y-0.18700
X0.31000 Y-0.18600
X0.31100 Y-0.18600
X0.31100 Y-0.18500
X0.31200 Y-0.18500
X0.31200 Y-0.18400
X0.31300 Y-0.18400
X0.31300 Y-0.18300
X0.31400 Y-0.18300
X0.31400 Y-0.18200
X0.31500 Y-0.18200
X0.31500 Y-0.18100
X0.31700 Y-0.18100
X0.31700 Y-0.18000
X0.31900 Y-0.18000
X0.31900 Y-0.17900
X0.32200 Y-0.17900
X0.32200 Y-0.17800
X0.32400 Y-0.17800
X0.32400 Y-0.17700
X0.32700 Y-0.17700
X0.32700 Y-0.17600
X0.32900 Y-0.17600
X0.32900 Y-0.17500
X0.33200 Y-0.17500
X0.33200 Y-0.17400
X0.34200 Y-0.17400
X0.34200 Y-0.17500
X0.34500 Y-0.17500
X0.34500 Y-0.17600
X0.34700 Y-0.17600
X0.34700 Y-0.17700
X0.35000 Y-0.17700
X0.35000 Y-0.17800
X0.35200 Y-0.17800
X0.35200 Y-0.17900
X0.35500 Y-0.17900
X0.35500 Y-0.18000
X0.35700 Y-0.18000
X0.35700 Y-0.18100
X0.35900 Y-0.18100
X0.35900 Y-0.18200
X0.36000 Y-0.18200
X0.36000 Y-0.18300
X0.36100 Y-0.18300
X0.36100 Y-0.18400
X0.36200 Y-0.18400
X0.36200 Y-0.18500
X0.36300 Y-0.18500
X0.36300 Y-0.18600
X0.36400 Y-0.18600
X0.36400 Y-0.18700
X0.36500 Y-0.18700
X0.36500 Y-0.18800
X0.36600 Y-0.18800
X0.36600 Y-0.18900
X0.36700 Y-0.18900
X0.36700 Y-0.19000
X0.36800 Y-0.19000
X0.36800 Y-0.19100
X0.36900 Y-0.19100
X0.36900 Y-0.19200
X0.37000 Y-0.19200
X0.37000 Y-0.19300
X0.37100 Y-0.19300
X0.37100 Y-0.19400
X0.37200 Y-0.19400
X0.37200 Y-0.19500
X0.37300 Y-0.19500
X0.37300 Y-0.19600
X0.37400 Y-0.19600
X0.37400 Y-0.19900
X0.37500 Y-0.19900
X0.37500 Y-0.20100
X0.37600 Y-0.20100
X0.37600 Y-0.20300
X0.37700 Y-0.20300
X0.37700 Y-0.20500
X0.37800 Y-0.20500
X0.37800 Y-0.20600
X0.37900 Y-0.20600
X0.37900 Y-0.20700
X0.39600 Y-0.20700
X0.39600 Y-0.20600
X0.39700 Y-0.20600
X0.39700 Y-0.20500
X0.39800 Y-0.20500
X0.39800 Y-0.20300
X0.39900 Y-0.20300
X0.39900 Y-0.20000
X0.40000 Y-0.20000
X0.40000 Y-0.19700
X0.40100 Y-0.19700
X0.40100 Y-0.19500
X0.40200 Y-0.19500
X0.40200 Y-0.19400
X0.40300 Y-0.19400
X0.40300 Y-0.19300
X0.40400 Y-0.19300
X0.40400 Y-0.19200
X0.40500 Y-0.19200
X0.40500 Y-0.19100
X0.40600 Y-0.19100
X0.40600 Y-0.19000
X0.40700 Y-0.19000
X0.40700 Y-0.18900
X0.40800 Y-0.18900
X0.40800 Y-0.18800
X0.40900 Y-0.18800
X0.40900 Y-0.18700
X0.41000 Y-0.18700
X0.41000 Y-0.18600
X0.41100 Y-0.18600
X0.41100 Y-0.18500
X0.41200 Y-0.18500
X0.41200 Y-0.18400
X0.41300 Y-0.18400
X0.41300 Y-0.18300
X0.41400 Y-0.18300
X0.41400 Y-0.18200
X0.41500 Y-0.18200
X0.41500 Y-0.18100
X0.41700 Y-0.18100
X0.41700 Y-0.18000
X0.41900 Y-0.18000
X0.41900 Y-0.17900
X0.42200 Y-0.17900
X0.42200 Y-0.17800
X0.42400 Y-0.17800
X0.42400 Y-0.17700
X0.42700 Y-0.17700
X0.42700 Y-0.17600
X0.42900 Y-0.17600
X0.42900 Y-0.17500
X0.43200 Y-0.17500
X0.43200 Y-0.17400
X0.44200 Y-0.17400
X0.44200 Y-0.17500
X0.44500 Y-0.17500
X0.44500 Y-0.17600
X0.44700 Y-0.17600
X0.44700 Y-0.17700
X0.45000 Y-0.17700
X0.45000 Y-0.17800
X0.45200 Y-0.17800
X0.45200 Y-0.17900
X0.45500 Y-0.17900
X0.45500 Y-0.18000
X0.45700 Y-0.18000
X0.45700 Y-0.18100
X0.45900 Y-0.18100
X0.45900 Y-0.18200
X0.46000 Y-0.18200
X0.46000 Y-0.18300
X0.46100 Y-0.18300
X0.46100 Y-0.18400
X0.46200 Y-0.18400
X0.46200 Y-0.18500
X0.46300 Y-0.18500
X0.46300 Y-0.18600
X0.46400 Y-0.18600
X0.46400 Y-0.18700
X0.46500 Y-0.18700
X0.46500 Y-0.18800
X0.46600 Y-0.18800
X0.46600 Y-0.18900
X0.46700 Y-0.18900
X0.46700 Y-0.19000
X0.46800 Y-0.19000
X0.46800 Y-0.19100
X0.46900 Y-0.19100
X0.46900 Y-0.19200
X0.47000 Y-0.19200
X0.47000 Y-0.19300
X0.47100 Y-0.19300
X0.47100 Y-0.19400
X0.47200 Y-0.19400
X0.47200 Y-0.19500
X0.47300 Y-0.19500
X0.47300 Y-0.19600
X0.47400 Y-0.19600
X0.47400 Y-0.19900
X0.47500 Y-0.19900
X0.47500 Y-0.20100
X0.47600 Y-0.20100
X0.47600 Y-0.20300
X0.47700 Y-0.20300
X0.47700 Y-0.20500
X0.47800 Y-0.20500
X0.47800 Y-0.20600
X0.47900 Y-0.20600
X0.47900 Y-0.20700
X0.49600 Y-0.20700
X0.49600 Y-0.20600
X0.49700 Y-0.20600
X0.49700 Y-0.20500
X0.49800 Y-0.20500
X0.49800 Y-0.20300
X0.49900 Y-0.20300
X0.49900 Y-0.20000
X0.50000 Y-0.20000
X0.50000 Y-0.19700
X0.50100 Y-0.19700
X0.50100 Y-0.19500
X0.50200 Y-0.19500
X0.50200 Y-0.19400
X0.50300 Y-0.19400
X0.50300 Y-0.19300
X0.50400 Y-0.19300
X0.50400 Y-0.19200
X0.50500 Y-0.19200
X0.50500 Y-0.19100
X0.50600 Y-0.19100
X0.50600 Y-0.19000
X0.50700 Y-0.19000
X0.50700 Y-0.18900
X0.50800 Y-0.18900
X0.50800 Y-0.18800
X0.50900 Y-0.18800
X0.50900 Y-0.18700
X0.51000 Y-0.18700
X0.51000 Y-0.18600
X0.51100 Y-0.18600
X0.51100 Y-0.18500
X0.51200 Y-0.18500
X0.51200 Y-0.18400
X0.51300 Y-0.18400
X0.51300 Y-0.18300
X0.51400 Y-0.18300
X0.51400 Y-0.18200
X0.51500 Y-0.18200
X0.51500 Y-0.18100
X0.51700 Y-0.18100
X0.51700 Y-0.18000
X0.51900 Y-0.18000
X0.51900 Y-0.17900
X0.52200 Y-0.17900
X0.52200 Y-0.17800
X0.52400 Y-0.17800
X0.52400 Y-0.17700
X0.52700 Y-0.17700
X0.52700 Y-0.17600
X0.52900 Y-0.17600
X0.52900 Y-0.17500
X0.53200 Y-0.17500
X0.53200 Y-0.17400
X0.54200 Y-0.17400
X0.54200 Y-0.17500
X0.54500 Y-0.17500
X0.54500 Y-0.17600
X0.54700 Y-0.17600
X0.54700 Y-0.17700
X0.55000 Y-0.17700
X0.55000 Y-0.17800
X0.55200 Y-0.17800
X0.55200 Y-0.17900
X0.55500 Y-0.17900
X0.55500 Y-0.18000
X0.55700 Y-0.18000
X0.55700 Y-0.18100
X0.55900 Y-0.18100
X0.55900 Y-0.18200
X0.56000 Y-0.18200
X0.56000 Y-0.18300
X0.56100 Y-0.18300
X0.56100 Y-0.18400
X0.56200 Y-0.18400
X0.56200 Y-0.18500
X0.56300 Y-0.18500
X0.56300 Y-0.18600
X0.56400 Y-0.18600
X0.56400 Y-0.18700
X0.56500 Y-0.18700
X0.56500 Y-0.18800
X0.56600 Y-0.18800
X0.56600 Y-0.18900
X0.56700 Y-0.18900
X0.56700 Y-0.19000
X0.56800 Y-0.19000
X0.56800 Y-0.19100
X0.56900 Y-0.19100
X0.56900 Y-0.19200
X0.57000 Y-0.19200
X0.57000 Y-0.19300
X0.57100 Y-0.19300
X0.57100 Y-0.19400
X0.57200 Y-0.19400
X0.57200 Y-0.19500
X0.57300 Y-0.19500
X0.57300 Y-0.19700
X0.57400 Y-0.19700
X0.57400 Y-0.19900
X0.57500 Y-0.19900
X0.57500 Y-0.20200
X0.57600 Y-0.20200
X0.57600 Y-0.20400
X0.57700 Y-0.20400
X0.57700 Y-0.20500
X0.57800 Y-0.20500
X0.57800 Y-0.20600
X0.59500 Y-0.20600
X0.59500 Y-0.20500
X0.59600 Y-0.20500
X0.59600 Y-0.20400
X0.59700 Y-0.20400
X0.59700 Y-0.20200
X0.59800 Y-0.20200
X0.59800 Y-0.20000
X0.59900 Y-0.20000
X0.59900 Y-0.19800
X0.60000 Y-0.19800
X0.60000 Y-0.19700
X0.60100 Y-0.19700
X0.60100 Y-0.19500
X0.60200 Y-0.19500
X0.60200 Y-0.19400
X0.60300 Y-0.19400
X0.60300 Y-0.19300
X0.60400 Y-0.19300
X0.60400 Y-0.19200
X0.60500 Y-0.19200
X0.60500 Y-0.19100
X0.60600 Y-0.19100
X0.60600 Y-0.19000
X0.60700 Y-0.19000
X0.60700 Y-0.18900
X0.60800 Y-0.18900
X0.60800 Y-0.18800
X0.60900 Y-0.18800
X0.60900 Y-0.18700
X0.61000 Y-0.18700
X0.61000 Y-0.18600
X0.61100 Y-0.18600
X0.61100 Y-0.18500
X0.61200 Y-0.18500
X0.61200 Y-0.18400
X0.61300 Y-0.18400
X0.61300 Y-0.18300
X0.61400 Y-0.18300
X0.61400 Y-0.18200
X0.61600 Y-0.18200
X0.61600 Y-0.18100
X0.61800 Y-0.18100
X0.61800 Y-0.18000
X0.62100 Y-0.18000
X0.62100 Y-0.17900
X0.62200 Y-0.17900
X0.62200 Y-0.18400
X0.62100 Y-0.18400
X0.62100 Y-0.18500
X0.61900 Y-0.18500
X0.61900 Y-0.18600
X0.61800 Y-0.18600
X0.61800 Y-0.18700
X0.61600 Y-0.18700
X0.61600 Y-0.18800
X0.61400 Y-0.18800
X0.61400 Y-0.18900
X0.61300 Y-0.18900
X0.61300 Y-0.19000
X0.61100 Y-0.19000
X0.61100 Y-0.19200
X0.61000 Y-0.19200
X0.61000 Y-0.19300
X0.60900 Y-0.19300
X0.60900 Y-0.19400
X0.60800 Y-0.19400
X0.60800 Y-0.19600
X0.60700 Y-0.19600
X0.60700 Y-0.19700
X0.60600 Y-0.19700
X0.60600 Y-0.19900
X0.60500 Y-0.19900
X0.60500 Y-0.20100
X0.60400 Y-0.20100
X0.60400 Y-0.20600
X0.60300 Y-0.20600
X0.60300 Y-0.21200
X0.60200 Y-0.21200
X0.60200 Y-0.28300
X0.60300 Y-0.28300
X0.60300 Y-0.28900
X0.60400 Y-0.28900
X0.60400 Y-0.29400
X0.60500 Y-0.29400
X0.60500 Y-0.29600
X0.60600 Y-0.29600
X0.60600 Y-0.29800
X0.60700 Y-0.29800
X0.60700 Y-0.29900
X0.60800 Y-0.29900
X0.60800 Y-0.30100
X0.60900 Y-0.30100
X0.60900 Y-0.30200
X0.61000 Y-0.30200
X0.61000 Y-0.30300
X0.61100 Y-0.30300
X0.61100 Y-0.30500
X0.61300 Y-0.30500
X0.61300 Y-0.30600
X0.61400 Y-0.30600
X0.61400 Y-0.30700
X0.61600 Y-0.30700
X0.61600 Y-0.30800
X0.61800 Y-0.30800
X0.61800 Y-0.30900
X0.61900 Y-0.30900
X0.61900 Y-0.31000
X0.62100 Y-0.31000
X0.62100 Y-0.31100
X0.62200 Y-0.31100
X0.62200 Y-0.31700
X0.62100 Y-0.31700
X0.62100 Y-0.31600
X0.61800 Y-0.31600
X0.61800 Y-0.31500
X0.61600 Y-0.31500
X0.61600 Y-0.31400
X0.61400 Y-0.31400
X0.61400 Y-0.31300
X0.61300 Y-0.31300
X0.61300 Y-0.31200
X0.61200 Y-0.31200
X0.61200 Y-0.31100
X0.61100 Y-0.31100
X0.61100 Y-0.31000
X0.61000 Y-0.31000
X0.61000 Y-0.30900
X0.60900 Y-0.30900
X0.60900 Y-0.30800
X0.60800 Y-0.30800
X0.60800 Y-0.30700
X0.60700 Y-0.30700
X0.60700 Y-0.30600
X0.60600 Y-0.30600
X0.60600 Y-0.30500
X0.60500 Y-0.30500
X0.60500 Y-0.30400
X0.60400 Y-0.30400
X0.60400 Y-0.30300
X0.60300 Y-0.30300
X0.60300 Y-0.30200
X0.60200 Y-0.30200
X0.60200 Y-0.30100
X0.60100 Y-0.30100
X0.60100 Y-0.29900
X0.60000 Y-0.29900
X0.60000 Y-0.29800
X0.59900 Y-0.29800
X0.59900 Y-0.29500
X0.59800 Y-0.29500
X0.59800 Y-0.29300
X0.59700 Y-0.29300
X0.59700 Y-0.29100
X0.59600 Y-0.29100
X0.59600 Y-0.29000
X0.59500 Y-0.29000
X0.59500 Y-0.28900
X0.57800 Y-0.28900
X0.57800 Y-0.29000
X0.57700 Y-0.29000
X0.57700 Y-0.29100
X0.57600 Y-0.29100
X0.57600 Y-0.29300
X0.57500 Y-0.29300
X0.57500 Y-0.29600
X0.57400 Y-0.29600
X0.57400 Y-0.29900
X0.57300 Y-0.29900
X0.57300 Y-0.30100
X0.57200 Y-0.30100
X0.57200 Y-0.30200
X0.57100 Y-0.30200
X0.57100 Y-0.30300
X0.57000 Y-0.30300
X0.57000 Y-0.30400
X0.56900 Y-0.30400
X0.56900 Y-0.30500
X0.56800 Y-0.30500
X0.56800 Y-0.30600
X0.56700 Y-0.30600
X0.56700 Y-0.30700
X0.56600 Y-0.30700
X0.56600 Y-0.30800
X0.56500 Y-0.30800
X0.56500 Y-0.30900
X0.56400 Y-0.30900
X0.56400 Y-0.31000
X0.56300 Y-0.31000
X0.56300 Y-0.31100
X0.56200 Y-0.31100
X0.56200 Y-0.31200
X0.56100 Y-0.31200
X0.56100 Y-0.31300
X0.56000 Y-0.31300
X0.56000 Y-0.31400
X0.55900 Y-0.31400
X0.55900 Y-0.31500
X0.55700 Y-0.31500
X0.55700 Y-0.31600
X0.55500 Y-0.31600
X0.55500 Y-0.31700
X0.55200 Y-0.31700
X0.55200 Y-0.31800
X0.55000 Y-0.31800
X0.55000 Y-0.31900
X0.54700 Y-0.31900
X0.54700 Y-0.32000
X0.54500 Y-0.32000
X0.54500 Y-0.32100
X0.54200 Y-0.32100
X0.54200 Y-0.32200
X0.53200 Y-0.32200
X0.53200 Y-0.32100
X0.52900 Y-0.32100
X0.52900 Y-0.32000
X0.52700 Y-0.32000
X0.52700 Y-0.31900
X0.52400 Y-0.31900
X0.52400 Y-0.31800
X0.52200 Y-0.31800
X0.52200 Y-0.31700
X0.51900 Y-0.31700
X0.51900 Y-0.31600
X0.51700 Y-0.31600
X0.51700 Y-0.31500
X0.51500 Y-0.31500
X0.51500 Y-0.31400
X0.51400 Y-0.31400
X0.51400 Y-0.31300
X0.51300 Y-0.31300
X0.51300 Y-0.31200
X0.51200 Y-0.31200
X0.51200 Y-0.31100
X0.51100 Y-0.31100
X0.51100 Y-0.31000
X0.51000 Y-0.31000
X0.51000 Y-0.30900
X0.50900 Y-0.30900
X0.50900 Y-0.30800
X0.50800 Y-0.30800
X0.50800 Y-0.30700
X0.50700 Y-0.30700
X0.50700 Y-0.30600
X0.50600 Y-0.30600
X0.50600 Y-0.30500
X0.50500 Y-0.30500
X0.50500 Y-0.30400
X0.50400 Y-0.30400
X0.50400 Y-0.30300
X0.50300 Y-0.30300
X0.50300 Y-0.30200
X0.50200 Y-0.30200
X0.50200 Y-0.30100
X0.50100 Y-0.30100
X0.50100 Y-0.29900
X0.50000 Y-0.29900
X0.50000 Y-0.29600
X0.49900 Y-0.29600
X0.49900 Y-0.29300
X0.49800 Y-0.29300
X0.49800 Y-0.29100
X0.49700 Y-0.29100
X0.49700 Y-0.29000
X0.49600 Y-0.29000
X0.49600 Y-0.28900
X0.47900 Y-0.28900
X0.47900 Y-0.29000
X0.47800 Y-0.29000
X0.47800 Y-0.29100
X0.47700 Y-0.29100
X0.47700 Y-0.29300
X0.47600 Y-0.29300
X0.47600 Y-0.29500
X0.47500 Y-0.29500
X0.47500 Y-0.29700
X0.47400 Y-0.29700
X0.47400 Y-0.30000
X0.47300 Y-0.30000
X0.47300 Y-0.30100
X0.47200 Y-0.30100
X0.47200 Y-0.30400
X0.47100 Y-0.30400
X0.47100 Y-0.49200
X0.47200 Y-0.49200
X0.47200 Y-0.49500
X0.47300 Y-0.49500
X0.47300 Y-0.49600
X0.47400 Y-0.49600
X0.47400 Y-0.49700
X0.47500 Y-0.49700
X0.47500 Y-0.49800
X0.47600 Y-0.49800
X0.47600 Y-0.49900
X0.47700 Y-0.49900
X0.47700 Y-0.50000
X0.47800 Y-0.50000
X0.47800 Y-0.50100
X0.47900 Y-0.50100
X0.47900 Y-0.50200
X0.48000 Y-0.50200
X0.48000 Y-0.50300
X0.48100 Y-0.50300
X0.48100 Y-0.50400
X0.48200 Y-0.50400
X0.48200 Y-0.50500
X0.48300 Y-0.50500
X0.48300 Y-0.50600
X0.48400 Y-0.50600
X0.48400 Y-0.50700
X0.48500 Y-0.50700
X0.48500 Y-0.50900
X0.48600 Y-0.50900
X0.48600 Y-0.51100
X0.48700 Y-0.51100
X0.48700 Y-0.51400
X0.48800 Y-0.51400
X0.48800 Y-0.51600
X0.48900 Y-0.51600
X0.48900 Y-0.51700
X0.49000 Y-0.51700
X0.49000 Y-0.51800
X0.50700 Y-0.51800
X0.50700 Y-0.51700
X0.50800 Y-0.51700
X0.50800 Y-0.51600
X0.50900 Y-0.51600
X0.50900 Y-0.51400
X0.51000 Y-0.51400
X0.51000 Y-0.51200
X0.51100 Y-0.51200
X0.51100 Y-0.51000
X0.51200 Y-0.51000
X0.51200 Y-0.50900
X0.51300 Y-0.50900
X0.51300 Y-0.50700
X0.51400 Y-0.50700
X0.51400 Y-0.50600
X0.51500 Y-0.50600
X0.51500 Y-0.50500
X0.51600 Y-0.50500
X0.51600 Y-0.50400
X0.51700 Y-0.50400
X0.51700 Y-0.50300
X0.51800 Y-0.50300
X0.51800 Y-0.50200
X0.51900 Y-0.50200
X0.51900 Y-0.50100
X0.52000 Y-0.50100
X0.52000 Y-0.50000
X0.52100 Y-0.50000
X0.52100 Y-0.49900
X0.52200 Y-0.49900
X0.52200 Y-0.49800
X0.52300 Y-0.49800
X0.52300 Y-0.49700
X0.52400 Y-0.49700
X0.52400 Y-0.49600
X0.52500 Y-0.49600
X0.52500 Y-0.49500
X0.52600 Y-0.49500
X0.52600 Y-0.49400
X0.52800 Y-0.49400
X0.52800 Y-0.49300
X0.53000 Y-0.49300
X0.53000 Y-0.49200
X0.53300 Y-0.49200
X0.53300 Y-0.49100
X0.53400 Y-0.49100
X0.53400 Y-0.49600
X0.53300 Y-0.49600
X0.53300 Y-0.49700
X0.53100 Y-0.49700
X0.53100 Y-0.49800
X0.53000 Y-0.49800
X0.53000 Y-0.49900
X0.52800 Y-0.49900
X0.52800 Y-0.50000
X0.52600 Y-0.50000
X0.52600 Y-0.50100
X0.52500 Y-0.50100
X0.52500 Y-0.50200
X0.52300 Y-0.50200
X0.52300 Y-0.50400
X0.52200 Y-0.50400
X0.52200 Y-0.50500
X0.52100 Y-0.50500
X0.52100 Y-0.50600
X0.52000 Y-0.50600
X0.52000 Y-0.50800
X0.51900 Y-0.50800
X0.51900 Y-0.50900
X0.51800 Y-0.50900
X0.51800 Y-0.51100
X0.51700 Y-0.51100
X0.51700 Y-0.51300
X0.51600 Y-0.51300
X0.51600 Y-0.51800
X0.51500 Y-0.51800
X0.51500 Y-0.52400
X0.51400 Y-0.52400
X0.51400 Y-0.59500
X0.51500 Y-0.59500
X0.51500 Y-0.60100
X0.51600 Y-0.60100
X0.51600 Y-0.60600
X0.51700 Y-0.60600
X0.51700 Y-0.60800
X0.51800 Y-0.60800
X0.51800 Y-0.61000
X0.51900 Y-0.61000
X0.51900 Y-0.61100
X0.52000 Y-0.61100
X0.52000 Y-0.61300
X0.52100 Y-0.61300
X0.52100 Y-0.61400
X0.52200 Y-0.61400
X0.52200 Y-0.61500
X0.52300 Y-0.61500
X0.52300 Y-0.61700
X0.52500 Y-0.61700
X0.52500 Y-0.61800
X0.52600 Y-0.61800
X0.52600 Y-0.61900
X0.52800 Y-0.61900
X0.52800 Y-0.62000
X0.53000 Y-0.62000
X0.53000 Y-0.62100
X0.53100 Y-0.62100
X0.53100 Y-0.62200
X0.53300 Y-0.62200
X0.53300 Y-0.62300
X0.53400 Y-0.62300
X0.53400 Y-0.62900
X0.53300 Y-0.62900
X0.53300 Y-0.62800
X0.53000 Y-0.62800
X0.53000 Y-0.62700
X0.52800 Y-0.62700
X0.52800 Y-0.62600
X0.52600 Y-0.62600
X0.52600 Y-0.62500
X0.52500 Y-0.62500
X0.52500 Y-0.62400
X0.52400 Y-0.62400
X0.52400 Y-0.62300
X0.52300 Y-0.62300
X0.52300 Y-0.62200
X0.52200 Y-0.62200
X0.52200 Y-0.62100
X0.52100 Y-0.62100
X0.52100 Y-0.62000
X0.52000 Y-0.62000
X0.52000 Y-0.61900
X0.51900 Y-0.61900
X0.51900 Y-0.61800
X0.51800 Y-0.61800
X0.51800 Y-0.61700
X0.51700 Y-0.61700
X0.51700 Y-0.61600
X0.51600 Y-0.61600
X0.51600 Y-0.61500
X0.51500 Y-0.61500
X0.51500 Y-0.61400
X0.51400 Y-0.61400
X0.51400 Y-0.61300
X0.51300 Y-0.61300
X0.51300 Y-0.61100
X0.51200 Y-0.61100
X0.51200 Y-0.61000
X0.51100 Y-0.61000
X0.51100 Y-0.60700
X0.51000 Y-0.60700
X0.51000 Y-0.60500
X0.50900 Y-0.60500
X0.50900 Y-0.60300
X0.50800 Y-0.60300
X0.50800 Y-0.60200
X0.50700 Y-0.60200
X0.50700 Y-0.60100
X0.49000 Y-0.60100
X0.49000 Y-0.60200
X0.48900 Y-0.60200
X0.48900 Y-0.60300
X0.48800 Y-0.60300
X0.48800 Y-0.60500
X0.48700 Y-0.60500
X0.48700 Y-0.60800
X0.48600 Y-0.60800
X0.48600 Y-0.61100
X0.48500 Y-0.61100
X0.48500 Y-0.61300
X0.48400 Y-0.61300
X0.48400 Y-0.61400
X0.48300 Y-0.61400
X0.48300 Y-0.61500
X0.48200 Y-0.61500
X0.48200 Y-0.61600
X0.48100 Y-0.61600
X0.48100 Y-0.61700
X0.48000 Y-0.61700
X0.48000 Y-0.61800
X0.47900 Y-0.61800
X0.47900 Y-0.61900
X0.47800 Y-0.61900
X0.47800 Y-0.62000
X0.47700 Y-0.62000
X0.47700 Y-0.62100
X0.47600 Y-0.62100
X0.47600 Y-0.62200
X0.47500 Y-0.62200
X0.47500 Y-0.62300
X0.47400 Y-0.62300
X0.47400 Y-0.62400
X0.47300 Y-0.62400
X0.47300 Y-0.62500
X0.47200 Y-0.62500
X0.47200 Y-0.62600
X0.47100 Y-0.62600
X0.47100 Y-0.62700
X0.46900 Y-0.62700
X0.46900 Y-0.62800
X0.46700 Y-0.62800
X0.46700 Y-0.62900
X0.46400 Y-0.62900
X0.46400 Y-0.63000
X0.46200 Y-0.63000
X0.46200 Y-0.63100
X0.45900 Y-0.63100
X0.45900 Y-0.63200
X0.45700 Y-0.63200
X0.45700 Y-0.63300
X0.45400 Y-0.63300
X0.45400 Y-0.63400
X0.44400 Y-0.63400
X0.44400 Y-0.63300
X0.44100 Y-0.63300
X0.44100 Y-0.63200
X0.43900 Y-0.63200
X0.43900 Y-0.63100
X0.43600 Y-0.63100
X0.43600 Y-0.63000
X0.43400 Y-0.63000
X0.43400 Y-0.62900
X0.43100 Y-0.62900
X0.43100 Y-0.62800
X0.42900 Y-0.62800
X0.42900 Y-0.62700
X0.42700 Y-0.62700
X0.42700 Y-0.62600
X0.42600 Y-0.62600
X0.42600 Y-0.62500
X0.42500 Y-0.62500
X0.42500 Y-0.62400
X0.42400 Y-0.62400
X0.42400 Y-0.62300
X0.42300 Y-0.62300
X0.42300 Y-0.62200
X0.42200 Y-0.62200
X0.42200 Y-0.62100
X0.42100 Y-0.62100
X0.42100 Y-0.62000
X0.42000 Y-0.62000
X0.42000 Y-0.61900
X0.41900 Y-0.61900
X0.41900 Y-0.61800
X0.41800 Y-0.61800
X0.41800 Y-0.61700
X0.41700 Y-0.61700
X0.41700 Y-0.61600
X0.41600 Y-0.61600
X0.41600 Y-0.61500
X0.41500 Y-0.61500
X0.41500 Y-0.61400
X0.41400 Y-0.61400
X0.41400 Y-0.61300
X0.41300 Y-0.61300
X0.41300 Y-0.61200
X0.41100 Y-0.61200
X0.41100 Y-0.61100
X0.39600 Y-0.61100
X0.39600 Y-0.61200
X0.39400 Y-0.61200
X0.39400 Y-0.61300
X0.39300 Y-0.61300
X0.39300 Y-0.61400
X0.39200 Y-0.61400
X0.39200 Y-0.61500
X0.39100 Y-0.61500
X0.39100 Y-0.61600
X0.39000 Y-0.61600
X0.39000 Y-0.61700
X0.38900 Y-0.61700
X0.38900 Y-0.61800
X0.38800 Y-0.61800
X0.38800 Y-0.61900
X0.38700 Y-0.61900
X0.38700 Y-0.62000
X0.38600 Y-0.62000
X0.38600 Y-0.62100
X0.38500 Y-0.62100
X0.38500 Y-0.62200
X0.38400 Y-0.62200
X0.38400 Y-0.62300
X0.38300 Y-0.62300
X0.38300 Y-0.62400
X0.38200 Y-0.62400
X0.38200 Y-0.62500
X0.38100 Y-0.62500
X0.38100 Y-0.62600
X0.38000 Y-0.62600
X0.38000 Y-0.62700
X0.37900 Y-0.62700
X0.37900 Y-0.62800
X0.37800 Y-0.62800
X0.37800 Y-0.62900
X0.37700 Y-0.62900
X0.37700 Y-0.63000
X0.37600 Y-0.63000
X0.37600 Y-0.63100
X0.37500 Y-0.63100
X0.37500 Y-0.63200
X0.37400 Y-0.63200
X0.37400 Y-0.63300
X0.37300 Y-0.63300
X0.37300 Y-0.63400
X0.37200 Y-0.63400
X0.37200 Y-0.63500
X0.37100 Y-0.63500
X0.37100 Y-0.63600
X0.37000 Y-0.63600
X0.37000 Y-0.63700
X0.36900 Y-0.63700
X0.36900 Y-0.63800
X0.36800 Y-0.63800
X0.36800 Y-0.63900
X0.36700 Y-0.63900
X0.36700 Y-0.64000
X0.36600 Y-0.64000
X0.36600 Y-0.64100
X0.36500 Y-0.64100
X0.36500 Y-0.64200
X0.36400 Y-0.64200
X0.36400 Y-0.64300
X0.36300 Y-0.64300
X0.36300 Y-0.64400
X0.36200 Y-0.64400
X0.36200 Y-0.64500
X0.36100 Y-0.64500
X0.36100 Y-0.64600
X0.36000 Y-0.64600
X0.36000 Y-0.64900
X0.35900 Y-0.64900
X0.35900 Y-0.70400
X0.36000 Y-0.70400
X0.36000 Y-0.70700
X0.36100 Y-0.70700
X0.36100 Y-0.70800
X0.36200 Y-0.70800
X0.36200 Y-0.70900
X0.36300 Y-0.70900
X0.36300 Y-0.71000
X0.36400 Y-0.71000
X0.36400 Y-0.71100
X0.36500 Y-0.71100
X0.36500 Y-0.71200
X0.36600 Y-0.71200
X0.36600 Y-0.71300
X0.36700 Y-0.71300
X0.36700 Y-0.71400
X0.36800 Y-0.71400
X0.36800 Y-0.71500
X0.36900 Y-0.71500
X0.36900 Y-0.71600
X0.37000 Y-0.71600
X0.37000 Y-0.71700
X0.37100 Y-0.71700
X0.37100 Y-0.71800
X0.37200 Y-0.71800
X0.37200 Y-0.71900
X0.37300 Y-0.71900
X0.37300 Y-0.72000
X0.37400 Y-0.72000
X0.37400 Y-0.72100
X0.37500 Y-0.72100
X0.37500 Y-0.72200
X0.37600 Y-0.72200
X0.37600 Y-0.72400
X0.37700 Y-0.72400
X0.37700 Y-0.72600
X0.37800 Y-0.72600
X0.37800 Y-0.72800
X0.37900 Y-0.72800
X0.37900 Y-0.73100
X0.38000 Y-0.73100
X0.38000 Y-0.73300
X0.38100 Y-0.73300
X0.38100 Y-0.73500
X0.38200 Y-0.73500
X0.38200 Y-0.73800
X0.38300 Y-0.73800
X0.38300 Y-0.74000
X0.38400 Y-0.74000
X0.38400 Y-0.75200
X0.38300 Y-0.75200
X0.38300 Y-0.75400
X0.38200 Y-0.75400
X0.38200 Y-0.75700
X0.38100 Y-0.75700
X0.38100 Y-0.75900
X0.38000 Y-0.75900
X0.38000 Y-0.76100
X0.37900 Y-0.76100
X0.37900 Y-0.76400
X0.37800 Y-0.76400
X0.37800 Y-0.76600
X0.37700 Y-0.76600
X0.37700 Y-0.76800
X0.37600 Y-0.76800
X0.37600 Y-0.77000
X0.37500 Y-0.77000
X0.37500 Y-0.77100
X0.37400 Y-0.77100
X0.37400 Y-0.77200
X0.37300 Y-0.77200
X0.37300 Y-0.77300
X0.37200 Y-0.77300
X0.37200 Y-0.77400
X0.37100 Y-0.77400
X0.37100 Y-0.77500
X0.37000 Y-0.77500
X0.37000 Y-0.77600
X0.36900 Y-0.77600
X0.36900 Y-0.77900
X0.36800 Y-0.77900
X0.36800 Y-0.79200
X0.36900 Y-0.79200
X0.36900 Y-0.79400
X0.37000 Y-0.79400
X0.37000 Y-0.79500
X0.37100 Y-0.79500
X0.37100 Y-0.79600
X0.39100 Y-0.79600
X0.39100 Y-0.79500
X0.39300 Y-0.79500
X0.39300 Y-0.79400
X0.39400 Y-0.79400
X0.39400 Y-0.79300
X0.39500 Y-0.79300
X0.39500 Y-0.79200
X0.39600 Y-0.79200
X0.39600 Y-0.79100
X0.39700 Y-0.79100
X0.39700 Y-0.79000
X0.39800 Y-0.79000
X0.39800 Y-0.78900
X0.39900 Y-0.78900
X0.39900 Y-0.78800
X0.40000 Y-0.78800
X0.40000 Y-0.78700
X0.40100 Y-0.78700
X0.40100 Y-0.78600
X0.40200 Y-0.78600
X0.40200 Y-0.78500
X0.40300 Y-0.78500
X0.40300 Y-0.78400
X0.40400 Y-0.78400
X0.40400 Y-0.78300
X0.40500 Y-0.78300
X0.40500 Y-0.78200
X0.40600 Y-0.78200
X0.40600 Y-0.78100
X0.40700 Y-0.78100
X0.40700 Y-0.78000
X0.40800 Y-0.78000
X0.40800 Y-0.77900
X0.40900 Y-0.77900
X0.40900 Y-0.77800
X0.41000 Y-0.77800
X0.41000 Y-0.77700
X0.41100 Y-0.77700
X0.41100 Y-0.77600
X0.41200 Y-0.77600
X0.41200 Y-0.77500
X0.41300 Y-0.77500
X0.41300 Y-0.77400
X0.41400 Y-0.77400
X0.41400 Y-0.77300
X0.41500 Y-0.77300
X0.41500 Y-0.77200
X0.41600 Y-0.77200
X0.41600 Y-0.77100
X0.41700 Y-0.77100
X0.41700 Y-0.77000
X0.41800 Y-0.77000
X0.41800 Y-0.76900
X0.41900 Y-0.76900
X0.41900 Y-0.76800
X0.42000 Y-0.76800
X0.42000 Y-0.76700
X0.42100 Y-0.76700
X0.42100 Y-0.76600
X0.42200 Y-0.76600
X0.42200 Y-0.76500
X0.42300 Y-0.76500
X0.42300 Y-0.76400
X0.42400 Y-0.76400
X0.42400 Y-0.76300
X0.42500 Y-0.76300
X0.42500 Y-0.76200
X0.42600 Y-0.76200
X0.42600 Y-0.76100
X0.42700 Y-0.76100
X0.42700 Y-0.76000
X0.42800 Y-0.76000
X0.42800 Y-0.75900
X0.42900 Y-0.75900
X0.42900 Y-0.75800
X0.43000 Y-0.75800
X0.43000 Y-0.75700
X0.43100 Y-0.75700
X0.43100 Y-0.75600
X0.43200 Y-0.75600
X0.43200 Y-0.75500
X0.43300 Y-0.75500
X0.43300 Y-0.75400
X0.43400 Y-0.75400
X0.43400 Y-0.75300
X0.43500 Y-0.75300
X0.43500 Y-0.75200
X0.43600 Y-0.75200
X0.43600 Y-0.75100
X0.43700 Y-0.75100
X0.43700 Y-0.75000
X0.43800 Y-0.75000
X0.43800 Y-0.74900
X0.43900 Y-0.74900
X0.43900 Y-0.74800
X0.44000 Y-0.74800
X0.44000 Y-0.74700
X0.44100 Y-0.74700
X0.44100 Y-0.74600
X0.44200 Y-0.74600
X0.44200 Y-0.74500
X0.44300 Y-0.74500
X0.44300 Y-0.74400
X0.44400 Y-0.74400
X0.44400 Y-0.74300
X0.44500 Y-0.74300
X0.44500 Y-0.74200
X0.44600 Y-0.74200
X0.44600 Y-0.74100
X0.44700 Y-0.74100
X0.44700 Y-0.74000
X0.44800 Y-0.74000
X0.44800 Y-0.73900
X0.44900 Y-0.73900
X0.44900 Y-0.73800
X0.45000 Y-0.73800
X0.45000 Y-0.73700
X0.45100 Y-0.73700
X0.45100 Y-0.73600
X0.45200 Y-0.73600
X0.45200 Y-0.73500
X0.45300 Y-0.73500
X0.45300 Y-0.73400
X0.45400 Y-0.73400
X0.45400 Y-0.73300
X0.45500 Y-0.73300
X0.45500 Y-0.73200
X0.45600 Y-0.73200
X0.45600 Y-0.73100
X0.45700 Y-0.73100
X0.45700 Y-0.73000
X0.45800 Y-0.73000
X0.45800 Y-0.72900
X0.45900 Y-0.72900
X0.45900 Y-0.72800
X0.46000 Y-0.72800
X0.46000 Y-0.72700
X0.46100 Y-0.72700
X0.46100 Y-0.72600
X0.46200 Y-0.72600
X0.46200 Y-0.72500
X0.46300 Y-0.72500
X0.46300 Y-0.72400
X0.46400 Y-0.72400
X0.46400 Y-0.72300
X0.46500 Y-0.72300
X0.46500 Y-0.72200
X0.46600 Y-0.72200
X0.46600 Y-0.72100
X0.46700 Y-0.72100
X0.46700 Y-0.72000
X0.46800 Y-0.72000
X0.46800 Y-0.71900
X0.46900 Y-0.71900
X0.46900 Y-0.71800
X0.47000 Y-0.71800
X0.47000 Y-0.71700
X0.47100 Y-0.71700
X0.47100 Y-0.71600
X0.47200 Y-0.71600
X0.47200 Y-0.71500
X0.47300 Y-0.71500
X0.47300 Y-0.71400
X0.47400 Y-0.71400
X0.47400 Y-0.71300
X0.47500 Y-0.71300
X0.47500 Y-0.71200
X0.47600 Y-0.71200
X0.47600 Y-0.71100
X0.47700 Y-0.71100
X0.47700 Y-0.71000
X0.47800 Y-0.71000
X0.47800 Y-0.70900
X0.47900 Y-0.70900
X0.47900 Y-0.70800
X0.48000 Y-0.70800
X0.48000 Y-0.70700
X0.48100 Y-0.70700
X0.48100 Y-0.70600
X0.48200 Y-0.70600
X0.48200 Y-0.70500
X0.48300 Y-0.70500
X0.48300 Y-0.70400
X0.48400 Y-0.70400
X0.48400 Y-0.70300
X0.48500 Y-0.70300
X0.48500 Y-0.70200
X0.48600 Y-0.70200
X0.48600 Y-0.70100
X0.48700 Y-0.70100
X0.48700 Y-0.70000
X0.48800 Y-0.70000
X0.48800 Y-0.69900
X0.48900 Y-0.69900
X0.48900 Y-0.69800
X0.49000 Y-0.69800
X0.49000 Y-0.69700
X0.49100 Y-0.69700
X0.49100 Y-0.69600
X0.49200 Y-0.69600
X0.49200 Y-0.69500
X0.49300 Y-0.69500
X0.49300 Y-0.69400
X0.49400 Y-0.69400
X0.49400 Y-0.69300
X0.49500 Y-0.69300
X0.49500 Y-0.69200
X0.49600 Y-0.69200
X0.49600 Y-0.69100
X0.49700 Y-0.69100
X0.49700 Y-0.69000
X0.49900 Y-0.69000
X0.49900 Y-0.68900
X0.50000 Y-0.68900
X0.50000 Y-0.68800
X0.50100 Y-0.68800
X0.50100 Y-0.68700
X0.50300 Y-0.68700
X0.50300 Y-0.68600
X0.50600 Y-0.68600
X0.50600 Y-0.68500
X0.51200 Y-0.68500
X0.51200 Y-0.68400
X0.57700 Y-0.68400
X0.57700 Y-0.68300
X0.57900 Y-0.68300
X0.57900 Y-0.68200
X0.58000 Y-0.68200
X0.58000 Y-0.68100
X0.58100 Y-0.68100
X0.58100 Y-0.68000
X0.58200 Y-0.68000
X0.58200 Y-0.67900
X0.58300 Y-0.67900
X0.58300 Y-0.67800
X0.58400 Y-0.67800
X0.58400 Y-0.67700
X0.58500 Y-0.67700
X0.58500 Y-0.67600
X0.58600 Y-0.67600
X0.58600 Y-0.67500
X0.58700 Y-0.67500
X0.58700 Y-0.67400
X0.58800 Y-0.67400
X0.58800 Y-0.67300
X0.58900 Y-0.67300
X0.58900 Y-0.67200
X0.59000 Y-0.67200
X0.59000 Y-0.67100
X0.59100 Y-0.67100
X0.59100 Y-0.67000
X0.59200 Y-0.67000
X0.59200 Y-0.66900
X0.59300 Y-0.66900
X0.59300 Y-0.66800
X0.59400 Y-0.66800
X0.59400 Y-0.66700
X0.59500 Y-0.66700
X0.59500 Y-0.66600
X0.59600 Y-0.66600
X0.59600 Y-0.66500
X0.59700 Y-0.66500
X0.59700 Y-0.66400
X0.59800 Y-0.66400
X0.59800 Y-0.66300
X0.59900 Y-0.66300
X0.59900 Y-0.66200
X0.60000 Y-0.66200
X0.60000 Y-0.66100
X0.60100 Y-0.66100
X0.60100 Y-0.66000
X0.60200 Y-0.66000
X0.60200 Y-0.65900
X0.60300 Y-0.65900
X0.60300 Y-0.65800
X0.60400 Y-0.65800
X0.60400 Y-0.65700
X0.60500 Y-0.65700
X0.60500 Y-0.65600
X0.60600 Y-0.65600
X0.60600 Y-0.65500
X0.60700 Y-0.65500
X0.60700 Y-0.65400
X0.60800 Y-0.65400
X0.60800 Y-0.65300
X0.60900 Y-0.65300
X0.60900 Y-0.65200
X0.61000 Y-0.65200
X0.61000 Y-0.65100
X0.61100 Y-0.65100
X0.61100 Y-0.65000
X0.61200 Y-0.65000
X0.61200 Y-0.64900
X0.61300 Y-0.64900
X0.61300 Y-0.64800
X0.61400 Y-0.64800
X0.61400 Y-0.64700
X0.61500 Y-0.64700
X0.61500 Y-0.64600
X0.61600 Y-0.64600
X0.61600 Y-0.64500
X0.61700 Y-0.64500
X0.61700 Y-0.64400
X0.61800 Y-0.64400
X0.61800 Y-0.64300
X0.61900 Y-0.64300
X0.61900 Y-0.64200
X0.62000 Y-0.64200
X0.62000 Y-0.64100
X0.62100 Y-0.64100
X0.62100 Y-0.64000
X0.62200 Y-0.64000
X0.62200 Y-0.63700
X0.62300 Y-0.63700
X0.62300 Y-0.62400
X0.62200 Y-0.62400
X0.62200 Y-0.62100
X0.62100 Y-0.62100
X0.62100 Y-0.62000
X0.62000 Y-0.62000
X0.62000 Y-0.61900
X0.61900 Y-0.61900
X0.61900 Y-0.61800
X0.61800 Y-0.61800
X0.61800 Y-0.61700
X0.61700 Y-0.61700
X0.61700 Y-0.61600
X0.61600 Y-0.61600
X0.61600 Y-0.61500
X0.61500 Y-0.61500
X0.61500 Y-0.61400
X0.61400 Y-0.61400
X0.61400 Y-0.61300
X0.61300 Y-0.61300
X0.61300 Y-0.61100
X0.61200 Y-0.61100
X0.61200 Y-0.60800
X0.61100 Y-0.60800
X0.61100 Y-0.60500
X0.61000 Y-0.60500
X0.61000 Y-0.60300
X0.60900 Y-0.60300
X0.60900 Y-0.60200
X0.60800 Y-0.60200
X0.60800 Y-0.60100
X0.59100 Y-0.60100
X0.59100 Y-0.60200
X0.59000 Y-0.60200
X0.59000 Y-0.60300
X0.58900 Y-0.60300
X0.58900 Y-0.60500
X0.58800 Y-0.60500
X0.58800 Y-0.60700
X0.58700 Y-0.60700
X0.58700 Y-0.61000
X0.58600 Y-0.61000
X0.58600 Y-0.61100
X0.58500 Y-0.61100
X0.58500 Y-0.61300
X0.58400 Y-0.61300
X0.58400 Y-0.61400
X0.58300 Y-0.61400
X0.58300 Y-0.61500
X0.58200 Y-0.61500
X0.58200 Y-0.61600
X0.58100 Y-0.61600
X0.58100 Y-0.61700
X0.58000 Y-0.61700
X0.58000 Y-0.61800
X0.57900 Y-0.61800
X0.57900 Y-0.61900
X0.57800 Y-0.61900
X0.57800 Y-0.62000
X0.57700 Y-0.62000
X0.57700 Y-0.62100
X0.57600 Y-0.62100
X0.57600 Y-0.62200
X0.57500 Y-0.62200
X0.57500 Y-0.62300
X0.57400 Y-0.62300
X0.57400 Y-0.62400
X0.57300 Y-0.62400
X0.57300 Y-0.62500
X0.57200 Y-0.62500
X0.57200 Y-0.62600
X0.57000 Y-0.62600
X0.57000 Y-0.62700
X0.56800 Y-0.62700
X0.56800 Y-0.62800
X0.56500 Y-0.62800
X0.56500 Y-0.62300
X0.56600 Y-0.62300
X0.56600 Y-0.62200
X0.56800 Y-0.62200
X0.56800 Y-0.62100
X0.56900 Y-0.62100
X0.56900 Y-0.62000
X0.57100 Y-0.62000
X0.57100 Y-0.61900
X0.57300 Y-0.61900
X0.57300 Y-0.61800
X0.57400 Y-0.61800
X0.57400 Y-0.61700
X0.57600 Y-0.61700
X0.57600 Y-0.61500
X0.57700 Y-0.61500
X0.57700 Y-0.61400
X0.57800 Y-0.61400
X0.57800 Y-0.61300
X0.57900 Y-0.61300
X0.57900 Y-0.61100
X0.58000 Y-0.61100
X0.58000 Y-0.61000
X0.58100 Y-0.61000
X0.58100 Y-0.60800
X0.58200 Y-0.60800
X0.58200 Y-0.60600
X0.58300 Y-0.60600
X0.58300 Y-0.60100
X0.58400 Y-0.60100
X0.58400 Y-0.59500
X0.58500 Y-0.59500
X0.58500 Y-0.52400
X0.58400 Y-0.52400
X0.58400 Y-0.51800
X0.58300 Y-0.51800
X0.58300 Y-0.51300
X0.58200 Y-0.51300
X0.58200 Y-0.51000
X0.58100 Y-0.51000
X0.58100 Y-0.50900
X0.58000 Y-0.50900
X0.58000 Y-0.50800
X0.57900 Y-0.50800
X0.57900 Y-0.50600
X0.57800 Y-0.50600
X0.57800 Y-0.50500
X0.57700 Y-0.50500
X0.57700 Y-0.50400
X0.57600 Y-0.50400
X0.57600 Y-0.50200
X0.57400 Y-0.50200
X0.57400 Y-0.50100
X0.57300 Y-0.50100
X0.57300 Y-0.50000
X0.57100 Y-0.50000
X0.57100 Y-0.49900
X0.56900 Y-0.49900
X0.56900 Y-0.49800
X0.56800 Y-0.49800
X0.56800 Y-0.49700
X0.56600 Y-0.49700
X0.56600 Y-0.49600
X0.56500 Y-0.49600
X0.56500 Y-0.49200
X0.56800 Y-0.49200
X0.56800 Y-0.49300
X0.57000 Y-0.49300
X0.57000 Y-0.49400
X0.57200 Y-0.49400
X0.57200 Y-0.49500
X0.57300 Y-0.49500
X0.57300 Y-0.49600
X0.57400 Y-0.49600
X0.57400 Y-0.49700
X0.57500 Y-0.49700
X0.57500 Y-0.49800
X0.57600 Y-0.49800
X0.57600 Y-0.49900
X0.57700 Y-0.49900
X0.57700 Y-0.50000
X0.57800 Y-0.50000
X0.57800 Y-0.50100
X0.57900 Y-0.50100
X0.57900 Y-0.50200
X0.58000 Y-0.50200
X0.58000 Y-0.50300
X0.58100 Y-0.50300
X0.58100 Y-0.50400
X0.58200 Y-0.50400
X0.58200 Y-0.50500
X0.58300 Y-0.50500
X0.58300 Y-0.50600
X0.58400 Y-0.50600
X0.58400 Y-0.50700
X0.58500 Y-0.50700
X0.58500 Y-0.50900
X0.58600 Y-0.50900
X0.58600 Y-0.51000
X0.58700 Y-0.51000
X0.58700 Y-0.51200
X0.58800 Y-0.51200
X0.58800 Y-0.51400
X0.58900 Y-0.51400
X0.58900 Y-0.51600
X0.59000 Y-0.51600
X0.59000 Y-0.51700
X0.59100 Y-0.51700
X0.59100 Y-0.51800
X0.60800 Y-0.51800
X0.60800 Y-0.51700
X0.60900 Y-0.51700
X0.60900 Y-0.51600
X0.61000 Y-0.51600
X0.61000 Y-0.51400
X0.61100 Y-0.51400
X0.61100 Y-0.51100
X0.61200 Y-0.51100
X0.61200 Y-0.50900
X0.61300 Y-0.50900
X0.61300 Y-0.50700
X0.61400 Y-0.50700
X0.61400 Y-0.50600
X0.61500 Y-0.50600
X0.61500 Y-0.50500
X0.61600 Y-0.50500
X0.61600 Y-0.50400
X0.61700 Y-0.50400
X0.61700 Y-0.50300
X0.61800 Y-0.50300
X0.61800 Y-0.50200
X0.61900 Y-0.50200
X0.61900 Y-0.50100
X0.62000 Y-0.50100
X0.62000 Y-0.50000
X0.62100 Y-0.50000
X0.62100 Y-0.49900
X0.62200 Y-0.49900
X0.62200 Y-0.49800
X0.62300 Y-0.49800
X0.62300 Y-0.49700
X0.62400 Y-0.49700
X0.62400 Y-0.49600
X0.62500 Y-0.49600
X0.62500 Y-0.49500
X0.62600 Y-0.49500
X0.62600 Y-0.49400
X0.62700 Y-0.49400
X0.62700 Y-0.49300
X0.62900 Y-0.49300
X0.62900 Y-0.49200
X0.63100 Y-0.49200
X0.63100 Y-0.49100
X0.63400 Y-0.49100
X0.63400 Y-0.49000
X0.63600 Y-0.49000
X0.63600 Y-0.48900
X0.63900 Y-0.48900
X0.63900 Y-0.48800
X0.64100 Y-0.48800
X0.64100 Y-0.48700
X0.64400 Y-0.48700
X0.64400 Y-0.48600
X0.65400 Y-0.48600
X0.65400 Y-0.48700
X0.65700 Y-0.48700
X0.65700 Y-0.48800
X0.65900 Y-0.48800
X0.65900 Y-0.48900
X0.66200 Y-0.48900
X0.66200 Y-0.49000
X0.66400 Y-0.49000
X0.66400 Y-0.49100
X0.66700 Y-0.49100
X0.66700 Y-0.49200
X0.66900 Y-0.49200
X0.66900 Y-0.49300
X0.67100 Y-0.49300
X0.67100 Y-0.49400
X0.67200 Y-0.49400
X0.67200 Y-0.49500
X0.67300 Y-0.49500
X0.67300 Y-0.49600
X0.67400 Y-0.49600
X0.67400 Y-0.49700
X0.67500 Y-0.49700
X0.67500 Y-0.49800
X0.67600 Y-0.49800
X0.67600 Y-0.49900
X0.67700 Y-0.49900
X0.67700 Y-0.50000
X0.67800 Y-0.50000
X0.67800 Y-0.50100
X0.67900 Y-0.50100
X0.67900 Y-0.50200
X0.68000 Y-0.50200
X0.68000 Y-0.50300
X0.68100 Y-0.50300
X0.68100 Y-0.50400
X0.68200 Y-0.50400
X0.68200 Y-0.50500
X0.68300 Y-0.50500
X0.68300 Y-0.50600
X0.68400 Y-0.50600
X0.68400 Y-0.50700
X0.68500 Y-0.50700
X0.68500 Y-0.50900
X0.68600 Y-0.50900
X0.68600 Y-0.51100
X0.68700 Y-0.51100
X0.68700 Y-0.51300
X0.68800 Y-0.51300
X0.68800 Y-0.51600
X0.68900 Y-0.51600
X0.68900 Y-0.51800
X0.69000 Y-0.51800
X0.69000 Y-0.52000
X0.69100 Y-0.52000
X0.69100 Y-0.52300
X0.69200 Y-0.52300
X0.69200 Y-0.59600
X0.69100 Y-0.59600
X0.69100 Y-0.59900
X0.69000 Y-0.59900
X0.69000 Y-0.60100
X0.68900 Y-0.60100
X0.68900 Y-0.60400
X0.68800 Y-0.60400
X0.68800 Y-0.60600
X0.68700 Y-0.60600
X0.68700 Y-0.60900
X0.68600 Y-0.60900
X0.68600 Y-0.61100
X0.68500 Y-0.61100
X0.68500 Y-0.61300
X0.68400 Y-0.61300
X0.68400 Y-0.61400
X0.68300 Y-0.61400
X0.68300 Y-0.61500
X0.68200 Y-0.61500
X0.68200 Y-0.61600
X0.68100 Y-0.61600
X0.68100 Y-0.61700
X0.68000 Y-0.61700
X0.68000 Y-0.61800
X0.67900 Y-0.61800
X0.67900 Y-0.61900
X0.67800 Y-0.61900
X0.67800 Y-0.62000
X0.67700 Y-0.62000
X0.67700 Y-0.62100
X0.67600 Y-0.62100
X0.67600 Y-0.62200
X0.67500 Y-0.62200
X0.67500 Y-0.62300
X0.67400 Y-0.62300
X0.67400 Y-0.62400
X0.67300 Y-0.62400
X0.67300 Y-0.62500
X0.67200 Y-0.62500
X0.67200 Y-0.62800
X0.67100 Y-0.62800
X0.67100 Y-0.63700
X0.67000 Y-0.63700
X0.67000 Y-0.64300
X0.66900 Y-0.64300
X0.66900 Y-0.64600
X0.66800 Y-0.64600
X0.66800 Y-0.64800
X0.66700 Y-0.64800
X0.66700 Y-0.64900
X0.66600 Y-0.64900
X0.66600 Y-0.65000
X0.66500 Y-0.65000
X0.66500 Y-0.65200
X0.66400 Y-0.65200
X0.66400 Y-0.65300
X0.66300 Y-0.65300
X0.66300 Y-0.65400
X0.66200 Y-0.65400
X0.66200 Y-0.65500
X0.66100 Y-0.65500
X0.66100 Y-0.65600
X0.66000 Y-0.65600
X0.66000 Y-0.65700
X0.65900 Y-0.65700
X0.65900 Y-0.65800
X0.65800 Y-0.65800
X0.65800 Y-0.65900
X0.65700 Y-0.65900
X0.65700 Y-0.66000
X0.65600 Y-0.66000
X0.65600 Y-0.66100
X0.65500 Y-0.66100
X0.65500 Y-0.66200
X0.65400 Y-0.66200
X0.65400 Y-0.66300
X0.65300 Y-0.66300
X0.65300 Y-0.66400
X0.65200 Y-0.66400
X0.65200 Y-0.66500
X0.65100 Y-0.66500
X0.65100 Y-0.66600
X0.65000 Y-0.66600
X0.65000 Y-0.66700
X0.64900 Y-0.66700
X0.64900 Y-0.66800
X0.64800 Y-0.66800
X0.64800 Y-0.66900
X0.64700 Y-0.66900
X0.64700 Y-0.67000
X0.64600 Y-0.67000
X0.64600 Y-0.67100
X0.64500 Y-0.67100
X0.64500 Y-0.67200
X0.64400 Y-0.67200
X0.64400 Y-0.67300
X0.64300 Y-0.67300
X0.64300 Y-0.67400
X0.64200 Y-0.67400
X0.64200 Y-0.67500
X0.64100 Y-0.67500
X0.64100 Y-0.67600
X0.64000 Y-0.67600
X0.64000 Y-0.67700
X0.63900 Y-0.67700
X0.63900 Y-0.67800
X0.63800 Y-0.67800
X0.63800 Y-0.67900
X0.63700 Y-0.67900
X0.63700 Y-0.68000
X0.63600 Y-0.68000
X0.63600 Y-0.68100
X0.63500 Y-0.68100
X0.63500 Y-0.68200
X0.63400 Y-0.68200
X0.63400 Y-0.68300
X0.63300 Y-0.68300
X0.63300 Y-0.68400
X0.63200 Y-0.68400
X0.63200 Y-0.68500
X0.63100 Y-0.68500
X0.63100 Y-0.68600
X0.63000 Y-0.68600
X0.63000 Y-0.68700
X0.62900 Y-0.68700
X0.62900 Y-0.68800
X0.62800 Y-0.68800
X0.62800 Y-0.68900
X0.62700 Y-0.68900
X0.62700 Y-0.69000
X0.62600 Y-0.69000
X0.62600 Y-0.69100
X0.62500 Y-0.69100
X0.62500 Y-0.69200
X0.62400 Y-0.69200
X0.62400 Y-0.69300
X0.62300 Y-0.69300
X0.62300 Y-0.69400
X0.62200 Y-0.69400
X0.62200 Y-0.69500
X0.62100 Y-0.69500
X0.62100 Y-0.69600
X0.62000 Y-0.69600
X0.62000 Y-0.69700
X0.61900 Y-0.69700
X0.61900 Y-0.69800
X0.61800 Y-0.69800
X0.61800 Y-0.69900
X0.61700 Y-0.69900
X0.61700 Y-0.70000
X0.61600 Y-0.70000
X0.61600 Y-0.70100
X0.61500 Y-0.70100
X0.61500 Y-0.70200
X0.61400 Y-0.70200
X0.61400 Y-0.70300
X0.61300 Y-0.70300
X0.61300 Y-0.70400
X0.61200 Y-0.70400
X0.61200 Y-0.70500
X0.61100 Y-0.70500
X0.61100 Y-0.70600
X0.61000 Y-0.70600
X0.61000 Y-0.70700
X0.60900 Y-0.70700
X0.60900 Y-0.70800
X0.60800 Y-0.70800
X0.60800 Y-0.70900
X0.60700 Y-0.70900
X0.60700 Y-0.71000
X0.60600 Y-0.71000
X0.60600 Y-0.71100
X0.60500 Y-0.71100
X0.60500 Y-0.71200
X0.60400 Y-0.71200
X0.60400 Y-0.71300
X0.60300 Y-0.71300
X0.60300 Y-0.71400
X0.60200 Y-0.71400
X0.60200 Y-0.71500
X0.60100 Y-0.71500
X0.60100 Y-0.71600
X0.60000 Y-0.71600
X0.60000 Y-0.71700
X0.59900 Y-0.71700
X0.59900 Y-0.71800
X0.59800 Y-0.71800
X0.59800 Y-0.71900
X0.59700 Y-0.71900
X0.59700 Y-0.72000
X0.59600 Y-0.72000
X0.59600 Y-0.72100
X0.59400 Y-0.72100
X0.59400 Y-0.72200
X0.59200 Y-0.72200
X0.59200 Y-0.72300
X0.59100 Y-0.72300
X0.59100 Y-0.72400
X0.58900 Y-0.72400
X0.58900 Y-0.72500
X0.58700 Y-0.72500
X0.58700 Y-0.72600
X0.58300 Y-0.72600
X0.58300 Y-0.72700
X0.57900 Y-0.72700
X0.57900 Y-0.72800
X0.51500 Y-0.72800
X0.51500 Y-0.72900
X0.51300 Y-0.72900
X0.51300 Y-0.73000
X0.51200 Y-0.73000
X0.51200 Y-0.73100
X0.51100 Y-0.73100
X0.51100 Y-0.73200
X0.51000 Y-0.73200
X0.51000 Y-0.73300
X0.50900 Y-0.73300
X0.50900 Y-0.73400
X0.50800 Y-0.73400
X0.50800 Y-0.73500
X0.50700 Y-0.73500
X0.50700 Y-0.73600
X0.50600 Y-0.73600
X0.50600 Y-0.73700
X0.50500 Y-0.73700
X0.50500 Y-0.73800
X0.50400 Y-0.73800
X0.50400 Y-0.73900
X0.50300 Y-0.73900
X0.50300 Y-0.74000
X0.50200 Y-0.74000
X0.50200 Y-0.74100
X0.50100 Y-0.74100
X0.50100 Y-0.74200
X0.50000 Y-0.74200
X0.50000 Y-0.74300
X0.49900 Y-0.74300
X0.49900 Y-0.74400
X0.49800 Y-0.74400
X0.49800 Y-0.74500
X0.49700 Y-0.74500
X0.49700 Y-0.74600
X0.49600 Y-0.74600
X0.49600 Y-0.74700
X0.49500 Y-0.74700
X0.49500 Y-0.74800
X0.49400 Y-0.74800
X0.49400 Y-0.74900
X0.49300 Y-0.74900
X0.49300 Y-0.75000
X0.49200 Y-0.75000
X0.49200 Y-0.75100
X0.49100 Y-0.75100
X0.49100 Y-0.75200
X0.49000 Y-0.75200
X0.49000 Y-0.75300
X0.48900 Y-0.75300
X0.48900 Y-0.75400
X0.48800 Y-0.75400
X0.48800 Y-0.75500
X0.48700 Y-0.75500
X0.48700 Y-0.75600
X0.48600 Y-0.75600
X0.48600 Y-0.75700
X0.48500 Y-0.75700
X0.48500 Y-0.75800
X0.48400 Y-0.75800
X0.48400 Y-0.75900
X0.48300 Y-0.75900
X0.48300 Y-0.76000
X0.48200 Y-0.76000
X0.48200 Y-0.76100
X0.48100 Y-0.76100
X0.48100 Y-0.76200
X0.48000 Y-0.76200
X0.48000 Y-0.76300
X0.47900 Y-0.76300
X0.47900 Y-0.76400
X0.47800 Y-0.76400
X0.47800 Y-0.76500
X0.47700 Y-0.76500
X0.47700 Y-0.76600
X0.47600 Y-0.76600
X0.47600 Y-0.76700
X0.47500 Y-0.76700
X0.47500 Y-0.76800
X0.47400 Y-0.76800
X0.47400 Y-0.76900
X0.47300 Y-0.76900
X0.47300 Y-0.77000
X0.47200 Y-0.77000
X0.47200 Y-0.77100
X0.47100 Y-0.77100
X0.47100 Y-0.77200
X0.47000 Y-0.77200
X0.47000 Y-0.77300
X0.46900 Y-0.77300
X0.46900 Y-0.77400
X0.46800 Y-0.77400
X0.46800 Y-0.77500
X0.46700 Y-0.77500
X0.46700 Y-0.77600
X0.46600 Y-0.77600
X0.46600 Y-0.77700
X0.46500 Y-0.77700
X0.46500 Y-0.77800
X0.46400 Y-0.77800
X0.46400 Y-0.77900
X0.46300 Y-0.77900
X0.46300 Y-0.78000
X0.46200 Y-0.78000
X0.46200 Y-0.78100
X0.46100 Y-0.78100
X0.46100 Y-0.78200
X0.46000 Y-0.78200
X0.46000 Y-0.78300
X0.45900 Y-0.78300
X0.45900 Y-0.78400
X0.45800 Y-0.78400
X0.45800 Y-0.78500
X0.45700 Y-0.78500
X0.45700 Y-0.78600
X0.45600 Y-0.78600
X0.45600 Y-0.78700
X0.45500 Y-0.78700
X0.45500 Y-0.78800
X0.45400 Y-0.78800
X0.45400 Y-0.78900
X0.45300 Y-0.78900
X0.45300 Y-0.79000
X0.45200 Y-0.79000
X0.45200 Y-0.79100
X0.45100 Y-0.79100
X0.45100 Y-0.79200
X0.45000 Y-0.79200
X0.45000 Y-0.79300
X0.44900 Y-0.79300
X0.44900 Y-0.79400
X0.44800 Y-0.79400
X0.44800 Y-0.79500
X0.44700 Y-0.79500
X0.44700 Y-0.79600
X0.44600 Y-0.79600
X0.44600 Y-0.79700
X0.44500 Y-0.79700
X0.44500 Y-0.79800
X0.44400 Y-0.79800
X0.44400 Y-0.79900
X0.44300 Y-0.79900
X0.44300 Y-0.80000
X0.44200 Y-0.80000
X0.44200 Y-0.80100
X0.44100 Y-0.80100
X0.44100 Y-0.80200
X0.44000 Y-0.80200
X0.44000 Y-0.80300
X0.43900 Y-0.80300
X0.43900 Y-0.80400
X0.43800 Y-0.80400
X0.43800 Y-0.80500
X0.43700 Y-0.80500
X0.43700 Y-0.80600
X0.43600 Y-0.80600
X0.43600 Y-0.80700
X0.43500 Y-0.80700
X0.43500 Y-0.80800
X0.43400 Y-0.80800
X0.43400 Y-0.80900
X0.43300 Y-0.80900
X0.43300 Y-0.81000
X0.43200 Y-0.81000
X0.43200 Y-0.81100
X0.43100 Y-0.81100
X0.43100 Y-0.81200
X0.43000 Y-0.81200
X0.43000 Y-0.81500
X0.42900 Y-0.81500
X0.42900 Y-0.82800
X0.43000 Y-0.82800
X0.43000 Y-0.83000
X0.43100 Y-0.83000
X0.43100 Y-0.83100
X0.43200 Y-0.83100
X0.43200 Y-0.83200
X0.70400 Y-0.83200
X0.70400 Y-0.83100
X0.70500 Y-0.83100
X0.70500 Y-0.83000
X0.70600 Y-0.83000
X0.70600 Y-0.82800
X0.70700 Y-0.82800
X0.70700 Y-0.68100
X0.70900 Y-0.68100
X0.70900 Y-0.68000
X0.71000 Y-0.68000
X0.71000 Y-0.67900
X0.71200 Y-0.67900
X0.71200 Y-0.67800
X0.71300 Y-0.67800
X0.71300 Y-0.67700
X0.71500 Y-0.67700
X0.71500 Y-0.67600
X0.71600 Y-0.67600
X0.71600 Y-0.67500
X0.71800 Y-0.67500
X0.71800 Y-0.67400
X0.71900 Y-0.67400
X0.71900 Y-0.67300
X0.72100 Y-0.67300
X0.72100 Y-0.67200
X0.72200 Y-0.67200
X0.72200 Y-0.67100
X0.72400 Y-0.67100
X0.72400 Y-0.67000
X0.72500 Y-0.67000
X0.72500 Y-0.66900
X0.72700 Y-0.66900
X0.72700 Y-0.66800
X0.72800 Y-0.66800
X0.72800 Y-0.66700
X0.73000 Y-0.66700
X0.73000 Y-0.66600
X0.73100 Y-0.66600
X0.73100 Y-0.66500
X0.73300 Y-0.66500
X0.73300 Y-0.66400
X0.73400 Y-0.66400
X0.73400 Y-0.66300
X0.73600 Y-0.66300
X0.73600 Y-0.66200
X0.73700 Y-0.66200
X0.73700 Y-0.66100
X0.73900 Y-0.66100
X0.73900 Y-0.66000
X0.74000 Y-0.66000
X0.74000 Y-0.65900
X0.74200 Y-0.65900
X0.74200 Y-0.65800
X0.74300 Y-0.65800
X0.74300 Y-0.65700
X0.74500 Y-0.65700
X0.74500 Y-0.65600
X0.74600 Y-0.65600
X0.74600 Y-0.65500
X0.74700 Y-0.65500
X0.74700 Y-0.65400
X0.74900 Y-0.65400
X0.74900 Y-0.65300
X0.75000 Y-0.65300
X0.75000 Y-0.65200
X0.75200 Y-0.65200
X0.75200 Y-0.65100
X0.75300 Y-0.65100
X0.75300 Y-0.65000
X0.75500 Y-0.65000
X0.75500 Y-0.64900
X0.75600 Y-0.64900
X0.75600 Y-0.64800
X0.75800 Y-0.64800
X0.75800 Y-0.64700
X0.75900 Y-0.64700
X0.75900 Y-0.64600
X0.76100 Y-0.64600
X0.76100 Y-0.64500
X0.76200 Y-0.64500
X0.76200 Y-0.64400
X0.76400 Y-0.64400
X0.76400 Y-0.64300
X0.76500 Y-0.64300
X0.76500 Y-0.64200
X0.76700 Y-0.64200
X0.76700 Y-0.64100
X0.76800 Y-0.64100
X0.76800 Y-0.64000
X0.77000 Y-0.64000
X0.77000 Y-0.63900
X0.77100 Y-0.63900
X0.77100 Y-0.63800
X0.77300 Y-0.63800
X0.77300 Y-0.63700
X0.77400 Y-0.63700
X0.77400 Y-0.63600
X0.77600 Y-0.63600
X0.77600 Y-0.63500
X0.77700 Y-0.63500
X0.77700 Y-0.63400
X0.77900 Y-0.63400
X0.77900 Y-0.63300
X0.78000 Y-0.63300
X0.78000 Y-0.63200
X0.78200 Y-0.63200
X0.78200 Y-0.63100
X0.88800 Y-0.63100
X0.88800 Y-0.63000
X0.88900 Y-0.63000
X0.88900 Y-0.62900
X0.89000 Y-0.62900
X0.89000 Y-0.62700
X0.89100 Y-0.62700
X0.89100 Y-0.24600
X0.89000 Y-0.24600
X0.89000 Y-0.24400
X0.88900 Y-0.24400
X0.88900 Y-0.24300
X0.88800 Y-0.24300
X0.88800 Y-0.24200
X0.72400 Y-0.24200
X0.72400 Y-0.24000
X0.72300 Y-0.24000
X0.72300 Y-0.23800
X0.72200 Y-0.23800
X0.72200 Y-0.23700
X0.72100 Y-0.23700
X0.72100 Y-0.23500
X0.72000 Y-0.23500
X0.72000 Y-0.23400
X0.71900 Y-0.23400
X0.71900 Y-0.23200
X0.71800 Y-0.23200
X0.71800 Y-0.23000
X0.71700 Y-0.23000
X0.71700 Y-0.22900
X0.71600 Y-0.22900
X0.71600 Y-0.22700
X0.71500 Y-0.22700
X0.71500 Y-0.22600
X0.71400 Y-0.22600
X0.71400 Y-0.22400
X0.71300 Y-0.22400
X0.71300 Y-0.22200
X0.71200 Y-0.22200
X0.71200 Y-0.22100
X0.71100 Y-0.22100
X0.71100 Y-0.21900
X0.71000 Y-0.21900
X0.71000 Y-0.21800
X0.70900 Y-0.21800
X0.70900 Y-0.21600
X0.70800 Y-0.21600
X0.70800 Y-0.21400
X0.70700 Y-0.21400
X0.70700 Y-0.21300
X0.70600 Y-0.21300
X0.70600 Y-0.21100
X0.70500 Y-0.21100
X0.70500 Y-0.21000
X0.70400 Y-0.21000
X0.70400 Y-0.20800
X0.70300 Y-0.20800
X0.70300 Y-0.20600
X0.70200 Y-0.20600
X0.70200 Y-0.20500
X0.70100 Y-0.20500
X0.70100 Y-0.20400
X0.70000 Y-0.20400
X0.70000 Y-0.20300
X0.68300 Y-0.20300
X0.68300 Y-0.20400
X0.68200 Y-0.20400
X0.68200 Y-0.20600
X0.68100 Y-0.20600
X0.68100 Y-0.23200
X0.67300 Y-0.23200
X0.67300 Y-0.21200
X0.67200 Y-0.21200
X0.67200 Y-0.20600
X0.67100 Y-0.20600
X0.67100 Y-0.20100
X0.67000 Y-0.20100
X0.67000 Y-0.19800
X0.66900 Y-0.19800
X0.66900 Y-0.19700
X0.66800 Y-0.19700
X0.66800 Y-0.19600
X0.66700 Y-0.19600
X0.66700 Y-0.19400
X0.66600 Y-0.19400
X0.66600 Y-0.19300
X0.66500 Y-0.19300
X0.66500 Y-0.19200
X0.66400 Y-0.19200
X0.66400 Y-0.19000
X0.66200 Y-0.19000
X0.66200 Y-0.18900
X0.66100 Y-0.18900
X0.66100 Y-0.18800
X0.65900 Y-0.18800
X0.65900 Y-0.18700
X0.65700 Y-0.18700
X0.65700 Y-0.18600
X0.65600 Y-0.18600
X0.65600 Y-0.18500
X0.65400 Y-0.18500
X0.65400 Y-0.18400
X0.65300 Y-0.18400
X0.65300 Y-0.18000
X0.65600 Y-0.18000
X0.65600 Y-0.18100
X0.65900 Y-0.18100
X0.65900 Y-0.18200
X0.67200 Y-0.18200
X0.67200 Y-0.18100
X0.67500 Y-0.18100
X0.67500 Y-0.18000
X0.67600 Y-0.18000
X0.67600 Y-0.17800
X0.67700 Y-0.17800
X0.67700 Y-0.16400
X0.67600 Y-0.16400
X0.67600 Y-0.16200
X0.67500 Y-0.16200
X0.67500 Y-0.16000
X0.67400 Y-0.16000
X0.67400 Y-0.15900
X0.67300 Y-0.15900
X0.67300 Y-0.15700
X0.67200 Y-0.15700
X0.67200 Y-0.15500
X0.67100 Y-0.15500
X0.67100 Y-0.05200
X0.67000 Y-0.05200
X0.67000 Y-0.05000
X0.66900 Y-0.05000
X0.66900 Y-0.04900
X0.66800 Y-0.04900
X0.66800 Y-0.04800
X0.26100 Y-0.04800
X0.26100 Y-0.04900
X0.26000 Y-0.04900
X0.26000 Y-0.05000
X0.25900 Y-0.05000
X0.25900 Y-0.05200
X0.25800 Y-0.05200
X0.25800 Y-0.05400
G04 P0 ( dwell for no time -- G64 should not smooth over this point )
G00 Z0.10000 ( retract )

G00 X0.77100 Y-0.05600 ( rapid move to begin. )
G01 Z-0.00500 F3.50000 ( plunge. )
G04 P0 ( dwell for no time -- G64 should not smooth over this point )
X0.77100 Y-0.05600
X0.76800 Y-0.05600
X0.76800 Y-0.05700
X0.76700 Y-0.05700
X0.76700 Y-0.05800
X0.76500 Y-0.05800
X0.76500 Y-0.05900
X0.76300 Y-0.05900
X0.76300 Y-0.06000
X0.76100 Y-0.06000
X0.76100 Y-0.06100
X0.75900 Y-0.06100
X0.75900 Y-0.06200
X0.75700 Y-0.06200
X0.75700 Y-0.06300
X0.75600 Y-0.06300
X0.75600 Y-0.06400
X0.75400 Y-0.06400
X0.75400 Y-0.06500
X0.75300 Y-0.06500
X0.75300 Y-0.06600
X0.75200 Y-0.06600
X0.75200 Y-0.06700
X0.75100 Y-0.06700
X0.75100 Y-0.06800
X0.74900 Y-0.06800
X0.74900 Y-0.06900
X0.74800 Y-0.06900
X0.74800 Y-0.07000
X0.74700 Y-0.07000
X0.74700 Y-0.07100
X0.74600 Y-0.07100
X0.74600 Y-0.07200
X0.74500 Y-0.07200
X0.74500 Y-0.07300
X0.74300 Y-0.07300
X0.74300 Y-0.07500
X0.74200 Y-0.07500
X0.74200 Y-0.07600
X0.74100 Y-0.07600
X0.74100 Y-0.07700
X0.74000 Y-0.07700
X0.74000 Y-0.07800
X0.73900 Y-0.07800
X0.73900 Y-0.07900
X0.73800 Y-0.07900
X0.73800 Y-0.08100
X0.73700 Y-0.08100
X0.73700 Y-0.08200
X0.73600 Y-0.08200
X0.73600 Y-0.08300
X0.73500 Y-0.08300
X0.73500 Y-0.08400
X0.73400 Y-0.08400
X0.73400 Y-0.08600
X0.73300 Y-0.08600
X0.73300 Y-0.08700
X0.73200 Y-0.08700
X0.73200 Y-0.08900
X0.73100 Y-0.08900
X0.73100 Y-0.09100
X0.73000 Y-0.09100
X0.73000 Y-0.09300
X0.72900 Y-0.09300
X0.72900 Y-0.09500
X0.72800 Y-0.09500
X0.72800 Y-0.09700
X0.72700 Y-0.09700
X0.72700 Y-0.09800
X0.72600 Y-0.09800
X0.72600 Y-0.10100
X0.72500 Y-0.10100
X0.72500 Y-0.10500
X0.72400 Y-0.10500
X0.72400 Y-0.10800
X0.72300 Y-0.10800
X0.72300 Y-0.11100
X0.72200 Y-0.11100
X0.72200 Y-0.11500
X0.72100 Y-0.11500
X0.72100 Y-0.12500
X0.72000 Y-0.12500
X0.72000 Y-0.14600
X0.72100 Y-0.14600
X0.72100 Y-0.15600
X0.72200 Y-0.15600
X0.72200 Y-0.16000
X0.72300 Y-0.16000
X0.72300 Y-0.16300
X0.72400 Y-0.16300
X0.72400 Y-0.16600
X0.72500 Y-0.16600
X0.72500 Y-0.17000
X0.72600 Y-0.17000
X0.72600 Y-0.17300
X0.72700 Y-0.17300
X0.72700 Y-0.17400
X0.72800 Y-0.17400
X0.72800 Y-0.17600
X0.72900 Y-0.17600
X0.72900 Y-0.17800
X0.73000 Y-0.17800
X0.73000 Y-0.18000
X0.73100 Y-0.18000
X0.73100 Y-0.18200
X0.73200 Y-0.18200
X0.73200 Y-0.18400
X0.73300 Y-0.18400
X0.73300 Y-0.18500
X0.73400 Y-0.18500
X0.73400 Y-0.18700
X0.73500 Y-0.18700
X0.73500 Y-0.18800
X0.73600 Y-0.18800
X0.73600 Y-0.18900
X0.73700 Y-0.18900
X0.73700 Y-0.19000
X0.73800 Y-0.19000
X0.73800 Y-0.19200
X0.73900 Y-0.19200
X0.73900 Y-0.19300
X0.74000 Y-0.19300
X0.74000 Y-0.19400
X0.74100 Y-0.19400
X0.74100 Y-0.19500
X0.74200 Y-0.19500
X0.74200 Y-0.19600
X0.74300 Y-0.19600
X0.74300 Y-0.19800
X0.74500 Y-0.19800
X0.74500 Y-0.19900
X0.74600 Y-0.19900
X0.74600 Y-0.20000
X0.74700 Y-0.20000
X0.74700 Y-0.20100
X0.74800 Y-0.20100
X0.74800 Y-0.20200
X0.74900 Y-0.20200
X0.74900 Y-0.20300
X0.75100 Y-0.20300
X0.75100 Y-0.20400
X0.75200 Y-0.20400
X0.75200 Y-0.20500
X0.75300 Y-0.20500
X0.75300 Y-0.20600
X0.75400 Y-0.20600
X0.75400 Y-0.20700
X0.75600 Y-0.20700
X0.75600 Y-0.20800
X0.75700 Y-0.20800
X0.75700 Y-0.20900
X0.75900 Y-0.20900
X0.75900 Y-0.21000
X0.76100 Y-0.21000
X0.76100 Y-0.21100
X0.76300 Y-0.21100
X0.76300 Y-0.21200
X0.76500 Y-0.21200
X0.76500 Y-0.21300
X0.76700 Y-0.21300
X0.76700 Y-0.21400
X0.76800 Y-0.21400
X0.76800 Y-0.21500
X0.77100 Y-0.21500
X0.77100 Y-0.21600
X0.77500 Y-0.21600
X0.77500 Y-0.21700
X0.77800 Y-0.21700
X0.77800 Y-0.21800
X0.78100 Y-0.21800
X0.78100 Y-0.21900
X0.78500 Y-0.21900
X0.78500 Y-0.22000
X0.79500 Y-0.22000
X0.79500 Y-0.22100
X0.81600 Y-0.22100
X0.81600 Y-0.22000
X0.82600 Y-0.22000
X0.82600 Y-0.21900
X0.83000 Y-0.21900
X0.83000 Y-0.21800
X0.83300 Y-0.21800
X0.83300 Y-0.21700
X0.83600 Y-0.21700
X0.83600 Y-0.21600
X0.84000 Y-0.21600
X0.84000 Y-0.21500
X0.84300 Y-0.21500
X0.84300 Y-0.21400
X0.84400 Y-0.21400
X0.84400 Y-0.21300
X0.84600 Y-0.21300
X0.84600 Y-0.21200
X0.84800 Y-0.21200
X0.84800 Y-0.21100
X0.85000 Y-0.21100
X0.85000 Y-0.21000
X0.85200 Y-0.21000
X0.85200 Y-0.20900
X0.85400 Y-0.20900
X0.85400 Y-0.20800
X0.85500 Y-0.20800
X0.85500 Y-0.20700
X0.85700 Y-0.20700
X0.85700 Y-0.20600
X0.85800 Y-0.20600
X0.85800 Y-0.20500
X0.85900 Y-0.20500
X0.85900 Y-0.20400
X0.86000 Y-0.20400
X0.86000 Y-0.20300
X0.86200 Y-0.20300
X0.86200 Y-0.20200
X0.86300 Y-0.20200
X0.86300 Y-0.20100
X0.86400 Y-0.20100
X0.86400 Y-0.20000
X0.86500 Y-0.20000
X0.86500 Y-0.19900
X0.86600 Y-0.19900
X0.86600 Y-0.19800
X0.86800 Y-0.19800
X0.86800 Y-0.19600
X0.86900 Y-0.19600
X0.86900 Y-0.19500
X0.87000 Y-0.19500
X0.87000 Y-0.19400
X0.87100 Y-0.19400
X0.87100 Y-0.19300
X0.87200 Y-0.19300
X0.87200 Y-0.19200
X0.87300 Y-0.19200
X0.87300 Y-0.19000
X0.87400 Y-0.19000
X0.87400 Y-0.18900
X0.87500 Y-0.18900
X0.87500 Y-0.18800
X0.87600 Y-0.18800
X0.87600 Y-0.18700
X0.87700 Y-0.18700
X0.87700 Y-0.18500
X0.87800 Y-0.18500
X0.87800 Y-0.18400
X0.87900 Y-0.18400
X0.87900 Y-0.18200
X0.88000 Y-0.18200
X0.88000 Y-0.18000
X0.88100 Y-0.18000
X0.88100 Y-0.17800
X0.88200 Y-0.17800
X0.88200 Y-0.17600
X0.88300 Y-0.17600
X0.88300 Y-0.17400
X0.88400 Y-0.17400
X0.88400 Y-0.17300
X0.88500 Y-0.17300
X0.88500 Y-0.17000
X0.88600 Y-0.17000
X0.88600 Y-0.16600
X0.88700 Y-0.16600
X0.88700 Y-0.16300
X0.88800 Y-0.16300
X0.88800 Y-0.16000
X0.88900 Y-0.16000
X0.88900 Y-0.15600
X0.89000 Y-0.15600
X0.89000 Y-0.14600
X0.89100 Y-0.14600
X0.89100 Y-0.12500
X0.89000 Y-0.12500
X0.89000 Y-0.11500
X0.88900 Y-0.11500
X0.88900 Y-0.11100
X0.88800 Y-0.11100
X0.88800 Y-0.10800
X0.88700 Y-0.10800
X0.88700 Y-0.10500
X0.88600 Y-0.10500
X0.88600 Y-0.10100
X0.88500 Y-0.10100
X0.88500 Y-0.09800
X0.88400 Y-0.09800
X0.88400 Y-0.09700
X0.88300 Y-0.09700
X0.88300 Y-0.09500
X0.88200 Y-0.09500
X0.88200 Y-0.09300
X0.88100 Y-0.09300
X0.88100 Y-0.09100
X0.88000 Y-0.09100
X0.88000 Y-0.08900
X0.87900 Y-0.08900
X0.87900 Y-0.08700
X0.87800 Y-0.08700
X0.87800 Y-0.08600
X0.87700 Y-0.08600
X0.87700 Y-0.08400
X0.87600 Y-0.08400
X0.87600 Y-0.08300
X0.87500 Y-0.08300
X0.87500 Y-0.08200
X0.87400 Y-0.08200
X0.87400 Y-0.08100
X0.87300 Y-0.08100
X0.87300 Y-0.07900
X0.87200 Y-0.07900
X0.87200 Y-0.07800
X0.87100 Y-0.07800
X0.87100 Y-0.07700
X0.87000 Y-0.07700
X0.87000 Y-0.07600
X0.86900 Y-0.07600
X0.86900 Y-0.07500
X0.86800 Y-0.07500
X0.86800 Y-0.07300
X0.86600 Y-0.07300
X0.86600 Y-0.07200
X0.86500 Y-0.07200
X0.86500 Y-0.07100
X0.86400 Y-0.07100
X0.86400 Y-0.07000
X0.86300 Y-0.07000
X0.86300 Y-0.06900
X0.86200 Y-0.06900
X0.86200 Y-0.06800
X0.86000 Y-0.06800
X0.86000 Y-0.06700
X0.85900 Y-0.06700
X0.85900 Y-0.06600
X0.85800 Y-0.06600
X0.85800 Y-0.06500
X0.85700 Y-0.06500
X0.85700 Y-0.06400
X0.85500 Y-0.06400
X0.85500 Y-0.06300
X0.85400 Y-0.06300
X0.85400 Y-0.06200
X0.85200 Y-0.06200
X0.85200 Y-0.06100
X0.85000 Y-0.06100
X0.85000 Y-0.06000
X0.84800 Y-0.06000
X0.84800 Y-0.05900
X0.84600 Y-0.05900
X0.84600 Y-0.05800
X0.84400 Y-0.05800
X0.84400 Y-0.05700
X0.84300 Y-0.05700
X0.84300 Y-0.05600
X0.84000 Y-0.05600
X0.84000 Y-0.05500
X0.83600 Y-0.05500
X0.83600 Y-0.05400
X0.83300 Y-0.05400
X0.83300 Y-0.05300
X0.83000 Y-0.05300
X0.83000 Y-0.05200
X0.82600 Y-0.05200
X0.82600 Y-0.05100
X0.81600 Y-0.05100
X0.81600 Y-0.05000
X0.79500 Y-0.05000
X0.79500 Y-0.05100
X0.78500 Y-0.05100
X0.78500 Y-0.05200
X0.78100 Y-0.05200
X0.78100 Y-0.05300
X0.77800 Y-0.05300
X0.77800 Y-0.05400
X0.77500 Y-0.05400
X0.77500 Y-0.05500
X0.77100 Y-0.05500
X0.77100 Y-0.05600
G04 P0 ( dwell for no time -- G64 should not smooth over this point )
G00 Z0.10000 ( retract )

G00 X0.10700 Y-0.05600 ( rapid move to begin. )
G01 Z-0.00500 F3.50000 ( plunge. )
G04 P0 ( dwell for no time -- G64 should not smooth over this point )
X0.10700 Y-0.05600
X0.10400 Y-0.05600
X0.10400 Y-0.05700
X0.10300 Y-0.05700
X0.10300 Y-0.05800
X0.10100 Y-0.05800
X0.10100 Y-0.05900
X0.09900 Y-0.05900
X0.09900 Y-0.06000
X0.09700 Y-0.06000
X0.09700 Y-0.06100
X0.09500 Y-0.06100
X0.09500 Y-0.06200
X0.09300 Y-0.06200
X0.09300 Y-0.06300
X0.09200 Y-0.06300
X0.09200 Y-0.06400
X0.09000 Y-0.06400
X0.09000 Y-0.06500
X0.08900 Y-0.06500
X0.08900 Y-0.06600
X0.08800 Y-0.06600
X0.08800 Y-0.06700
X0.08700 Y-0.06700
X0.08700 Y-0.06800
X0.08500 Y-0.06800
X0.08500 Y-0.06900
X0.08400 Y-0.06900
X0.08400 Y-0.07000
X0.08300 Y-0.07000
X0.08300 Y-0.07100
X0.08200 Y-0.07100
X0.08200 Y-0.07200
X0.08100 Y-0.07200
X0.08100 Y-0.07300
X0.07900 Y-0.07300
X0.07900 Y-0.07500
X0.07800 Y-0.07500
X0.07800 Y-0.07600
X0.07700 Y-0.07600
X0.07700 Y-0.07700
X0.07600 Y-0.07700
X0.07600 Y-0.07800
X0.07500 Y-0.07800
X0.07500 Y-0.07900
X0.07400 Y-0.07900
X0.07400 Y-0.08100
X0.07300 Y-0.08100
X0.07300 Y-0.08200
X0.07200 Y-0.08200
X0.07200 Y-0.08300
X0.07100 Y-0.08300
X0.07100 Y-0.08400
X0.07000 Y-0.08400
X0.07000 Y-0.08600
X0.06900 Y-0.08600
X0.06900 Y-0.08700
X0.06800 Y-0.08700
X0.06800 Y-0.08900
X0.06700 Y-0.08900
X0.06700 Y-0.09100
X0.06600 Y-0.09100
X0.06600 Y-0.09300
X0.06500 Y-0.09300
X0.06500 Y-0.09500
X0.06400 Y-0.09500
X0.06400 Y-0.09700
X0.06300 Y-0.09700
X0.06300 Y-0.09800
X0.06200 Y-0.09800
X0.06200 Y-0.10100
X0.06100 Y-0.10100
X0.06100 Y-0.10500
X0.06000 Y-0.10500
X0.06000 Y-0.10800
X0.05900 Y-0.10800
X0.05900 Y-0.11100
X0.05800 Y-0.11100
X0.05800 Y-0.11500
X0.05700 Y-0.11500
X0.05700 Y-0.12500
X0.05600 Y-0.12500
X0.05600 Y-0.14600
X0.05700 Y-0.14600
X0.05700 Y-0.15600
X0.05800 Y-0.15600
X0.05800 Y-0.16000
X0.05900 Y-0.16000
X0.05900 Y-0.16300
X0.06000 Y-0.16300
X0.06000 Y-0.16600
X0.06100 Y-0.16600
X0.06100 Y-0.17000
X0.06200 Y-0.17000
X0.06200 Y-0.17300
X0.06300 Y-0.17300
X0.06300 Y-0.17400
X0.06400 Y-0.17400
X0.06400 Y-0.17600
X0.06500 Y-0.17600
X0.06500 Y-0.17800
X0.06600 Y-0.17800
X0.06600 Y-0.18000
X0.06700 Y-0.18000
X0.06700 Y-0.18200
X0.06800 Y-0.18200
X0.06800 Y-0.18400
X0.06900 Y-0.18400
X0.06900 Y-0.18500
X0.07000 Y-0.18500
X0.07000 Y-0.18700
X0.07100 Y-0.18700
X0.07100 Y-0.18800
X0.07200 Y-0.18800
X0.07200 Y-0.18900
X0.07300 Y-0.18900
X0.07300 Y-0.19000
X0.07400 Y-0.19000
X0.07400 Y-0.19200
X0.07500 Y-0.19200
X0.07500 Y-0.19300
X0.07600 Y-0.19300
X0.07600 Y-0.19400
X0.07700 Y-0.19400
X0.07700 Y-0.19500
X0.07800 Y-0.19500
X0.07800 Y-0.19600
X0.07900 Y-0.19600
X0.07900 Y-0.19800
X0.08100 Y-0.19800
X0.08100 Y-0.19900
X0.08200 Y-0.19900
X0.08200 Y-0.20000
X0.08300 Y-0.20000
X0.08300 Y-0.20100
X0.08400 Y-0.20100
X0.08400 Y-0.20200
X0.08500 Y-0.20200
X0.08500 Y-0.20300
X0.08700 Y-0.20300
X0.08700 Y-0.20400
X0.08800 Y-0.20400
X0.08800 Y-0.20500
X0.08900 Y-0.20500
X0.08900 Y-0.20600
X0.09000 Y-0.20600
X0.09000 Y-0.20700
X0.09200 Y-0.20700
X0.09200 Y-0.20800
X0.09300 Y-0.20800
X0.09300 Y-0.20900
X0.09500 Y-0.20900
X0.09500 Y-0.21000
X0.09700 Y-0.21000
X0.09700 Y-0.21100
X0.09900 Y-0.21100
X0.09900 Y-0.21200
X0.10100 Y-0.21200
X0.10100 Y-0.21300
X0.10300 Y-0.21300
X0.10300 Y-0.21400
X0.10400 Y-0.21400
X0.10400 Y-0.21500
X0.10700 Y-0.21500
X0.10700 Y-0.21600
X0.11100 Y-0.21600
X0.11100 Y-0.21700
X0.11400 Y-0.21700
X0.11400 Y-0.21800
X0.11700 Y-0.21800
X0.11700 Y-0.21900
X0.12100 Y-0.21900
X0.12100 Y-0.22000
X0.13100 Y-0.22000
X0.13100 Y-0.22100
X0.15200 Y-0.22100
X0.15200 Y-0.22000
X0.16200 Y-0.22000
X0.16200 Y-0.21900
X0.16600 Y-0.21900
X0.16600 Y-0.21800
X0.16900 Y-0.21800
X0.16900 Y-0.21700
X0.17200 Y-0.21700
X0.17200 Y-0.21600
X0.17600 Y-0.21600
X0.17600 Y-0.21500
X0.17900 Y-0.21500
X0.17900 Y-0.21400
X0.18000 Y-0.21400
X0.18000 Y-0.21300
X0.18200 Y-0.21300
X0.18200 Y-0.21200
X0.18400 Y-0.21200
X0.18400 Y-0.21100
X0.18600 Y-0.21100
X0.18600 Y-0.21000
X0.18800 Y-0.21000
X0.18800 Y-0.20900
X0.19000 Y-0.20900
X0.19000 Y-0.20800
X0.19100 Y-0.20800
X0.19100 Y-0.20700
X0.19300 Y-0.20700
X0.19300 Y-0.20600
X0.19400 Y-0.20600
X0.19400 Y-0.20500
X0.19500 Y-0.20500
X0.19500 Y-0.20400
X0.19600 Y-0.20400
X0.19600 Y-0.20300
X0.19800 Y-0.20300
X0.19800 Y-0.20200
X0.19900 Y-0.20200
X0.19900 Y-0.20100
X0.20000 Y-0.20100
X0.20000 Y-0.20000
X0.20100 Y-0.20000
X0.20100 Y-0.19900
X0.20200 Y-0.19900
X0.20200 Y-0.19800
X0.20400 Y-0.19800
X0.20400 Y-0.19600
X0.20500 Y-0.19600
X0.20500 Y-0.19500
X0.20600 Y-0.19500
X0.20600 Y-0.19400
X0.20700 Y-0.19400
X0.20700 Y-0.19300
X0.20800 Y-0.19300
X0.20800 Y-0.19200
X0.20900 Y-0.19200
X0.20900 Y-0.19000
X0.21000 Y-0.19000
X0.21000 Y-0.18900
X0.21100 Y-0.18900
X0.21100 Y-0.18800
X0.21200 Y-0.18800
X0.21200 Y-0.18700
X0.21300 Y-0.18700
X0.21300 Y-0.18500
X0.21400 Y-0.18500
X0.21400 Y-0.18400
X0.21500 Y-0.18400
X0.21500 Y-0.18200
X0.21600 Y-0.18200
X0.21600 Y-0.18000
X0.21700 Y-0.18000
X0.21700 Y-0.17800
X0.21800 Y-0.17800
X0.21800 Y-0.17600
X0.21900 Y-0.17600
X0.21900 Y-0.17400
X0.22000 Y-0.17400
X0.22000 Y-0.17300
X0.22100 Y-0.17300
X0.22100 Y-0.17000
X0.22200 Y-0.17000
X0.22200 Y-0.16600
X0.22300 Y-0.16600
X0.22300 Y-0.16300
X0.22400 Y-0.16300
X0.22400 Y-0.16000
X0.22500 Y-0.16000
X0.22500 Y-0.15600
X0.22600 Y-0.15600
X0.22600 Y-0.14600
X0.22700 Y-0.14600
X0.22700 Y-0.12500
X0.22600 Y-0.12500
X0.22600 Y-0.11500
X0.22500 Y-0.11500
X0.22500 Y-0.11100
X0.22400 Y-0.11100
X0.22400 Y-0.10800
X0.22300 Y-0.10800
X0.22300 Y-0.10500
X0.22200 Y-0.10500
X0.22200 Y-0.10100
X0.22100 Y-0.10100
X0.22100 Y-0.09800
X0.22000 Y-0.09800
X0.22000 Y-0.09700
X0.21900 Y-0.09700
X0.21900 Y-0.09500
X0.21800 Y-0.09500
X0.21800 Y-0.09300
X0.21700 Y-0.09300
X0.21700 Y-0.09100
X0.21600 Y-0.09100
X0.21600 Y-0.08900
X0.21500 Y-0.08900
X0.21500 Y-0.08700
X0.21400 Y-0.08700
X0.21400 Y-0.08600
X0.21300 Y-0.08600
X0.21300 Y-0.08400
X0.21200 Y-0.08400
X0.21200 Y-0.08300
X0.21100 Y-0.08300
X0.21100 Y-0.08200
X0.21000 Y-0.08200
X0.21000 Y-0.08100
X0.20900 Y-0.08100
X0.20900 Y-0.07900
X0.20800 Y-0.07900
X0.20800 Y-0.07800
X0.20700 Y-0.07800
X0.20700 Y-0.07700
X0.20600 Y-0.07700
X0.20600 Y-0.07600
X0.20500 Y-0.07600
X0.20500 Y-0.07500
X0.20400 Y-0.07500
X0.20400 Y-0.07300
X0.20200 Y-0.07300
X0.20200 Y-0.07200
X0.20100 Y-0.07200
X0.20100 Y-0.07100
X0.20000 Y-0.07100
X0.20000 Y-0.07000
X0.19900 Y-0.07000
X0.19900 Y-0.06900
X0.19800 Y-0.06900
X0.19800 Y-0.06800
X0.19600 Y-0.06800
X0.19600 Y-0.06700
X0.19500 Y-0.06700
X0.19500 Y-0.06600
X0.19400 Y-0.06600
X0.19400 Y-0.06500
X0.19300 Y-0.06500
X0.19300 Y-0.06400
X0.19100 Y-0.06400
X0.19100 Y-0.06300
X0.19000 Y-0.06300
X0.19000 Y-0.06200
X0.18800 Y-0.06200
X0.18800 Y-0.06100
X0.18600 Y-0.06100
X0.18600 Y-0.06000
X0.18400 Y-0.06000
X0.18400 Y-0.05900
X0.18200 Y-0.05900
X0.18200 Y-0.05800
X0.18000 Y-0.05800
X0.18000 Y-0.05700
X0.17900 Y-0.05700
X0.17900 Y-0.05600
X0.17600 Y-0.05600
X0.17600 Y-0.05500
X0.17200 Y-0.05500
X0.17200 Y-0.05400
X0.16900 Y-0.05400
X0.16900 Y-0.05300
X0.16600 Y-0.05300
X0.16600 Y-0.05200
X0.16200 Y-0.05200
X0.16200 Y-0.05100
X0.15200 Y-0.05100
X0.15200 Y-0.05000
X0.13100 Y-0.05000
X0.13100 Y-0.05100
X0.12100 Y-0.05100
X0.12100 Y-0.05200
X0.11700 Y-0.05200
X0.11700 Y-0.05300
X0.11400 Y-0.05300
X0.11400 Y-0.05400
X0.11100 Y-0.05400
X0.11100 Y-0.05500
X0.10700 Y-0.05500
X0.10700 Y-0.05600
G04 P0 ( dwell for no time -- G64 should not smooth over this point )
G00 Z0.10000 ( retract )

G00 X0.51400 Y-0.18900 ( rapid move to begin. )
G01 Z-0.00500 F3.50000 ( plunge. )
G04 P0 ( dwell for no time -- G64 should not smooth over this point )
X0.51400 Y-0.18900
X0.51300 Y-0.18900
X0.51300 Y-0.19000
X0.51100 Y-0.19000
X0.51100 Y-0.19200
X0.51000 Y-0.19200
X0.51000 Y-0.19300
X0.50900 Y-0.19300
X0.50900 Y-0.19400
X0.50800 Y-0.19400
X0.50800 Y-0.19600
X0.50700 Y-0.19600
X0.50700 Y-0.19700
X0.50600 Y-0.19700
X0.50600 Y-0.19900
X0.50500 Y-0.19900
X0.50500 Y-0.20100
X0.50400 Y-0.20100
X0.50400 Y-0.20600
X0.50300 Y-0.20600
X0.50300 Y-0.21200
X0.50200 Y-0.21200
X0.50200 Y-0.28300
X0.50300 Y-0.28300
X0.50300 Y-0.28900
X0.50400 Y-0.28900
X0.50400 Y-0.29400
X0.50500 Y-0.29400
X0.50500 Y-0.29600
X0.50600 Y-0.29600
X0.50600 Y-0.29800
X0.50700 Y-0.29800
X0.50700 Y-0.29900
X0.50800 Y-0.29900
X0.50800 Y-0.30100
X0.50900 Y-0.30100
X0.50900 Y-0.30200
X0.51000 Y-0.30200
X0.51000 Y-0.30300
X0.51100 Y-0.30300
X0.51100 Y-0.30500
X0.51300 Y-0.30500
X0.51300 Y-0.30600
X0.51400 Y-0.30600
X0.51400 Y-0.30700
X0.51600 Y-0.30700
X0.51600 Y-0.30800
X0.51800 Y-0.30800
X0.51800 Y-0.30900
X0.51900 Y-0.30900
X0.51900 Y-0.31000
X0.52100 Y-0.31000
X0.52100 Y-0.31100
X0.52700 Y-0.31100
X0.52700 Y-0.31200
X0.54800 Y-0.31200
X0.54800 Y-0.31100
X0.55400 Y-0.31100
X0.55400 Y-0.31000
X0.55600 Y-0.31000
X0.55600 Y-0.30900
X0.55700 Y-0.30900
X0.55700 Y-0.30800
X0.55900 Y-0.30800
X0.55900 Y-0.30700
X0.56100 Y-0.30700
X0.56100 Y-0.30600
X0.56200 Y-0.30600
X0.56200 Y-0.30500
X0.56400 Y-0.30500
X0.56400 Y-0.30300
X0.56500 Y-0.30300
X0.56500 Y-0.30200
X0.56600 Y-0.30200
X0.56600 Y-0.30100
X0.56700 Y-0.30100
X0.56700 Y-0.29900
X0.56800 Y-0.29900
X0.56800 Y-0.29800
X0.56900 Y-0.29800
X0.56900 Y-0.29600
X0.57000 Y-0.29600
X0.57000 Y-0.29400
X0.57100 Y-0.29400
X0.57100 Y-0.28900
X0.57200 Y-0.28900
X0.57200 Y-0.28300
X0.57300 Y-0.28300
X0.57300 Y-0.21200
X0.57200 Y-0.21200
X0.57200 Y-0.20600
X0.57100 Y-0.20600
X0.57100 Y-0.20100
X0.57000 Y-0.20100
X0.57000 Y-0.19800
X0.56900 Y-0.19800
X0.56900 Y-0.19700
X0.56800 Y-0.19700
X0.56800 Y-0.19600
X0.56700 Y-0.19600
X0.56700 Y-0.19400
X0.56600 Y-0.19400
X0.56600 Y-0.19300
X0.56500 Y-0.19300
X0.56500 Y-0.19200
X0.56400 Y-0.19200
X0.56400 Y-0.19000
X0.56200 Y-0.19000
X0.56200 Y-0.18900
X0.56100 Y-0.18900
X0.56100 Y-0.18800
X0.55900 Y-0.18800
X0.55900 Y-0.18700
X0.55700 Y-0.18700
X0.55700 Y-0.18600
X0.55600 Y-0.18600
X0.55600 Y-0.18500
X0.55400 Y-0.18500
X0.55400 Y-0.18400
X0.54800 Y-0.18400
X0.54800 Y-0.18300
X0.52700 Y-0.18300
X0.52700 Y-0.18400
X0.52100 Y-0.18400
X0.52100 Y-0.18500
X0.51900 Y-0.18500
X0.51900 Y-0.18600
X0.51800 Y-0.18600
X0.51800 Y-0.18700
X0.51600 Y-0.18700
X0.51600 Y-0.18800
X0.51400 Y-0.18800
X0.51400 Y-0.18900
G04 P0 ( dwell for no time -- G64 should not smooth over this point )
G00 Z0.10000 ( retract )

G00 X0.41400 Y-0.18900 ( rapid move to begin. )
G01 Z-0.00500 F3.50000 ( plunge. )
G04 P0 ( dwell for no time -- G64 should not smooth over this point )
X0.41400 Y-0.18900
X0.41300 Y-0.18900
X0.41300 Y-0.19000
X0.41100 Y-0.19000
X0.41100 Y-0.19200
X0.41000 Y-0.19200
X0.41000 Y-0.19300
X0.40900 Y-0.19300
X0.40900 Y-0.19400
X0.40800 Y-0.19400
X0.40800 Y-0.19600
X0.40700 Y-0.19600
X0.40700 Y-0.19700
X0.40600 Y-0.19700
X0.40600 Y-0.19900
X0.40500 Y-0.19900
X0.40500 Y-0.20100
X0.40400 Y-0.20100
X0.40400 Y-0.20600
X0.40300 Y-0.20600
X0.40300 Y-0.21200
X0.40200 Y-0.21200
X0.40200 Y-0.28300
X0.40300 Y-0.28300
X0.40300 Y-0.28900
X0.40400 Y-0.28900
X0.40400 Y-0.29400
X0.40500 Y-0.29400
X0.40500 Y-0.29600
X0.40600 Y-0.29600
X0.40600 Y-0.29800
X0.40700 Y-0.29800
X0.40700 Y-0.29900
X0.40800 Y-0.29900
X0.40800 Y-0.30100
X0.40900 Y-0.30100
X0.40900 Y-0.30200
X0.41000 Y-0.30200
X0.41000 Y-0.30300
X0.41100 Y-0.30300
X0.41100 Y-0.30500
X0.41300 Y-0.30500
X0.41300 Y-0.30600
X0.41400 Y-0.30600
X0.41400 Y-0.30700
X0.41600 Y-0.30700
X0.41600 Y-0.30800
X0.41800 Y-0.30800
X0.41800 Y-0.30900
X0.41900 Y-0.30900
X0.41900 Y-0.31000
X0.42100 Y-0.31000
X0.42100 Y-0.31100
X0.42700 Y-0.31100
X0.42700 Y-0.31200
X0.43600 Y-0.31200
X0.43600 Y-0.49600
X0.43300 Y-0.49600
X0.43300 Y-0.49700
X0.43100 Y-0.49700
X0.43100 Y-0.49800
X0.43000 Y-0.49800
X0.43000 Y-0.49900
X0.42800 Y-0.49900
X0.42800 Y-0.50000
X0.42600 Y-0.50000
X0.42600 Y-0.50100
X0.42500 Y-0.50100
X0.42500 Y-0.50200
X0.42300 Y-0.50200
X0.42300 Y-0.50400
X0.42200 Y-0.50400
X0.42200 Y-0.50500
X0.42100 Y-0.50500
X0.42100 Y-0.50600
X0.42000 Y-0.50600
X0.42000 Y-0.50800
X0.41900 Y-0.50800
X0.41900 Y-0.50900
X0.41800 Y-0.50900
X0.41800 Y-0.51100
X0.41700 Y-0.51100
X0.41700 Y-0.51300
X0.41600 Y-0.51300
X0.41600 Y-0.51800
X0.41500 Y-0.51800
X0.41500 Y-0.52400
X0.41400 Y-0.52400
X0.41400 Y-0.54700
X0.41200 Y-0.54700
X0.41200 Y-0.54800
X0.41000 Y-0.54800
X0.41000 Y-0.54900
X0.40800 Y-0.54900
X0.40800 Y-0.55000
X0.40700 Y-0.55000
X0.40700 Y-0.55100
X0.40600 Y-0.55100
X0.40600 Y-0.55200
X0.40500 Y-0.55200
X0.40500 Y-0.55300
X0.40400 Y-0.55300
X0.40400 Y-0.55400
X0.40300 Y-0.55400
X0.40300 Y-0.55500
X0.40200 Y-0.55500
X0.40200 Y-0.55600
X0.40100 Y-0.55600
X0.40100 Y-0.55700
X0.40000 Y-0.55700
X0.40000 Y-0.55800
X0.39900 Y-0.55800
X0.39900 Y-0.55900
X0.39800 Y-0.55900
X0.39800 Y-0.56000
X0.39700 Y-0.56000
X0.39700 Y-0.56100
X0.39600 Y-0.56100
X0.39600 Y-0.56200
X0.39500 Y-0.56200
X0.39500 Y-0.56300
X0.39400 Y-0.56300
X0.39400 Y-0.56400
X0.39300 Y-0.56400
X0.39300 Y-0.56500
X0.39200 Y-0.56500
X0.39200 Y-0.56600
X0.39100 Y-0.56600
X0.39100 Y-0.56700
X0.39000 Y-0.56700
X0.39000 Y-0.56800
X0.38900 Y-0.56800
X0.38900 Y-0.56900
X0.38800 Y-0.56900
X0.38800 Y-0.57000
X0.38700 Y-0.57000
X0.38700 Y-0.57100
X0.38600 Y-0.57100
X0.38600 Y-0.57200
X0.38500 Y-0.57200
X0.38500 Y-0.57300
X0.38400 Y-0.57300
X0.38400 Y-0.57400
X0.38300 Y-0.57400
X0.38300 Y-0.57500
X0.38200 Y-0.57500
X0.38200 Y-0.57600
X0.38100 Y-0.57600
X0.38100 Y-0.57700
X0.38000 Y-0.57700
X0.38000 Y-0.57800
X0.37900 Y-0.57800
X0.37900 Y-0.57900
X0.37800 Y-0.57900
X0.37800 Y-0.58000
X0.37700 Y-0.58000
X0.37700 Y-0.58100
X0.37600 Y-0.58100
X0.37600 Y-0.58200
X0.37500 Y-0.58200
X0.37500 Y-0.58300
X0.37400 Y-0.58300
X0.37400 Y-0.58400
X0.37300 Y-0.58400
X0.37300 Y-0.58500
X0.37200 Y-0.58500
X0.37200 Y-0.58600
X0.37100 Y-0.58600
X0.37100 Y-0.58700
X0.37000 Y-0.58700
X0.37000 Y-0.58800
X0.36900 Y-0.58800
X0.36900 Y-0.58900
X0.36800 Y-0.58900
X0.36800 Y-0.59000
X0.36700 Y-0.59000
X0.36700 Y-0.59100
X0.36600 Y-0.59100
X0.36600 Y-0.59200
X0.36500 Y-0.59200
X0.36500 Y-0.59300
X0.36400 Y-0.59300
X0.36400 Y-0.59400
X0.36300 Y-0.59400
X0.36300 Y-0.59500
X0.36200 Y-0.59500
X0.36200 Y-0.59600
X0.36100 Y-0.59600
X0.36100 Y-0.59700
X0.36000 Y-0.59700
X0.36000 Y-0.59800
X0.35900 Y-0.59800
X0.35900 Y-0.59900
X0.35800 Y-0.59900
X0.35800 Y-0.60000
X0.35700 Y-0.60000
X0.35700 Y-0.60100
X0.35600 Y-0.60100
X0.35600 Y-0.60200
X0.35500 Y-0.60200
X0.35500 Y-0.60300
X0.35400 Y-0.60300
X0.35400 Y-0.60400
X0.35300 Y-0.60400
X0.35300 Y-0.60500
X0.35200 Y-0.60500
X0.35200 Y-0.60600
X0.35100 Y-0.60600
X0.35100 Y-0.60700
X0.35000 Y-0.60700
X0.35000 Y-0.60800
X0.34900 Y-0.60800
X0.34900 Y-0.60900
X0.34800 Y-0.60900
X0.34800 Y-0.61000
X0.34700 Y-0.61000
X0.34700 Y-0.61100
X0.34600 Y-0.61100
X0.34600 Y-0.61200
X0.34500 Y-0.61200
X0.34500 Y-0.61300
X0.34400 Y-0.61300
X0.34400 Y-0.61400
X0.34300 Y-0.61400
X0.34300 Y-0.61500
X0.34200 Y-0.61500
X0.34200 Y-0.61600
X0.34100 Y-0.61600
X0.34100 Y-0.61700
X0.34000 Y-0.61700
X0.34000 Y-0.61800
X0.33900 Y-0.61800
X0.33900 Y-0.61900
X0.33800 Y-0.61900
X0.33800 Y-0.62000
X0.33700 Y-0.62000
X0.33700 Y-0.62100
X0.33600 Y-0.62100
X0.33600 Y-0.62200
X0.33500 Y-0.62200
X0.33500 Y-0.62300
X0.33400 Y-0.62300
X0.33400 Y-0.62400
X0.33300 Y-0.62400
X0.33300 Y-0.62500
X0.33200 Y-0.62500
X0.33200 Y-0.62600
X0.33100 Y-0.62600
X0.33100 Y-0.62700
X0.33000 Y-0.62700
X0.33000 Y-0.62800
X0.32900 Y-0.62800
X0.32900 Y-0.62900
X0.32800 Y-0.62900
X0.32800 Y-0.63000
X0.32700 Y-0.63000
X0.32700 Y-0.63100
X0.32600 Y-0.63100
X0.32600 Y-0.63300
X0.32500 Y-0.63300
X0.32500 Y-0.63500
X0.32400 Y-0.63500
X0.32400 Y-0.70900
X0.32000 Y-0.70900
X0.32000 Y-0.71000
X0.31800 Y-0.71000
X0.31800 Y-0.71100
X0.31700 Y-0.71100
X0.31700 Y-0.71200
X0.31500 Y-0.71200
X0.31500 Y-0.71300
X0.31300 Y-0.71300
X0.31300 Y-0.71400
X0.31200 Y-0.71400
X0.31200 Y-0.71500
X0.31000 Y-0.71500
X0.31000 Y-0.71600
X0.30900 Y-0.71600
X0.30900 Y-0.71700
X0.30800 Y-0.71700
X0.30800 Y-0.71900
X0.30700 Y-0.71900
X0.30700 Y-0.72000
X0.30600 Y-0.72000
X0.30600 Y-0.72100
X0.30500 Y-0.72100
X0.30500 Y-0.72300
X0.30400 Y-0.72300
X0.30400 Y-0.72400
X0.30300 Y-0.72400
X0.30300 Y-0.72500
X0.30200 Y-0.72500
X0.30200 Y-0.72800
X0.30100 Y-0.72800
X0.30100 Y-0.73200
X0.30000 Y-0.73200
X0.30000 Y-0.75900
X0.30100 Y-0.75900
X0.30100 Y-0.76300
X0.30200 Y-0.76300
X0.30200 Y-0.76500
X0.30300 Y-0.76500
X0.30300 Y-0.76700
X0.30400 Y-0.76700
X0.30400 Y-0.76800
X0.30500 Y-0.76800
X0.30500 Y-0.77000
X0.30600 Y-0.77000
X0.30600 Y-0.77100
X0.30700 Y-0.77100
X0.30700 Y-0.77200
X0.30800 Y-0.77200
X0.30800 Y-0.77400
X0.30900 Y-0.77400
X0.30900 Y-0.77500
X0.31000 Y-0.77500
X0.31000 Y-0.77600
X0.31200 Y-0.77600
X0.31200 Y-0.77700
X0.31300 Y-0.77700
X0.31300 Y-0.77800
X0.31500 Y-0.77800
X0.31500 Y-0.77900
X0.31700 Y-0.77900
X0.31700 Y-0.78000
X0.31800 Y-0.78000
X0.31800 Y-0.78100
X0.32000 Y-0.78100
X0.32000 Y-0.78200
X0.32600 Y-0.78200
X0.32600 Y-0.78300
X0.34900 Y-0.78300
X0.34900 Y-0.78200
X0.35500 Y-0.78200
X0.35500 Y-0.78100
X0.35700 Y-0.78100
X0.35700 Y-0.78000
X0.35800 Y-0.78000
X0.35800 Y-0.77900
X0.36000 Y-0.77900
X0.36000 Y-0.77800
X0.36200 Y-0.77800
X0.36200 Y-0.77700
X0.36300 Y-0.77700
X0.36300 Y-0.77600
X0.36500 Y-0.77600
X0.36500 Y-0.77500
X0.36600 Y-0.77500
X0.36600 Y-0.77400
X0.36700 Y-0.77400
X0.36700 Y-0.77200
X0.36800 Y-0.77200
X0.36800 Y-0.77100
X0.36900 Y-0.77100
X0.36900 Y-0.77000
X0.37000 Y-0.77000
X0.37000 Y-0.76800
X0.37100 Y-0.76800
X0.37100 Y-0.76700
X0.37200 Y-0.76700
X0.37200 Y-0.76500
X0.37300 Y-0.76500
X0.37300 Y-0.76300
X0.37400 Y-0.76300
X0.37400 Y-0.75900
X0.37500 Y-0.75900
X0.37500 Y-0.73200
X0.37400 Y-0.73200
X0.37400 Y-0.72800
X0.37300 Y-0.72800
X0.37300 Y-0.72500
X0.37200 Y-0.72500
X0.37200 Y-0.72400
X0.37100 Y-0.72400
X0.37100 Y-0.72300
X0.37000 Y-0.72300
X0.37000 Y-0.72100
X0.36900 Y-0.72100
X0.36900 Y-0.72000
X0.36800 Y-0.72000
X0.36800 Y-0.71900
X0.36700 Y-0.71900
X0.36700 Y-0.71700
X0.36600 Y-0.71700
X0.36600 Y-0.71600
X0.36500 Y-0.71600
X0.36500 Y-0.71500
X0.36300 Y-0.71500
X0.36300 Y-0.71400
X0.36200 Y-0.71400
X0.36200 Y-0.71300
X0.36000 Y-0.71300
X0.36000 Y-0.71200
X0.35800 Y-0.71200
X0.35800 Y-0.71100
X0.35700 Y-0.71100
X0.35700 Y-0.71000
X0.35500 Y-0.71000
X0.35500 Y-0.70900
X0.35000 Y-0.70900
X0.35000 Y-0.65000
X0.35100 Y-0.65000
X0.35100 Y-0.64900
X0.35200 Y-0.64900
X0.35200 Y-0.64800
X0.35300 Y-0.64800
X0.35300 Y-0.64700
X0.35400 Y-0.64700
X0.35400 Y-0.64600
X0.35500 Y-0.64600
X0.35500 Y-0.64500
X0.35600 Y-0.64500
X0.35600 Y-0.64400
X0.35700 Y-0.64400
X0.35700 Y-0.64300
X0.35800 Y-0.64300
X0.35800 Y-0.64200
X0.35900 Y-0.64200
X0.35900 Y-0.64100
X0.36000 Y-0.64100
X0.36000 Y-0.64000
X0.36100 Y-0.64000
X0.36100 Y-0.63900
X0.36200 Y-0.63900
X0.36200 Y-0.63800
X0.36300 Y-0.63800
X0.36300 Y-0.63700
X0.36400 Y-0.63700
X0.36400 Y-0.63600
X0.36500 Y-0.63600
X0.36500 Y-0.63500
X0.36600 Y-0.63500
X0.36600 Y-0.63400
X0.36700 Y-0.63400
X0.36700 Y-0.63300
X0.36800 Y-0.63300
X0.36800 Y-0.63200
X0.36900 Y-0.63200
X0.36900 Y-0.63100
X0.37000 Y-0.63100
X0.37000 Y-0.63000
X0.37100 Y-0.63000
X0.37100 Y-0.62900
X0.37200 Y-0.62900
X0.37200 Y-0.62800
X0.37300 Y-0.62800
X0.37300 Y-0.62700
X0.37400 Y-0.62700
X0.37400 Y-0.62600
X0.37500 Y-0.62600
X0.37500 Y-0.62500
X0.37600 Y-0.62500
X0.37600 Y-0.62400
X0.37700 Y-0.62400
X0.37700 Y-0.62300
X0.37800 Y-0.62300
X0.37800 Y-0.62200
X0.37900 Y-0.62200
X0.37900 Y-0.62100
X0.38000 Y-0.62100
X0.38000 Y-0.62000
X0.38100 Y-0.62000
X0.38100 Y-0.61900
X0.38200 Y-0.61900
X0.38200 Y-0.61800
X0.38300 Y-0.61800
X0.38300 Y-0.61700
X0.38400 Y-0.61700
X0.38400 Y-0.61600
X0.38500 Y-0.61600
X0.38500 Y-0.61500
X0.38600 Y-0.61500
X0.38600 Y-0.61400
X0.38700 Y-0.61400
X0.38700 Y-0.61300
X0.38800 Y-0.61300
X0.38800 Y-0.61200
X0.38900 Y-0.61200
X0.38900 Y-0.61100
X0.39000 Y-0.61100
X0.39000 Y-0.61000
X0.39100 Y-0.61000
X0.39100 Y-0.60900
X0.39200 Y-0.60900
X0.39200 Y-0.60800
X0.39300 Y-0.60800
X0.39300 Y-0.60700
X0.39400 Y-0.60700
X0.39400 Y-0.60600
X0.39500 Y-0.60600
X0.39500 Y-0.60500
X0.39600 Y-0.60500
X0.39600 Y-0.60400
X0.39700 Y-0.60400
X0.39700 Y-0.60300
X0.39800 Y-0.60300
X0.39800 Y-0.60200
X0.39900 Y-0.60200
X0.39900 Y-0.60100
X0.40000 Y-0.60100
X0.40000 Y-0.60000
X0.40100 Y-0.60000
X0.40100 Y-0.59900
X0.40200 Y-0.59900
X0.40200 Y-0.59800
X0.40300 Y-0.59800
X0.40300 Y-0.59700
X0.40400 Y-0.59700
X0.40400 Y-0.59600
X0.40500 Y-0.59600
X0.40500 Y-0.59500
X0.40600 Y-0.59500
X0.40600 Y-0.59400
X0.40700 Y-0.59400
X0.40700 Y-0.59300
X0.40800 Y-0.59300
X0.40800 Y-0.59200
X0.40900 Y-0.59200
X0.40900 Y-0.59100
X0.41000 Y-0.59100
X0.41000 Y-0.59000
X0.41100 Y-0.59000
X0.41100 Y-0.58900
X0.41200 Y-0.58900
X0.41200 Y-0.58800
X0.41300 Y-0.58800
X0.41300 Y-0.58700
X0.41400 Y-0.58700
X0.41400 Y-0.59500
X0.41500 Y-0.59500
X0.41500 Y-0.60100
X0.41600 Y-0.60100
X0.41600 Y-0.60600
X0.41700 Y-0.60600
X0.41700 Y-0.60800
X0.41800 Y-0.60800
X0.41800 Y-0.61000
X0.41900 Y-0.61000
X0.41900 Y-0.61100
X0.42000 Y-0.61100
X0.42000 Y-0.61300
X0.42100 Y-0.61300
X0.42100 Y-0.61400
X0.42200 Y-0.61400
X0.42200 Y-0.61500
X0.42300 Y-0.61500
X0.42300 Y-0.61700
X0.42500 Y-0.61700
X0.42500 Y-0.61800
X0.42600 Y-0.61800
X0.42600 Y-0.61900
X0.42800 Y-0.61900
X0.42800 Y-0.62000
X0.43000 Y-0.62000
X0.43000 Y-0.62100
X0.43100 Y-0.62100
X0.43100 Y-0.62200
X0.43300 Y-0.62200
X0.43300 Y-0.62300
X0.43900 Y-0.62300
X0.43900 Y-0.62400
X0.46000 Y-0.62400
X0.46000 Y-0.62300
X0.46600 Y-0.62300
X0.46600 Y-0.62200
X0.46800 Y-0.62200
X0.46800 Y-0.62100
X0.46900 Y-0.62100
X0.46900 Y-0.62000
X0.47100 Y-0.62000
X0.47100 Y-0.61900
X0.47300 Y-0.61900
X0.47300 Y-0.61800
X0.47400 Y-0.61800
X0.47400 Y-0.61700
X0.47600 Y-0.61700
X0.47600 Y-0.61500
X0.47700 Y-0.61500
X0.47700 Y-0.61400
X0.47800 Y-0.61400
X0.47800 Y-0.61300
X0.47900 Y-0.61300
X0.47900 Y-0.61100
X0.48000 Y-0.61100
X0.48000 Y-0.61000
X0.48100 Y-0.61000
X0.48100 Y-0.60800
X0.48200 Y-0.60800
X0.48200 Y-0.60600
X0.48300 Y-0.60600
X0.48300 Y-0.60100
X0.48400 Y-0.60100
X0.48400 Y-0.59500
X0.48500 Y-0.59500
X0.48500 Y-0.52400
X0.48400 Y-0.52400
X0.48400 Y-0.51800
X0.48300 Y-0.51800
X0.48300 Y-0.51300
X0.48200 Y-0.51300
X0.48200 Y-0.51000
X0.48100 Y-0.51000
X0.48100 Y-0.50900
X0.48000 Y-0.50900
X0.48000 Y-0.50800
X0.47900 Y-0.50800
X0.47900 Y-0.50600
X0.47800 Y-0.50600
X0.47800 Y-0.50500
X0.47700 Y-0.50500
X0.47700 Y-0.50400
X0.47600 Y-0.50400
X0.47600 Y-0.50200
X0.47400 Y-0.50200
X0.47400 Y-0.50100
X0.47300 Y-0.50100
X0.47300 Y-0.50000
X0.47100 Y-0.50000
X0.47100 Y-0.49900
X0.46900 Y-0.49900
X0.46900 Y-0.49800
X0.46800 Y-0.49800
X0.46800 Y-0.49700
X0.46600 Y-0.49700
X0.46600 Y-0.49600
X0.46200 Y-0.49600
X0.46200 Y-0.30500
X0.46400 Y-0.30500
X0.46400 Y-0.30300
X0.46500 Y-0.30300
X0.46500 Y-0.30200
X0.46600 Y-0.30200
X0.46600 Y-0.30100
X0.46700 Y-0.30100
X0.46700 Y-0.29900
X0.46800 Y-0.29900
X0.46800 Y-0.29800
X0.46900 Y-0.29800
X0.46900 Y-0.29600
X0.47000 Y-0.29600
X0.47000 Y-0.29400
X0.47100 Y-0.29400
X0.47100 Y-0.28900
X0.47200 Y-0.28900
X0.47200 Y-0.28300
X0.47300 Y-0.28300
X0.47300 Y-0.21200
X0.47200 Y-0.21200
X0.47200 Y-0.20600
X0.47100 Y-0.20600
X0.47100 Y-0.20100
X0.47000 Y-0.20100
X0.47000 Y-0.19800
X0.46900 Y-0.19800
X0.46900 Y-0.19700
X0.46800 Y-0.19700
X0.46800 Y-0.19600
X0.46700 Y-0.19600
X0.46700 Y-0.19400
X0.46600 Y-0.19400
X0.46600 Y-0.19300
X0.46500 Y-0.19300
X0.46500 Y-0.19200
X0.46400 Y-0.19200
X0.46400 Y-0.19000
X0.46200 Y-0.19000
X0.46200 Y-0.18900
X0.46100 Y-0.18900
X0.46100 Y-0.18800
X0.45900 Y-0.18800
X0.45900 Y-0.18700
X0.45700 Y-0.18700
X0.45700 Y-0.18600
X0.45600 Y-0.18600
X0.45600 Y-0.18500
X0.45400 Y-0.18500
X0.45400 Y-0.18400
X0.44800 Y-0.18400
X0.44800 Y-0.18300
X0.42700 Y-0.18300
X0.42700 Y-0.18400
X0.42100 Y-0.18400
X0.42100 Y-0.18500
X0.41900 Y-0.18500
X0.41900 Y-0.18600
X0.41800 Y-0.18600
X0.41800 Y-0.18700
X0.41600 Y-0.18700
X0.41600 Y-0.18800
X0.41400 Y-0.18800
X0.41400 Y-0.18900
G04 P0 ( dwell for no time -- G64 should not smooth over this point )
G00 Z0.10000 ( retract )

G00 X0.31400 Y-0.18900 ( rapid move to begin. )
G01 Z-0.00500 F3.50000 ( plunge. )
G04 P0 ( dwell for no time -- G64 should not smooth over this point )
X0.31400 Y-0.18900
X0.31300 Y-0.18900
X0.31300 Y-0.19000
X0.31100 Y-0.19000
X0.31100 Y-0.19200
X0.31000 Y-0.19200
X0.31000 Y-0.19300
X0.30900 Y-0.19300
X0.30900 Y-0.19400
X0.30800 Y-0.19400
X0.30800 Y-0.19600
X0.30700 Y-0.19600
X0.30700 Y-0.19700
X0.30600 Y-0.19700
X0.30600 Y-0.19900
X0.30500 Y-0.19900
X0.30500 Y-0.20100
X0.30400 Y-0.20100
X0.30400 Y-0.20600
X0.30300 Y-0.20600
X0.30300 Y-0.21200
X0.30200 Y-0.21200
X0.30200 Y-0.28300
X0.30300 Y-0.28300
X0.30300 Y-0.28900
X0.30400 Y-0.28900
X0.30400 Y-0.29400
X0.30500 Y-0.29400
X0.30500 Y-0.29600
X0.30600 Y-0.29600
X0.30600 Y-0.29800
X0.30700 Y-0.29800
X0.30700 Y-0.29900
X0.30800 Y-0.29900
X0.30800 Y-0.30100
X0.30900 Y-0.30100
X0.30900 Y-0.30200
X0.31000 Y-0.30200
X0.31000 Y-0.30300
X0.31100 Y-0.30300
X0.31100 Y-0.30500
X0.31300 Y-0.30500
X0.31300 Y-0.30600
X0.31400 Y-0.30600
X0.31400 Y-0.30700
X0.31600 Y-0.30700
X0.31600 Y-0.30800
X0.31800 Y-0.30800
X0.31800 Y-0.30900
X0.31900 Y-0.30900
X0.31900 Y-0.31000
X0.32100 Y-0.31000
X0.32100 Y-0.31100
X0.32400 Y-0.31100
X0.32400 Y-0.40900
X0.32000 Y-0.40900
X0.32000 Y-0.41000
X0.31800 Y-0.41000
X0.31800 Y-0.41100
X0.31700 Y-0.41100
X0.31700 Y-0.41200
X0.31500 Y-0.41200
X0.31500 Y-0.41300
X0.31300 Y-0.41300
X0.31300 Y-0.41400
X0.31200 Y-0.41400
X0.31200 Y-0.41500
X0.31000 Y-0.41500
X0.31000 Y-0.41600
X0.30900 Y-0.41600
X0.30900 Y-0.41700
X0.30800 Y-0.41700
X0.30800 Y-0.41900
X0.30700 Y-0.41900
X0.30700 Y-0.42000
X0.30600 Y-0.42000
X0.30600 Y-0.42100
X0.30500 Y-0.42100
X0.30500 Y-0.42300
X0.30400 Y-0.42300
X0.30400 Y-0.42400
X0.30300 Y-0.42400
X0.30300 Y-0.42500
X0.30200 Y-0.42500
X0.30200 Y-0.42800
X0.30100 Y-0.42800
X0.30100 Y-0.43200
X0.30000 Y-0.43200
X0.30000 Y-0.45900
X0.30100 Y-0.45900
X0.30100 Y-0.46300
X0.30200 Y-0.46300
X0.30200 Y-0.46500
X0.30300 Y-0.46500
X0.30300 Y-0.46700
X0.30400 Y-0.46700
X0.30400 Y-0.46800
X0.30500 Y-0.46800
X0.30500 Y-0.47000
X0.30600 Y-0.47000
X0.30600 Y-0.47100
X0.30700 Y-0.47100
X0.30700 Y-0.47200
X0.30800 Y-0.47200
X0.30800 Y-0.47400
X0.30900 Y-0.47400
X0.30900 Y-0.47500
X0.31000 Y-0.47500
X0.31000 Y-0.47600
X0.31200 Y-0.47600
X0.31200 Y-0.47700
X0.31300 Y-0.47700
X0.31300 Y-0.47800
X0.31500 Y-0.47800
X0.31500 Y-0.47900
X0.31700 Y-0.47900
X0.31700 Y-0.48000
X0.31800 Y-0.48000
X0.31800 Y-0.48100
X0.32000 Y-0.48100
X0.32000 Y-0.48200
X0.32400 Y-0.48200
X0.32400 Y-0.50600
X0.32300 Y-0.50600
X0.32300 Y-0.50700
X0.32200 Y-0.50700
X0.32200 Y-0.50800
X0.32100 Y-0.50800
X0.32100 Y-0.50900
X0.32000 Y-0.50900
X0.32000 Y-0.51000
X0.31900 Y-0.51000
X0.31900 Y-0.51100
X0.31800 Y-0.51100
X0.31800 Y-0.51200
X0.31700 Y-0.51200
X0.31700 Y-0.51300
X0.31600 Y-0.51300
X0.31600 Y-0.51400
X0.31500 Y-0.51400
X0.31500 Y-0.51500
X0.31400 Y-0.51500
X0.31400 Y-0.51600
X0.31300 Y-0.51600
X0.31300 Y-0.51700
X0.31200 Y-0.51700
X0.31200 Y-0.51800
X0.31100 Y-0.51800
X0.31100 Y-0.51900
X0.31000 Y-0.51900
X0.31000 Y-0.52000
X0.30900 Y-0.52000
X0.30900 Y-0.52100
X0.30800 Y-0.52100
X0.30800 Y-0.52200
X0.30700 Y-0.52200
X0.30700 Y-0.52300
X0.30600 Y-0.52300
X0.30600 Y-0.52400
X0.30500 Y-0.52400
X0.30500 Y-0.52500
X0.30400 Y-0.52500
X0.30400 Y-0.52600
X0.30300 Y-0.52600
X0.30300 Y-0.52700
X0.30200 Y-0.52700
X0.30200 Y-0.52800
X0.30100 Y-0.52800
X0.30100 Y-0.52900
X0.30000 Y-0.52900
X0.30000 Y-0.53000
X0.29900 Y-0.53000
X0.29900 Y-0.53100
X0.29800 Y-0.53100
X0.29800 Y-0.53200
X0.29700 Y-0.53200
X0.29700 Y-0.53300
X0.29600 Y-0.53300
X0.29600 Y-0.53400
X0.29500 Y-0.53400
X0.29500 Y-0.53500
X0.29400 Y-0.53500
X0.29400 Y-0.53600
X0.29300 Y-0.53600
X0.29300 Y-0.53700
X0.29200 Y-0.53700
X0.29200 Y-0.53800
X0.29100 Y-0.53800
X0.29100 Y-0.53900
X0.29000 Y-0.53900
X0.29000 Y-0.54000
X0.28900 Y-0.54000
X0.28900 Y-0.54100
X0.28800 Y-0.54100
X0.28800 Y-0.54200
X0.28700 Y-0.54200
X0.28700 Y-0.54300
X0.28600 Y-0.54300
X0.28600 Y-0.54400
X0.28500 Y-0.54400
X0.28500 Y-0.54500
X0.28400 Y-0.54500
X0.28400 Y-0.54600
X0.28300 Y-0.54600
X0.28300 Y-0.54700
X0.28200 Y-0.54700
X0.28200 Y-0.54800
X0.28100 Y-0.54800
X0.28100 Y-0.54900
X0.28000 Y-0.54900
X0.28000 Y-0.55000
X0.27900 Y-0.55000
X0.27900 Y-0.55100
X0.27800 Y-0.55100
X0.27800 Y-0.55200
X0.27700 Y-0.55200
X0.27700 Y-0.55300
X0.27600 Y-0.55300
X0.27600 Y-0.55400
X0.27500 Y-0.55400
X0.27500 Y-0.55500
X0.27400 Y-0.55500
X0.27400 Y-0.55600
X0.27300 Y-0.55600
X0.27300 Y-0.55700
X0.27200 Y-0.55700
X0.27200 Y-0.55800
X0.27100 Y-0.55800
X0.27100 Y-0.55900
X0.27000 Y-0.55900
X0.27000 Y-0.56000
X0.26900 Y-0.56000
X0.26900 Y-0.56100
X0.26800 Y-0.56100
X0.26800 Y-0.56200
X0.26700 Y-0.56200
X0.26700 Y-0.56300
X0.26600 Y-0.56300
X0.26600 Y-0.56400
X0.26500 Y-0.56400
X0.26500 Y-0.56500
X0.26400 Y-0.56500
X0.26400 Y-0.56600
X0.26300 Y-0.56600
X0.26300 Y-0.56700
X0.26200 Y-0.56700
X0.26200 Y-0.56800
X0.26100 Y-0.56800
X0.26100 Y-0.56900
X0.26000 Y-0.56900
X0.26000 Y-0.57000
X0.25900 Y-0.57000
X0.25900 Y-0.57100
X0.25800 Y-0.57100
X0.25800 Y-0.57200
X0.25700 Y-0.57200
X0.25700 Y-0.57300
X0.25600 Y-0.57300
X0.25600 Y-0.57500
X0.25500 Y-0.57500
X0.25500 Y-0.57700
X0.25400 Y-0.57700
X0.25400 Y-0.79300
X0.25500 Y-0.79300
X0.25500 Y-0.79500
X0.25600 Y-0.79500
X0.25600 Y-0.79700
X0.25700 Y-0.79700
X0.25700 Y-0.79800
X0.25800 Y-0.79800
X0.25800 Y-0.79900
X0.25900 Y-0.79900
X0.25900 Y-0.80000
X0.26000 Y-0.80000
X0.26000 Y-0.80100
X0.26100 Y-0.80100
X0.26100 Y-0.80200
X0.26200 Y-0.80200
X0.26200 Y-0.80300
X0.26300 Y-0.80300
X0.26300 Y-0.80400
X0.26400 Y-0.80400
X0.26400 Y-0.80500
X0.26500 Y-0.80500
X0.26500 Y-0.80600
X0.26600 Y-0.80600
X0.26600 Y-0.80700
X0.26700 Y-0.80700
X0.26700 Y-0.80800
X0.26800 Y-0.80800
X0.26800 Y-0.80900
X0.26900 Y-0.80900
X0.26900 Y-0.81000
X0.27000 Y-0.81000
X0.27000 Y-0.81100
X0.27100 Y-0.81100
X0.27100 Y-0.81200
X0.27200 Y-0.81200
X0.27200 Y-0.81300
X0.27300 Y-0.81300
X0.27300 Y-0.81400
X0.27400 Y-0.81400
X0.27400 Y-0.81500
X0.27500 Y-0.81500
X0.27500 Y-0.81600
X0.27600 Y-0.81600
X0.27600 Y-0.81700
X0.27700 Y-0.81700
X0.27700 Y-0.81800
X0.27800 Y-0.81800
X0.27800 Y-0.81900
X0.27900 Y-0.81900
X0.27900 Y-0.82000
X0.28000 Y-0.82000
X0.28000 Y-0.82100
X0.28100 Y-0.82100
X0.28100 Y-0.82200
X0.28200 Y-0.82200
X0.28200 Y-0.82300
X0.28300 Y-0.82300
X0.28300 Y-0.82400
X0.28400 Y-0.82400
X0.28400 Y-0.82500
X0.28500 Y-0.82500
X0.28500 Y-0.82600
X0.28600 Y-0.82600
X0.28600 Y-0.82700
X0.28700 Y-0.82700
X0.28700 Y-0.82800
X0.28800 Y-0.82800
X0.28800 Y-0.82900
X0.29000 Y-0.82900
X0.29000 Y-0.83000
X0.29200 Y-0.83000
X0.29200 Y-0.83100
X0.40400 Y-0.83100
X0.40400 Y-0.83000
X0.40600 Y-0.83000
X0.40600 Y-0.82900
X0.40800 Y-0.82900
X0.40800 Y-0.82800
X0.40900 Y-0.82800
X0.40900 Y-0.82700
X0.41000 Y-0.82700
X0.41000 Y-0.82600
X0.41100 Y-0.82600
X0.41100 Y-0.82500
X0.41200 Y-0.82500
X0.41200 Y-0.82400
X0.41300 Y-0.82400
X0.41300 Y-0.82300
X0.41400 Y-0.82300
X0.41400 Y-0.82200
X0.41500 Y-0.82200
X0.41500 Y-0.82100
X0.41600 Y-0.82100
X0.41600 Y-0.82000
X0.41700 Y-0.82000
X0.41700 Y-0.81900
X0.41800 Y-0.81900
X0.41800 Y-0.81800
X0.41900 Y-0.81800
X0.41900 Y-0.81700
X0.42000 Y-0.81700
X0.42000 Y-0.81600
X0.42100 Y-0.81600
X0.42100 Y-0.81500
X0.42200 Y-0.81500
X0.42200 Y-0.81400
X0.42300 Y-0.81400
X0.42300 Y-0.81300
X0.42400 Y-0.81300
X0.42400 Y-0.81200
X0.42500 Y-0.81200
X0.42500 Y-0.81100
X0.42600 Y-0.81100
X0.42600 Y-0.81000
X0.42700 Y-0.81000
X0.42700 Y-0.80900
X0.42800 Y-0.80900
X0.42800 Y-0.80800
X0.42900 Y-0.80800
X0.42900 Y-0.80700
X0.43000 Y-0.80700
X0.43000 Y-0.80600
X0.43100 Y-0.80600
X0.43100 Y-0.80500
X0.43200 Y-0.80500
X0.43200 Y-0.80400
X0.43300 Y-0.80400
X0.43300 Y-0.80300
X0.43400 Y-0.80300
X0.43400 Y-0.80200
X0.43500 Y-0.80200
X0.43500 Y-0.80100
X0.43600 Y-0.80100
X0.43600 Y-0.80000
X0.43700 Y-0.80000
X0.43700 Y-0.79900
X0.43800 Y-0.79900
X0.43800 Y-0.79800
X0.43900 Y-0.79800
X0.43900 Y-0.79700
X0.44000 Y-0.79700
X0.44000 Y-0.79600
X0.44100 Y-0.79600
X0.44100 Y-0.79500
X0.44200 Y-0.79500
X0.44200 Y-0.79400
X0.44300 Y-0.79400
X0.44300 Y-0.79300
X0.44400 Y-0.79300
X0.44400 Y-0.79200
X0.44500 Y-0.79200
X0.44500 Y-0.79100
X0.44600 Y-0.79100
X0.44600 Y-0.79000
X0.44700 Y-0.79000
X0.44700 Y-0.78900
X0.44800 Y-0.78900
X0.44800 Y-0.78800
X0.44900 Y-0.78800
X0.44900 Y-0.78700
X0.45000 Y-0.78700
X0.45000 Y-0.78600
X0.45100 Y-0.78600
X0.45100 Y-0.78500
X0.45200 Y-0.78500
X0.45200 Y-0.78400
X0.45300 Y-0.78400
X0.45300 Y-0.78300
X0.45400 Y-0.78300
X0.45400 Y-0.78200
X0.45500 Y-0.78200
X0.45500 Y-0.78100
X0.45600 Y-0.78100
X0.45600 Y-0.78000
X0.45700 Y-0.78000
X0.45700 Y-0.77900
X0.45800 Y-0.77900
X0.45800 Y-0.77800
X0.45900 Y-0.77800
X0.45900 Y-0.77700
X0.46000 Y-0.77700
X0.46000 Y-0.77600
X0.46100 Y-0.77600
X0.46100 Y-0.77500
X0.46200 Y-0.77500
X0.46200 Y-0.77400
X0.46300 Y-0.77400
X0.46300 Y-0.77300
X0.46400 Y-0.77300
X0.46400 Y-0.77200
X0.46500 Y-0.77200
X0.46500 Y-0.77100
X0.46600 Y-0.77100
X0.46600 Y-0.77000
X0.46700 Y-0.77000
X0.46700 Y-0.76900
X0.46800 Y-0.76900
X0.46800 Y-0.76800
X0.46900 Y-0.76800
X0.46900 Y-0.76700
X0.47000 Y-0.76700
X0.47000 Y-0.76600
X0.47100 Y-0.76600
X0.47100 Y-0.76500
X0.47200 Y-0.76500
X0.47200 Y-0.76400
X0.47300 Y-0.76400
X0.47300 Y-0.76300
X0.47400 Y-0.76300
X0.47400 Y-0.76200
X0.47500 Y-0.76200
X0.47500 Y-0.76100
X0.47600 Y-0.76100
X0.47600 Y-0.76000
X0.47700 Y-0.76000
X0.47700 Y-0.75900
X0.47800 Y-0.75900
X0.47800 Y-0.75800
X0.47900 Y-0.75800
X0.47900 Y-0.75700
X0.48000 Y-0.75700
X0.48000 Y-0.75600
X0.48100 Y-0.75600
X0.48100 Y-0.75500
X0.48200 Y-0.75500
X0.48200 Y-0.75400
X0.48300 Y-0.75400
X0.48300 Y-0.75300
X0.48400 Y-0.75300
X0.48400 Y-0.75200
X0.48500 Y-0.75200
X0.48500 Y-0.75100
X0.48600 Y-0.75100
X0.48600 Y-0.75000
X0.48700 Y-0.75000
X0.48700 Y-0.74900
X0.48800 Y-0.74900
X0.48800 Y-0.74800
X0.48900 Y-0.74800
X0.48900 Y-0.74700
X0.49000 Y-0.74700
X0.49000 Y-0.74600
X0.49100 Y-0.74600
X0.49100 Y-0.74500
X0.49200 Y-0.74500
X0.49200 Y-0.74400
X0.49300 Y-0.74400
X0.49300 Y-0.74300
X0.49400 Y-0.74300
X0.49400 Y-0.74200
X0.49500 Y-0.74200
X0.49500 Y-0.74100
X0.49600 Y-0.74100
X0.49600 Y-0.74000
X0.49700 Y-0.74000
X0.49700 Y-0.73900
X0.49800 Y-0.73900
X0.49800 Y-0.73800
X0.49900 Y-0.73800
X0.49900 Y-0.73700
X0.50000 Y-0.73700
X0.50000 Y-0.73600
X0.50100 Y-0.73600
X0.50100 Y-0.73500
X0.50200 Y-0.73500
X0.50200 Y-0.73400
X0.50300 Y-0.73400
X0.50300 Y-0.73300
X0.50400 Y-0.73300
X0.50400 Y-0.73200
X0.50500 Y-0.73200
X0.50500 Y-0.73100
X0.50600 Y-0.73100
X0.50600 Y-0.73000
X0.50700 Y-0.73000
X0.50700 Y-0.72900
X0.50800 Y-0.72900
X0.50800 Y-0.72800
X0.50900 Y-0.72800
X0.50900 Y-0.72700
X0.51000 Y-0.72700
X0.51000 Y-0.72600
X0.51100 Y-0.72600
X0.51100 Y-0.72500
X0.51200 Y-0.72500
X0.51200 Y-0.72400
X0.51300 Y-0.72400
X0.51300 Y-0.72300
X0.51400 Y-0.72300
X0.51400 Y-0.72200
X0.51500 Y-0.72200
X0.51500 Y-0.72100
X0.51600 Y-0.72100
X0.51600 Y-0.72000
X0.51700 Y-0.72000
X0.51700 Y-0.71900
X0.59000 Y-0.71900
X0.59000 Y-0.71800
X0.59200 Y-0.71800
X0.59200 Y-0.71700
X0.59400 Y-0.71700
X0.59400 Y-0.71600
X0.59500 Y-0.71600
X0.59500 Y-0.71500
X0.59600 Y-0.71500
X0.59600 Y-0.71400
X0.59700 Y-0.71400
X0.59700 Y-0.71300
X0.59800 Y-0.71300
X0.59800 Y-0.71200
X0.59900 Y-0.71200
X0.59900 Y-0.71100
X0.60000 Y-0.71100
X0.60000 Y-0.71000
X0.60100 Y-0.71000
X0.60100 Y-0.70900
X0.60200 Y-0.70900
X0.60200 Y-0.70800
X0.60300 Y-0.70800
X0.60300 Y-0.70700
X0.60400 Y-0.70700
X0.60400 Y-0.70600
X0.60500 Y-0.70600
X0.60500 Y-0.70500
X0.60600 Y-0.70500
X0.60600 Y-0.70400
X0.60700 Y-0.70400
X0.60700 Y-0.70300
X0.60800 Y-0.70300
X0.60800 Y-0.70200
X0.60900 Y-0.70200
X0.60900 Y-0.70100
X0.61000 Y-0.70100
X0.61000 Y-0.70000
X0.61100 Y-0.70000
X0.61100 Y-0.69900
X0.61200 Y-0.69900
X0.61200 Y-0.69800
X0.61300 Y-0.69800
X0.61300 Y-0.69700
X0.61400 Y-0.69700
X0.61400 Y-0.69600
X0.61500 Y-0.69600
X0.61500 Y-0.69500
X0.61600 Y-0.69500
X0.61600 Y-0.69400
X0.61700 Y-0.69400
X0.61700 Y-0.69300
X0.61800 Y-0.69300
X0.61800 Y-0.69200
X0.61900 Y-0.69200
X0.61900 Y-0.69100
X0.62000 Y-0.69100
X0.62000 Y-0.69000
X0.62100 Y-0.69000
X0.62100 Y-0.68900
X0.62200 Y-0.68900
X0.62200 Y-0.68800
X0.62300 Y-0.68800
X0.62300 Y-0.68700
X0.62400 Y-0.68700
X0.62400 Y-0.68600
X0.62500 Y-0.68600
X0.62500 Y-0.68500
X0.62600 Y-0.68500
X0.62600 Y-0.68400
X0.62700 Y-0.68400
X0.62700 Y-0.68300
X0.62800 Y-0.68300
X0.62800 Y-0.68200
X0.62900 Y-0.68200
X0.62900 Y-0.68100
X0.63000 Y-0.68100
X0.63000 Y-0.68000
X0.63100 Y-0.68000
X0.63100 Y-0.67900
X0.63200 Y-0.67900
X0.63200 Y-0.67800
X0.63300 Y-0.67800
X0.63300 Y-0.67700
X0.63400 Y-0.67700
X0.63400 Y-0.67600
X0.63500 Y-0.67600
X0.63500 Y-0.67500
X0.63600 Y-0.67500
X0.63600 Y-0.67400
X0.63700 Y-0.67400
X0.63700 Y-0.67300
X0.63800 Y-0.67300
X0.63800 Y-0.67200
X0.63900 Y-0.67200
X0.63900 Y-0.67100
X0.64000 Y-0.67100
X0.64000 Y-0.67000
X0.64100 Y-0.67000
X0.64100 Y-0.66900
X0.64200 Y-0.66900
X0.64200 Y-0.66800
X0.64300 Y-0.66800
X0.64300 Y-0.66700
X0.64400 Y-0.66700
X0.64400 Y-0.66600
X0.64500 Y-0.66600
X0.64500 Y-0.66500
X0.64600 Y-0.66500
X0.64600 Y-0.66400
X0.64700 Y-0.66400
X0.64700 Y-0.66300
X0.64800 Y-0.66300
X0.64800 Y-0.66200
X0.64900 Y-0.66200
X0.64900 Y-0.66100
X0.65000 Y-0.66100
X0.65000 Y-0.66000
X0.65100 Y-0.66000
X0.65100 Y-0.65900
X0.65200 Y-0.65900
X0.65200 Y-0.65800
X0.65300 Y-0.65800
X0.65300 Y-0.65700
X0.65400 Y-0.65700
X0.65400 Y-0.65600
X0.65500 Y-0.65600
X0.65500 Y-0.65500
X0.65600 Y-0.65500
X0.65600 Y-0.65400
X0.65700 Y-0.65400
X0.65700 Y-0.65300
X0.65800 Y-0.65300
X0.65800 Y-0.65200
X0.65900 Y-0.65200
X0.65900 Y-0.65100
X0.66000 Y-0.65100
X0.66000 Y-0.64900
X0.66100 Y-0.64900
X0.66100 Y-0.64700
X0.66200 Y-0.64700
X0.66200 Y-0.62300
X0.66600 Y-0.62300
X0.66600 Y-0.62200
X0.66800 Y-0.62200
X0.66800 Y-0.62100
X0.66900 Y-0.62100
X0.66900 Y-0.62000
X0.67100 Y-0.62000
X0.67100 Y-0.61900
X0.67300 Y-0.61900
X0.67300 Y-0.61800
X0.67400 Y-0.61800
X0.67400 Y-0.61700
X0.67600 Y-0.61700
X0.67600 Y-0.61500
X0.67700 Y-0.61500
X0.67700 Y-0.61400
X0.67800 Y-0.61400
X0.67800 Y-0.61300
X0.67900 Y-0.61300
X0.67900 Y-0.61100
X0.68000 Y-0.61100
X0.68000 Y-0.61000
