( pcb2gcode 1.1.4 )

G94     ( Inches per minute feed rate. )
G20     ( Units == INCHES.             )
G90     ( Absolute coordinates.        )
S8000  ( RPM spindle speed.           )
M3      ( Spindle on clockwise.        )

G64 P0.00500 ( set maximum deviation from commanded toolpath )

G04 P0 ( dwell for no time -- G64 should not smooth over this point )
G00 Z0.10000 ( retract )

G00 X0.92300 Y-0.01900 ( rapid move to begin. )
G01 Z-0.00500 F3.50000 ( plunge. )
G04 P0 ( dwell for no time -- G64 should not smooth over this point )
X0.92300 Y-0.01900
X0.92400 Y-0.01900
X0.92400 Y-0.86100
X0.92300 Y-0.86100
X0.92300 Y-0.86300
X0.92200 Y-0.86300
X0.92200 Y-0.86500
X0.92000 Y-0.86500
X0.92000 Y-0.86600
X0.91800 Y-0.86600
X0.91800 Y-0.86700
X0.02000 Y-0.86700
X0.02000 Y-0.86600
X0.01800 Y-0.86600
X0.01800 Y-0.86500
X0.01600 Y-0.86500
X0.01600 Y-0.86300
X0.01500 Y-0.86300
X0.01500 Y-0.86100
X0.01400 Y-0.86100
X0.01400 Y-0.01900
X0.01500 Y-0.01900
X0.01500 Y-0.01700
X0.01600 Y-0.01700
X0.01600 Y-0.01500
X0.01800 Y-0.01500
X0.01800 Y-0.01400
X0.02000 Y-0.01400
X0.02000 Y-0.01300
X0.91800 Y-0.01300
X0.91800 Y-0.01400
X0.92000 Y-0.01400
X0.92000 Y-0.01500
X0.92200 Y-0.01500
X0.92200 Y-0.01700
X0.92300 Y-0.01700
X0.92300 Y-0.01900
G04 P0 ( dwell for no time -- G64 should not smooth over this point )
G00 Z0.10000 ( retract )

G00 X0.16900 Y-0.05600 ( rapid move to begin. )
G01 Z-0.00500 F3.50000 ( plunge. )
G04 P0 ( dwell for no time -- G64 should not smooth over this point )
X0.16900 Y-0.05600
X0.17200 Y-0.05600
X0.17200 Y-0.05700
X0.17300 Y-0.05700
X0.17300 Y-0.05800
X0.17500 Y-0.05800
X0.17500 Y-0.05900
X0.17700 Y-0.05900
X0.17700 Y-0.06000
X0.17900 Y-0.06000
X0.17900 Y-0.06100
X0.18100 Y-0.06100
X0.18100 Y-0.06200
X0.18300 Y-0.06200
X0.18300 Y-0.06300
X0.18400 Y-0.06300
X0.18400 Y-0.06400
X0.18600 Y-0.06400
X0.18600 Y-0.06500
X0.18700 Y-0.06500
X0.18700 Y-0.06600
X0.18800 Y-0.06600
X0.18800 Y-0.06700
X0.18900 Y-0.06700
X0.18900 Y-0.06800
X0.19100 Y-0.06800
X0.19100 Y-0.06900
X0.19200 Y-0.06900
X0.19200 Y-0.07000
X0.19300 Y-0.07000
X0.19300 Y-0.07100
X0.19400 Y-0.07100
X0.19400 Y-0.07200
X0.19500 Y-0.07200
X0.19500 Y-0.07300
X0.19700 Y-0.07300
X0.19700 Y-0.07500
X0.19800 Y-0.07500
X0.19800 Y-0.07600
X0.19900 Y-0.07600
X0.19900 Y-0.07700
X0.20000 Y-0.07700
X0.20000 Y-0.07800
X0.20100 Y-0.07800
X0.20100 Y-0.07900
X0.20200 Y-0.07900
X0.20200 Y-0.08100
X0.20300 Y-0.08100
X0.20300 Y-0.08200
X0.20400 Y-0.08200
X0.20400 Y-0.08300
X0.20500 Y-0.08300
X0.20500 Y-0.08400
X0.20600 Y-0.08400
X0.20600 Y-0.08600
X0.20700 Y-0.08600
X0.20700 Y-0.08700
X0.20800 Y-0.08700
X0.20800 Y-0.08900
X0.20900 Y-0.08900
X0.20900 Y-0.09100
X0.21000 Y-0.09100
X0.21000 Y-0.09300
X0.21100 Y-0.09300
X0.21100 Y-0.09500
X0.21200 Y-0.09500
X0.21200 Y-0.09700
X0.21300 Y-0.09700
X0.21300 Y-0.09800
X0.21400 Y-0.09800
X0.21400 Y-0.10100
X0.21500 Y-0.10100
X0.21500 Y-0.10500
X0.21600 Y-0.10500
X0.21600 Y-0.10800
X0.21700 Y-0.10800
X0.21700 Y-0.11100
X0.21800 Y-0.11100
X0.21800 Y-0.11500
X0.21900 Y-0.11500
X0.21900 Y-0.12500
X0.22000 Y-0.12500
X0.22000 Y-0.14600
X0.21900 Y-0.14600
X0.21900 Y-0.15600
X0.21800 Y-0.15600
X0.21800 Y-0.16000
X0.21700 Y-0.16000
X0.21700 Y-0.16300
X0.21600 Y-0.16300
X0.21600 Y-0.16600
X0.21500 Y-0.16600
X0.21500 Y-0.17000
X0.21400 Y-0.17000
X0.21400 Y-0.17300
X0.21300 Y-0.17300
X0.21300 Y-0.17400
X0.21200 Y-0.17400
X0.21200 Y-0.17600
X0.21100 Y-0.17600
X0.21100 Y-0.17800
X0.21000 Y-0.17800
X0.21000 Y-0.18000
X0.20900 Y-0.18000
X0.20900 Y-0.18200
X0.20800 Y-0.18200
X0.20800 Y-0.18400
X0.20700 Y-0.18400
X0.20700 Y-0.18500
X0.20600 Y-0.18500
X0.20600 Y-0.18700
X0.20500 Y-0.18700
X0.20500 Y-0.18800
X0.20400 Y-0.18800
X0.20400 Y-0.18900
X0.20300 Y-0.18900
X0.20300 Y-0.19000
X0.20200 Y-0.19000
X0.20200 Y-0.19200
X0.20100 Y-0.19200
X0.20100 Y-0.19300
X0.20000 Y-0.19300
X0.20000 Y-0.19400
X0.19900 Y-0.19400
X0.19900 Y-0.19500
X0.19800 Y-0.19500
X0.19800 Y-0.19600
X0.19700 Y-0.19600
X0.19700 Y-0.19800
X0.19500 Y-0.19800
X0.19500 Y-0.19900
X0.19400 Y-0.19900
X0.19400 Y-0.20000
X0.19300 Y-0.20000
X0.19300 Y-0.20100
X0.19200 Y-0.20100
X0.19200 Y-0.20200
X0.19100 Y-0.20200
X0.19100 Y-0.20300
X0.18900 Y-0.20300
X0.18900 Y-0.20400
X0.18800 Y-0.20400
X0.18800 Y-0.20500
X0.18700 Y-0.20500
X0.18700 Y-0.20600
X0.18600 Y-0.20600
X0.18600 Y-0.20700
X0.18400 Y-0.20700
X0.18400 Y-0.20800
X0.18300 Y-0.20800
X0.18300 Y-0.20900
X0.18100 Y-0.20900
X0.18100 Y-0.21000
X0.17900 Y-0.21000
X0.17900 Y-0.21100
X0.17700 Y-0.21100
X0.17700 Y-0.21200
X0.17500 Y-0.21200
X0.17500 Y-0.21300
X0.17300 Y-0.21300
X0.17300 Y-0.21400
X0.17200 Y-0.21400
X0.17200 Y-0.21500
X0.16900 Y-0.21500
X0.16900 Y-0.21600
X0.16500 Y-0.21600
X0.16500 Y-0.21700
X0.16200 Y-0.21700
X0.16200 Y-0.21800
X0.15900 Y-0.21800
X0.15900 Y-0.21900
X0.15500 Y-0.21900
X0.15500 Y-0.22000
X0.14500 Y-0.22000
X0.14500 Y-0.22100
X0.12400 Y-0.22100
X0.12400 Y-0.22000
X0.11400 Y-0.22000
X0.11400 Y-0.21900
X0.11000 Y-0.21900
X0.11000 Y-0.21800
X0.10700 Y-0.21800
X0.10700 Y-0.21700
X0.10400 Y-0.21700
X0.10400 Y-0.21600
X0.10000 Y-0.21600
X0.10000 Y-0.21500
X0.09700 Y-0.21500
X0.09700 Y-0.21400
X0.09600 Y-0.21400
X0.09600 Y-0.21300
X0.09400 Y-0.21300
X0.09400 Y-0.21200
X0.09200 Y-0.21200
X0.09200 Y-0.21100
X0.09000 Y-0.21100
X0.09000 Y-0.21000
X0.08800 Y-0.21000
X0.08800 Y-0.20900
X0.08600 Y-0.20900
X0.08600 Y-0.20800
X0.08500 Y-0.20800
X0.08500 Y-0.20700
X0.08300 Y-0.20700
X0.08300 Y-0.20600
X0.08200 Y-0.20600
X0.08200 Y-0.20500
X0.08100 Y-0.20500
X0.08100 Y-0.20400
X0.08000 Y-0.20400
X0.08000 Y-0.20300
X0.07800 Y-0.20300
X0.07800 Y-0.20200
X0.07700 Y-0.20200
X0.07700 Y-0.20100
X0.07600 Y-0.20100
X0.07600 Y-0.20000
X0.07500 Y-0.20000
X0.07500 Y-0.19900
X0.07400 Y-0.19900
X0.07400 Y-0.19800
X0.07200 Y-0.19800
X0.07200 Y-0.19600
X0.07100 Y-0.19600
X0.07100 Y-0.19500
X0.07000 Y-0.19500
X0.07000 Y-0.19400
X0.06900 Y-0.19400
X0.06900 Y-0.19300
X0.06800 Y-0.19300
X0.06800 Y-0.19200
X0.06700 Y-0.19200
X0.06700 Y-0.19000
X0.06600 Y-0.19000
X0.06600 Y-0.18900
X0.06500 Y-0.18900
X0.06500 Y-0.18800
X0.06400 Y-0.18800
X0.06400 Y-0.18700
X0.06300 Y-0.18700
X0.06300 Y-0.18500
X0.06200 Y-0.18500
X0.06200 Y-0.18400
X0.06100 Y-0.18400
X0.06100 Y-0.18200
X0.06000 Y-0.18200
X0.06000 Y-0.18000
X0.05900 Y-0.18000
X0.05900 Y-0.17800
X0.05800 Y-0.17800
X0.05800 Y-0.17600
X0.05700 Y-0.17600
X0.05700 Y-0.17400
X0.05600 Y-0.17400
X0.05600 Y-0.17300
X0.05500 Y-0.17300
X0.05500 Y-0.17000
X0.05400 Y-0.17000
X0.05400 Y-0.16600
X0.05300 Y-0.16600
X0.05300 Y-0.16300
X0.05200 Y-0.16300
X0.05200 Y-0.16000
X0.05100 Y-0.16000
X0.05100 Y-0.15600
X0.05000 Y-0.15600
X0.05000 Y-0.14600
X0.04900 Y-0.14600
X0.04900 Y-0.12500
X0.05000 Y-0.12500
X0.05000 Y-0.11500
X0.05100 Y-0.11500
X0.05100 Y-0.11100
X0.05200 Y-0.11100
X0.05200 Y-0.10800
X0.05300 Y-0.10800
X0.05300 Y-0.10500
X0.05400 Y-0.10500
X0.05400 Y-0.10100
X0.05500 Y-0.10100
X0.05500 Y-0.09800
X0.05600 Y-0.09800
X0.05600 Y-0.09700
X0.05700 Y-0.09700
X0.05700 Y-0.09500
X0.05800 Y-0.09500
X0.05800 Y-0.09300
X0.05900 Y-0.09300
X0.05900 Y-0.09100
X0.06000 Y-0.09100
X0.06000 Y-0.08900
X0.06100 Y-0.08900
X0.06100 Y-0.08700
X0.06200 Y-0.08700
X0.06200 Y-0.08600
X0.06300 Y-0.08600
X0.06300 Y-0.08400
X0.06400 Y-0.08400
X0.06400 Y-0.08300
X0.06500 Y-0.08300
X0.06500 Y-0.08200
X0.06600 Y-0.08200
X0.06600 Y-0.08100
X0.06700 Y-0.08100
X0.06700 Y-0.07900
X0.06800 Y-0.07900
X0.06800 Y-0.07800
X0.06900 Y-0.07800
X0.06900 Y-0.07700
X0.07000 Y-0.07700
X0.07000 Y-0.07600
X0.07100 Y-0.07600
X0.07100 Y-0.07500
X0.07200 Y-0.07500
X0.07200 Y-0.07300
X0.07400 Y-0.07300
X0.07400 Y-0.07200
X0.07500 Y-0.07200
X0.07500 Y-0.07100
X0.07600 Y-0.07100
X0.07600 Y-0.07000
X0.07700 Y-0.07000
X0.07700 Y-0.06900
X0.07800 Y-0.06900
X0.07800 Y-0.06800
X0.08000 Y-0.06800
X0.08000 Y-0.06700
X0.08100 Y-0.06700
X0.08100 Y-0.06600
X0.08200 Y-0.06600
X0.08200 Y-0.06500
X0.08300 Y-0.06500
X0.08300 Y-0.06400
X0.08500 Y-0.06400
X0.08500 Y-0.06300
X0.08600 Y-0.06300
X0.08600 Y-0.06200
X0.08800 Y-0.06200
X0.08800 Y-0.06100
X0.09000 Y-0.06100
X0.09000 Y-0.06000
X0.09200 Y-0.06000
X0.09200 Y-0.05900
X0.09400 Y-0.05900
X0.09400 Y-0.05800
X0.09600 Y-0.05800
X0.09600 Y-0.05700
X0.09700 Y-0.05700
X0.09700 Y-0.05600
X0.10000 Y-0.05600
X0.10000 Y-0.05500
X0.10400 Y-0.05500
X0.10400 Y-0.05400
X0.10700 Y-0.05400
X0.10700 Y-0.05300
X0.11000 Y-0.05300
X0.11000 Y-0.05200
X0.11400 Y-0.05200
X0.11400 Y-0.05100
X0.12400 Y-0.05100
X0.12400 Y-0.05000
X0.14500 Y-0.05000
X0.14500 Y-0.05100
X0.15500 Y-0.05100
X0.15500 Y-0.05200
X0.15900 Y-0.05200
X0.15900 Y-0.05300
X0.16200 Y-0.05300
X0.16200 Y-0.05400
X0.16500 Y-0.05400
X0.16500 Y-0.05500
X0.16900 Y-0.05500
X0.16900 Y-0.05600
G04 P0 ( dwell for no time -- G64 should not smooth over this point )
G00 Z0.10000 ( retract )

G00 X0.83300 Y-0.05600 ( rapid move to begin. )
G01 Z-0.00500 F3.50000 ( plunge. )
G04 P0 ( dwell for no time -- G64 should not smooth over this point )
X0.83300 Y-0.05600
X0.83600 Y-0.05600
X0.83600 Y-0.05700
X0.83700 Y-0.05700
X0.83700 Y-0.05800
X0.83900 Y-0.05800
X0.83900 Y-0.05900
X0.84100 Y-0.05900
X0.84100 Y-0.06000
X0.84300 Y-0.06000
X0.84300 Y-0.06100
X0.84500 Y-0.06100
X0.84500 Y-0.06200
X0.84700 Y-0.06200
X0.84700 Y-0.06300
X0.84800 Y-0.06300
X0.84800 Y-0.06400
X0.85000 Y-0.06400
X0.85000 Y-0.06500
X0.85100 Y-0.06500
X0.85100 Y-0.06600
X0.85200 Y-0.06600
X0.85200 Y-0.06700
X0.85300 Y-0.06700
X0.85300 Y-0.06800
X0.85500 Y-0.06800
X0.85500 Y-0.06900
X0.85600 Y-0.06900
X0.85600 Y-0.07000
X0.85700 Y-0.07000
X0.85700 Y-0.07100
X0.85800 Y-0.07100
X0.85800 Y-0.07200
X0.85900 Y-0.07200
X0.85900 Y-0.07300
X0.86100 Y-0.07300
X0.86100 Y-0.07500
X0.86200 Y-0.07500
X0.86200 Y-0.07600
X0.86300 Y-0.07600
X0.86300 Y-0.07700
X0.86400 Y-0.07700
X0.86400 Y-0.07800
X0.86500 Y-0.07800
X0.86500 Y-0.07900
X0.86600 Y-0.07900
X0.86600 Y-0.08100
X0.86700 Y-0.08100
X0.86700 Y-0.08200
X0.86800 Y-0.08200
X0.86800 Y-0.08300
X0.86900 Y-0.08300
X0.86900 Y-0.08400
X0.87000 Y-0.08400
X0.87000 Y-0.08600
X0.87100 Y-0.08600
X0.87100 Y-0.08700
X0.87200 Y-0.08700
X0.87200 Y-0.08900
X0.87300 Y-0.08900
X0.87300 Y-0.09100
X0.87400 Y-0.09100
X0.87400 Y-0.09300
X0.87500 Y-0.09300
X0.87500 Y-0.09500
X0.87600 Y-0.09500
X0.87600 Y-0.09700
X0.87700 Y-0.09700
X0.87700 Y-0.09800
X0.87800 Y-0.09800
X0.87800 Y-0.10100
X0.87900 Y-0.10100
X0.87900 Y-0.10500
X0.88000 Y-0.10500
X0.88000 Y-0.10800
X0.88100 Y-0.10800
X0.88100 Y-0.11100
X0.88200 Y-0.11100
X0.88200 Y-0.11500
X0.88300 Y-0.11500
X0.88300 Y-0.12500
X0.88400 Y-0.12500
X0.88400 Y-0.14600
X0.88300 Y-0.14600
X0.88300 Y-0.15600
X0.88200 Y-0.15600
X0.88200 Y-0.16000
X0.88100 Y-0.16000
X0.88100 Y-0.16300
X0.88000 Y-0.16300
X0.88000 Y-0.16600
X0.87900 Y-0.16600
X0.87900 Y-0.17000
X0.87800 Y-0.17000
X0.87800 Y-0.17300
X0.87700 Y-0.17300
X0.87700 Y-0.17400
X0.87600 Y-0.17400
X0.87600 Y-0.17600
X0.87500 Y-0.17600
X0.87500 Y-0.17800
X0.87400 Y-0.17800
X0.87400 Y-0.18000
X0.87300 Y-0.18000
X0.87300 Y-0.18200
X0.87200 Y-0.18200
X0.87200 Y-0.18400
X0.87100 Y-0.18400
X0.87100 Y-0.18500
X0.87000 Y-0.18500
X0.87000 Y-0.18700
X0.86900 Y-0.18700
X0.86900 Y-0.18800
X0.86800 Y-0.18800
X0.86800 Y-0.18900
X0.86700 Y-0.18900
X0.86700 Y-0.19000
X0.86600 Y-0.19000
X0.86600 Y-0.19200
X0.86500 Y-0.19200
X0.86500 Y-0.19300
X0.86400 Y-0.19300
X0.86400 Y-0.19400
X0.86300 Y-0.19400
X0.86300 Y-0.19500
X0.86200 Y-0.19500
X0.86200 Y-0.19600
X0.86100 Y-0.19600
X0.86100 Y-0.19800
X0.85900 Y-0.19800
X0.85900 Y-0.19900
X0.85800 Y-0.19900
X0.85800 Y-0.20000
X0.85700 Y-0.20000
X0.85700 Y-0.20100
X0.85600 Y-0.20100
X0.85600 Y-0.20200
X0.85500 Y-0.20200
X0.85500 Y-0.20300
X0.85300 Y-0.20300
X0.85300 Y-0.20400
X0.85200 Y-0.20400
X0.85200 Y-0.20500
X0.85100 Y-0.20500
X0.85100 Y-0.20600
X0.85000 Y-0.20600
X0.85000 Y-0.20700
X0.84800 Y-0.20700
X0.84800 Y-0.20800
X0.84700 Y-0.20800
X0.84700 Y-0.20900
X0.84500 Y-0.20900
X0.84500 Y-0.21000
X0.84300 Y-0.21000
X0.84300 Y-0.21100
X0.84100 Y-0.21100
X0.84100 Y-0.21200
X0.83900 Y-0.21200
X0.83900 Y-0.21300
X0.83700 Y-0.21300
X0.83700 Y-0.21400
X0.83600 Y-0.21400
X0.83600 Y-0.21500
X0.83300 Y-0.21500
X0.83300 Y-0.21600
X0.82900 Y-0.21600
X0.82900 Y-0.21700
X0.82600 Y-0.21700
X0.82600 Y-0.21800
X0.82300 Y-0.21800
X0.82300 Y-0.21900
X0.81900 Y-0.21900
X0.81900 Y-0.22000
X0.80900 Y-0.22000
X0.80900 Y-0.22100
X0.78800 Y-0.22100
X0.78800 Y-0.22000
X0.77800 Y-0.22000
X0.77800 Y-0.21900
X0.77400 Y-0.21900
X0.77400 Y-0.21800
X0.77100 Y-0.21800
X0.77100 Y-0.21700
X0.76800 Y-0.21700
X0.76800 Y-0.21600
X0.76400 Y-0.21600
X0.76400 Y-0.21500
X0.76100 Y-0.21500
X0.76100 Y-0.21400
X0.76000 Y-0.21400
X0.76000 Y-0.21300
X0.75800 Y-0.21300
X0.75800 Y-0.21200
X0.75600 Y-0.21200
X0.75600 Y-0.21100
X0.75400 Y-0.21100
X0.75400 Y-0.21000
X0.75200 Y-0.21000
X0.75200 Y-0.20900
X0.75000 Y-0.20900
X0.75000 Y-0.20800
X0.74900 Y-0.20800
X0.74900 Y-0.20700
X0.74700 Y-0.20700
X0.74700 Y-0.20600
X0.74600 Y-0.20600
X0.74600 Y-0.20500
X0.74500 Y-0.20500
X0.74500 Y-0.20400
X0.74400 Y-0.20400
X0.74400 Y-0.20300
X0.74200 Y-0.20300
X0.74200 Y-0.20200
X0.74100 Y-0.20200
X0.74100 Y-0.20100
X0.74000 Y-0.20100
X0.74000 Y-0.20000
X0.73900 Y-0.20000
X0.73900 Y-0.19900
X0.73800 Y-0.19900
X0.73800 Y-0.19800
X0.73600 Y-0.19800
X0.73600 Y-0.19600
X0.73500 Y-0.19600
X0.73500 Y-0.19500
X0.73400 Y-0.19500
X0.73400 Y-0.19400
X0.73300 Y-0.19400
X0.73300 Y-0.19300
X0.73200 Y-0.19300
X0.73200 Y-0.19200
X0.73100 Y-0.19200
X0.73100 Y-0.19000
X0.73000 Y-0.19000
X0.73000 Y-0.18900
X0.72900 Y-0.18900
X0.72900 Y-0.18800
X0.72800 Y-0.18800
X0.72800 Y-0.18700
X0.72700 Y-0.18700
X0.72700 Y-0.18500
X0.72600 Y-0.18500
X0.72600 Y-0.18400
X0.72500 Y-0.18400
X0.72500 Y-0.18200
X0.72400 Y-0.18200
X0.72400 Y-0.18000
X0.72300 Y-0.18000
X0.72300 Y-0.17800
X0.72200 Y-0.17800
X0.72200 Y-0.17600
X0.72100 Y-0.17600
X0.72100 Y-0.17400
X0.72000 Y-0.17400
X0.72000 Y-0.17300
X0.71900 Y-0.17300
X0.71900 Y-0.17000
X0.71800 Y-0.17000
X0.71800 Y-0.16600
X0.71700 Y-0.16600
X0.71700 Y-0.16300
X0.71600 Y-0.16300
X0.71600 Y-0.16000
X0.71500 Y-0.16000
X0.71500 Y-0.15600
X0.71400 Y-0.15600
X0.71400 Y-0.14600
X0.71300 Y-0.14600
X0.71300 Y-0.12500
X0.71400 Y-0.12500
X0.71400 Y-0.11500
X0.71500 Y-0.11500
X0.71500 Y-0.11100
X0.71600 Y-0.11100
X0.71600 Y-0.10800
X0.71700 Y-0.10800
X0.71700 Y-0.10500
X0.71800 Y-0.10500
X0.71800 Y-0.10100
X0.71900 Y-0.10100
X0.71900 Y-0.09800
X0.72000 Y-0.09800
X0.72000 Y-0.09700
X0.72100 Y-0.09700
X0.72100 Y-0.09500
X0.72200 Y-0.09500
X0.72200 Y-0.09300
X0.72300 Y-0.09300
X0.72300 Y-0.09100
X0.72400 Y-0.09100
X0.72400 Y-0.08900
X0.72500 Y-0.08900
X0.72500 Y-0.08700
X0.72600 Y-0.08700
X0.72600 Y-0.08600
X0.72700 Y-0.08600
X0.72700 Y-0.08400
X0.72800 Y-0.08400
X0.72800 Y-0.08300
X0.72900 Y-0.08300
X0.72900 Y-0.08200
X0.73000 Y-0.08200
X0.73000 Y-0.08100
X0.73100 Y-0.08100
X0.73100 Y-0.07900
X0.73200 Y-0.07900
X0.73200 Y-0.07800
X0.73300 Y-0.07800
X0.73300 Y-0.07700
X0.73400 Y-0.07700
X0.73400 Y-0.07600
X0.73500 Y-0.07600
X0.73500 Y-0.07500
X0.73600 Y-0.07500
X0.73600 Y-0.07300
X0.73800 Y-0.07300
X0.73800 Y-0.07200
X0.73900 Y-0.07200
X0.73900 Y-0.07100
X0.74000 Y-0.07100
X0.74000 Y-0.07000
X0.74100 Y-0.07000
X0.74100 Y-0.06900
X0.74200 Y-0.06900
X0.74200 Y-0.06800
X0.74400 Y-0.06800
X0.74400 Y-0.06700
X0.74500 Y-0.06700
X0.74500 Y-0.06600
X0.74600 Y-0.06600
X0.74600 Y-0.06500
X0.74700 Y-0.06500
X0.74700 Y-0.06400
X0.74900 Y-0.06400
X0.74900 Y-0.06300
X0.75000 Y-0.06300
X0.75000 Y-0.06200
X0.75200 Y-0.06200
X0.75200 Y-0.06100
X0.75400 Y-0.06100
X0.75400 Y-0.06000
X0.75600 Y-0.06000
X0.75600 Y-0.05900
X0.75800 Y-0.05900
X0.75800 Y-0.05800
X0.76000 Y-0.05800
X0.76000 Y-0.05700
X0.76100 Y-0.05700
X0.76100 Y-0.05600
X0.76400 Y-0.05600
X0.76400 Y-0.05500
X0.76800 Y-0.05500
X0.76800 Y-0.05400
X0.77100 Y-0.05400
X0.77100 Y-0.05300
X0.77400 Y-0.05300
X0.77400 Y-0.05200
X0.77800 Y-0.05200
X0.77800 Y-0.05100
X0.78800 Y-0.05100
X0.78800 Y-0.05000
X0.80900 Y-0.05000
X0.80900 Y-0.05100
X0.81900 Y-0.05100
X0.81900 Y-0.05200
X0.82300 Y-0.05200
X0.82300 Y-0.05300
X0.82600 Y-0.05300
X0.82600 Y-0.05400
X0.82900 Y-0.05400
X0.82900 Y-0.05500
X0.83300 Y-0.05500
X0.83300 Y-0.05600
G04 P0 ( dwell for no time -- G64 should not smooth over this point )
G00 Z0.10000 ( retract )

G00 X0.32600 Y-0.18900 ( rapid move to begin. )
G01 Z-0.00500 F3.50000 ( plunge. )
G04 P0 ( dwell for no time -- G64 should not smooth over this point )
X0.32600 Y-0.18900
X0.32700 Y-0.18900
X0.32700 Y-0.19000
X0.32900 Y-0.19000
X0.32900 Y-0.19200
X0.33000 Y-0.19200
X0.33000 Y-0.19300
X0.33100 Y-0.19300
X0.33100 Y-0.19400
X0.33200 Y-0.19400
X0.33200 Y-0.19600
X0.33300 Y-0.19600
X0.33300 Y-0.19700
X0.33400 Y-0.19700
X0.33400 Y-0.19900
X0.33500 Y-0.19900
X0.33500 Y-0.20100
X0.33600 Y-0.20100
X0.33600 Y-0.20600
X0.33700 Y-0.20600
X0.33700 Y-0.21200
X0.33800 Y-0.21200
X0.33800 Y-0.28300
X0.33700 Y-0.28300
X0.33700 Y-0.28900
X0.33600 Y-0.28900
X0.33600 Y-0.29400
X0.33500 Y-0.29400
X0.33500 Y-0.29600
X0.33400 Y-0.29600
X0.33400 Y-0.29800
X0.33300 Y-0.29800
X0.33300 Y-0.29900
X0.33200 Y-0.29900
X0.33200 Y-0.30100
X0.33100 Y-0.30100
X0.33100 Y-0.30200
X0.33000 Y-0.30200
X0.33000 Y-0.30300
X0.32900 Y-0.30300
X0.32900 Y-0.30500
X0.32700 Y-0.30500
X0.32700 Y-0.30600
X0.32600 Y-0.30600
X0.32600 Y-0.30700
X0.32400 Y-0.30700
X0.32400 Y-0.30800
X0.32200 Y-0.30800
X0.32200 Y-0.30900
X0.32100 Y-0.30900
X0.32100 Y-0.31000
X0.31900 Y-0.31000
X0.31900 Y-0.31100
X0.31300 Y-0.31100
X0.31300 Y-0.31200
X0.29200 Y-0.31200
X0.29200 Y-0.31100
X0.28600 Y-0.31100
X0.28600 Y-0.31000
X0.28400 Y-0.31000
X0.28400 Y-0.30900
X0.28300 Y-0.30900
X0.28300 Y-0.30800
X0.28100 Y-0.30800
X0.28100 Y-0.30700
X0.27900 Y-0.30700
X0.27900 Y-0.30600
X0.27800 Y-0.30600
X0.27800 Y-0.30500
X0.27600 Y-0.30500
X0.27600 Y-0.30300
X0.27500 Y-0.30300
X0.27500 Y-0.30200
X0.27400 Y-0.30200
X0.27400 Y-0.30100
X0.27300 Y-0.30100
X0.27300 Y-0.29900
X0.27200 Y-0.29900
X0.27200 Y-0.29800
X0.27100 Y-0.29800
X0.27100 Y-0.29600
X0.27000 Y-0.29600
X0.27000 Y-0.29400
X0.26900 Y-0.29400
X0.26900 Y-0.28900
X0.26800 Y-0.28900
X0.26800 Y-0.28300
X0.26700 Y-0.28300
X0.26700 Y-0.21200
X0.26800 Y-0.21200
X0.26800 Y-0.20600
X0.26900 Y-0.20600
X0.26900 Y-0.20100
X0.27000 Y-0.20100
X0.27000 Y-0.19800
X0.27100 Y-0.19800
X0.27100 Y-0.19700
X0.27200 Y-0.19700
X0.27200 Y-0.19600
X0.27300 Y-0.19600
X0.27300 Y-0.19400
X0.27400 Y-0.19400
X0.27400 Y-0.19300
X0.27500 Y-0.19300
X0.27500 Y-0.19200
X0.27600 Y-0.19200
X0.27600 Y-0.19000
X0.27800 Y-0.19000
X0.27800 Y-0.18900
X0.27900 Y-0.18900
X0.27900 Y-0.18800
X0.28100 Y-0.18800
X0.28100 Y-0.18700
X0.28300 Y-0.18700
X0.28300 Y-0.18600
X0.28400 Y-0.18600
X0.28400 Y-0.18500
X0.28600 Y-0.18500
X0.28600 Y-0.18400
X0.29200 Y-0.18400
X0.29200 Y-0.18300
X0.31300 Y-0.18300
X0.31300 Y-0.18400
X0.31900 Y-0.18400
X0.31900 Y-0.18500
X0.32100 Y-0.18500
X0.32100 Y-0.18600
X0.32200 Y-0.18600
X0.32200 Y-0.18700
X0.32400 Y-0.18700
X0.32400 Y-0.18800
X0.32600 Y-0.18800
X0.32600 Y-0.18900
G04 P0 ( dwell for no time -- G64 should not smooth over this point )
G00 Z0.10000 ( retract )

G00 X0.42600 Y-0.18900 ( rapid move to begin. )
G01 Z-0.00500 F3.50000 ( plunge. )
G04 P0 ( dwell for no time -- G64 should not smooth over this point )
X0.42600 Y-0.18900
X0.42700 Y-0.18900
X0.42700 Y-0.19000
X0.42900 Y-0.19000
X0.42900 Y-0.19200
X0.43000 Y-0.19200
X0.43000 Y-0.19300
X0.43100 Y-0.19300
X0.43100 Y-0.19400
X0.43200 Y-0.19400
X0.43200 Y-0.19600
X0.43300 Y-0.19600
X0.43300 Y-0.19700
X0.43400 Y-0.19700
X0.43400 Y-0.19900
X0.43500 Y-0.19900
X0.43500 Y-0.20100
X0.43600 Y-0.20100
X0.43600 Y-0.20600
X0.43700 Y-0.20600
X0.43700 Y-0.21200
X0.43800 Y-0.21200
X0.43800 Y-0.28300
X0.43700 Y-0.28300
X0.43700 Y-0.28900
X0.43600 Y-0.28900
X0.43600 Y-0.29400
X0.43500 Y-0.29400
X0.43500 Y-0.29600
X0.43400 Y-0.29600
X0.43400 Y-0.29800
X0.43300 Y-0.29800
X0.43300 Y-0.29900
X0.43200 Y-0.29900
X0.43200 Y-0.30100
X0.43100 Y-0.30100
X0.43100 Y-0.30200
X0.43000 Y-0.30200
X0.43000 Y-0.30300
X0.42900 Y-0.30300
X0.42900 Y-0.30500
X0.42700 Y-0.30500
X0.42700 Y-0.30600
X0.42600 Y-0.30600
X0.42600 Y-0.30700
X0.42400 Y-0.30700
X0.42400 Y-0.30800
X0.42200 Y-0.30800
X0.42200 Y-0.30900
X0.42100 Y-0.30900
X0.42100 Y-0.31000
X0.41900 Y-0.31000
X0.41900 Y-0.31100
X0.41300 Y-0.31100
X0.41300 Y-0.31200
X0.39200 Y-0.31200
X0.39200 Y-0.31100
X0.38600 Y-0.31100
X0.38600 Y-0.31000
X0.38400 Y-0.31000
X0.38400 Y-0.30900
X0.38300 Y-0.30900
X0.38300 Y-0.30800
X0.38100 Y-0.30800
X0.38100 Y-0.30700
X0.37900 Y-0.30700
X0.37900 Y-0.30600
X0.37800 Y-0.30600
X0.37800 Y-0.30500
X0.37600 Y-0.30500
X0.37600 Y-0.30300
X0.37500 Y-0.30300
X0.37500 Y-0.30200
X0.37400 Y-0.30200
X0.37400 Y-0.30100
X0.37300 Y-0.30100
X0.37300 Y-0.29900
X0.37200 Y-0.29900
X0.37200 Y-0.29800
X0.37100 Y-0.29800
X0.37100 Y-0.29600
X0.37000 Y-0.29600
X0.37000 Y-0.29400
X0.36900 Y-0.29400
X0.36900 Y-0.28900
X0.36800 Y-0.28900
X0.36800 Y-0.28300
X0.36700 Y-0.28300
X0.36700 Y-0.21200
X0.36800 Y-0.21200
X0.36800 Y-0.20600
X0.36900 Y-0.20600
X0.36900 Y-0.20100
X0.37000 Y-0.20100
X0.37000 Y-0.19800
X0.37100 Y-0.19800
X0.37100 Y-0.19700
X0.37200 Y-0.19700
X0.37200 Y-0.19600
X0.37300 Y-0.19600
X0.37300 Y-0.19400
X0.37400 Y-0.19400
X0.37400 Y-0.19300
X0.37500 Y-0.19300
X0.37500 Y-0.19200
X0.37600 Y-0.19200
X0.37600 Y-0.19000
X0.37800 Y-0.19000
X0.37800 Y-0.18900
X0.37900 Y-0.18900
X0.37900 Y-0.18800
X0.38100 Y-0.18800
X0.38100 Y-0.18700
X0.38300 Y-0.18700
X0.38300 Y-0.18600
X0.38400 Y-0.18600
X0.38400 Y-0.18500
X0.38600 Y-0.18500
X0.38600 Y-0.18400
X0.39200 Y-0.18400
X0.39200 Y-0.18300
X0.41300 Y-0.18300
X0.41300 Y-0.18400
X0.41900 Y-0.18400
X0.41900 Y-0.18500
X0.42100 Y-0.18500
X0.42100 Y-0.18600
X0.42200 Y-0.18600
X0.42200 Y-0.18700
X0.42400 Y-0.18700
X0.42400 Y-0.18800
X0.42600 Y-0.18800
X0.42600 Y-0.18900
G04 P0 ( dwell for no time -- G64 should not smooth over this point )
G00 Z0.10000 ( retract )

G00 X0.52600 Y-0.18900 ( rapid move to begin. )
G01 Z-0.00500 F3.50000 ( plunge. )
G04 P0 ( dwell for no time -- G64 should not smooth over this point )
X0.52600 Y-0.18900
X0.52700 Y-0.18900
X0.52700 Y-0.19000
X0.52900 Y-0.19000
X0.52900 Y-0.19200
X0.53000 Y-0.19200
X0.53000 Y-0.19300
X0.53100 Y-0.19300
X0.53100 Y-0.19400
X0.53200 Y-0.19400
X0.53200 Y-0.19600
X0.53300 Y-0.19600
X0.53300 Y-0.19700
X0.53400 Y-0.19700
X0.53400 Y-0.19900
X0.53500 Y-0.19900
X0.53500 Y-0.20100
X0.53600 Y-0.20100
X0.53600 Y-0.20600
X0.53700 Y-0.20600
X0.53700 Y-0.21200
X0.53800 Y-0.21200
X0.53800 Y-0.28300
X0.53700 Y-0.28300
X0.53700 Y-0.28900
X0.53600 Y-0.28900
X0.53600 Y-0.29400
X0.53500 Y-0.29400
X0.53500 Y-0.29600
X0.53400 Y-0.29600
X0.53400 Y-0.29800
X0.53300 Y-0.29800
X0.53300 Y-0.29900
X0.53200 Y-0.29900
X0.53200 Y-0.30100
X0.53100 Y-0.30100
X0.53100 Y-0.30200
X0.53000 Y-0.30200
X0.53000 Y-0.30300
X0.52900 Y-0.30300
X0.52900 Y-0.30500
X0.52700 Y-0.30500
X0.52700 Y-0.30600
X0.52600 Y-0.30600
X0.52600 Y-0.30700
X0.52400 Y-0.30700
X0.52400 Y-0.30800
X0.52200 Y-0.30800
X0.52200 Y-0.30900
X0.52100 Y-0.30900
X0.52100 Y-0.31000
X0.51900 Y-0.31000
X0.51900 Y-0.31100
X0.51300 Y-0.31100
X0.51300 Y-0.31200
X0.49200 Y-0.31200
X0.49200 Y-0.31100
X0.48600 Y-0.31100
X0.48600 Y-0.31000
X0.48400 Y-0.31000
X0.48400 Y-0.30900
X0.48300 Y-0.30900
X0.48300 Y-0.30800
X0.48100 Y-0.30800
X0.48100 Y-0.30700
X0.47900 Y-0.30700
X0.47900 Y-0.30600
X0.47800 Y-0.30600
X0.47800 Y-0.30500
X0.47600 Y-0.30500
X0.47600 Y-0.30300
X0.47500 Y-0.30300
X0.47500 Y-0.30200
X0.47400 Y-0.30200
X0.47400 Y-0.30100
X0.47300 Y-0.30100
X0.47300 Y-0.29900
X0.47200 Y-0.29900
X0.47200 Y-0.29800
X0.47100 Y-0.29800
X0.47100 Y-0.29600
X0.47000 Y-0.29600
X0.47000 Y-0.29400
X0.46900 Y-0.29400
X0.46900 Y-0.28900
X0.46800 Y-0.28900
X0.46800 Y-0.28300
X0.46700 Y-0.28300
X0.46700 Y-0.21200
X0.46800 Y-0.21200
X0.46800 Y-0.20600
X0.46900 Y-0.20600
X0.46900 Y-0.20100
X0.47000 Y-0.20100
X0.47000 Y-0.19800
X0.47100 Y-0.19800
X0.47100 Y-0.19700
X0.47200 Y-0.19700
X0.47200 Y-0.19600
X0.47300 Y-0.19600
X0.47300 Y-0.19400
X0.47400 Y-0.19400
X0.47400 Y-0.19300
X0.47500 Y-0.19300
X0.47500 Y-0.19200
X0.47600 Y-0.19200
X0.47600 Y-0.19000
X0.47800 Y-0.19000
X0.47800 Y-0.18900
X0.47900 Y-0.18900
X0.47900 Y-0.18800
X0.48100 Y-0.18800
X0.48100 Y-0.18700
X0.48300 Y-0.18700
X0.48300 Y-0.18600
X0.48400 Y-0.18600
X0.48400 Y-0.18500
X0.48600 Y-0.18500
X0.48600 Y-0.18400
X0.49200 Y-0.18400
X0.49200 Y-0.18300
X0.51300 Y-0.18300
X0.51300 Y-0.18400
X0.51900 Y-0.18400
X0.51900 Y-0.18500
X0.52100 Y-0.18500
X0.52100 Y-0.18600
X0.52200 Y-0.18600
X0.52200 Y-0.18700
X0.52400 Y-0.18700
X0.52400 Y-0.18800
X0.52600 Y-0.18800
X0.52600 Y-0.18900
G04 P0 ( dwell for no time -- G64 should not smooth over this point )
G00 Z0.10000 ( retract )

G00 X0.62600 Y-0.18900 ( rapid move to begin. )
G01 Z-0.00500 F3.50000 ( plunge. )
G04 P0 ( dwell for no time -- G64 should not smooth over this point )
X0.62600 Y-0.18900
X0.62700 Y-0.18900
X0.62700 Y-0.19000
X0.62900 Y-0.19000
X0.62900 Y-0.19200
X0.63000 Y-0.19200
X0.63000 Y-0.19300
X0.63100 Y-0.19300
X0.63100 Y-0.19400
X0.63200 Y-0.19400
X0.63200 Y-0.19600
X0.63300 Y-0.19600
X0.63300 Y-0.19700
X0.63400 Y-0.19700
X0.63400 Y-0.19900
X0.63500 Y-0.19900
X0.63500 Y-0.20100
X0.63600 Y-0.20100
X0.63600 Y-0.20600
X0.63700 Y-0.20600
X0.63700 Y-0.21200
X0.63800 Y-0.21200
X0.63800 Y-0.28300
X0.63700 Y-0.28300
X0.63700 Y-0.28900
X0.63600 Y-0.28900
X0.63600 Y-0.29400
X0.63500 Y-0.29400
X0.63500 Y-0.29600
X0.63400 Y-0.29600
X0.63400 Y-0.29800
X0.63300 Y-0.29800
X0.63300 Y-0.29900
X0.63200 Y-0.29900
X0.63200 Y-0.30100
X0.63100 Y-0.30100
X0.63100 Y-0.30200
X0.63000 Y-0.30200
X0.63000 Y-0.30300
X0.62900 Y-0.30300
X0.62900 Y-0.30500
X0.62700 Y-0.30500
X0.62700 Y-0.30600
X0.62600 Y-0.30600
X0.62600 Y-0.30700
X0.62400 Y-0.30700
X0.62400 Y-0.30800
X0.62200 Y-0.30800
X0.62200 Y-0.30900
X0.62100 Y-0.30900
X0.62100 Y-0.31000
X0.61900 Y-0.31000
X0.61900 Y-0.31100
X0.61300 Y-0.31100
X0.61300 Y-0.31200
X0.59200 Y-0.31200
X0.59200 Y-0.31100
X0.58600 Y-0.31100
X0.58600 Y-0.31000
X0.58400 Y-0.31000
X0.58400 Y-0.30900
X0.58300 Y-0.30900
X0.58300 Y-0.30800
X0.58100 Y-0.30800
X0.58100 Y-0.30700
X0.57900 Y-0.30700
X0.57900 Y-0.30600
X0.57800 Y-0.30600
X0.57800 Y-0.30500
X0.57600 Y-0.30500
X0.57600 Y-0.30300
X0.57500 Y-0.30300
X0.57500 Y-0.30200
X0.57400 Y-0.30200
X0.57400 Y-0.30100
X0.57300 Y-0.30100
X0.57300 Y-0.29900
X0.57200 Y-0.29900
X0.57200 Y-0.29800
X0.57100 Y-0.29800
X0.57100 Y-0.29600
X0.57000 Y-0.29600
X0.57000 Y-0.29400
X0.56900 Y-0.29400
X0.56900 Y-0.28900
X0.56800 Y-0.28900
X0.56800 Y-0.28300
X0.56700 Y-0.28300
X0.56700 Y-0.21200
X0.56800 Y-0.21200
X0.56800 Y-0.20600
X0.56900 Y-0.20600
X0.56900 Y-0.20100
X0.57000 Y-0.20100
X0.57000 Y-0.19800
X0.57100 Y-0.19800
X0.57100 Y-0.19700
X0.57200 Y-0.19700
X0.57200 Y-0.19600
X0.57300 Y-0.19600
X0.57300 Y-0.19400
X0.57400 Y-0.19400
X0.57400 Y-0.19300
X0.57500 Y-0.19300
X0.57500 Y-0.19200
X0.57600 Y-0.19200
X0.57600 Y-0.19000
X0.57800 Y-0.19000
X0.57800 Y-0.18900
X0.57900 Y-0.18900
X0.57900 Y-0.18800
X0.58100 Y-0.18800
X0.58100 Y-0.18700
X0.58300 Y-0.18700
X0.58300 Y-0.18600
X0.58400 Y-0.18600
X0.58400 Y-0.18500
X0.58600 Y-0.18500
X0.58600 Y-0.18400
X0.59200 Y-0.18400
X0.59200 Y-0.18300
X0.61300 Y-0.18300
X0.61300 Y-0.18400
X0.61900 Y-0.18400
X0.61900 Y-0.18500
X0.62100 Y-0.18500
X0.62100 Y-0.18600
X0.62200 Y-0.18600
X0.62200 Y-0.18700
X0.62400 Y-0.18700
X0.62400 Y-0.18800
X0.62600 Y-0.18800
X0.62600 Y-0.18900
G04 P0 ( dwell for no time -- G64 should not smooth over this point )
G00 Z0.10000 ( retract )

G00 X0.62700 Y-0.41400 ( rapid move to begin. )
G01 Z-0.00500 F3.50000 ( plunge. )
G04 P0 ( dwell for no time -- G64 should not smooth over this point )
X0.62700 Y-0.41400
X0.62800 Y-0.41400
X0.62800 Y-0.41500
X0.63000 Y-0.41500
X0.63000 Y-0.41600
X0.63100 Y-0.41600
X0.63100 Y-0.41700
X0.63200 Y-0.41700
X0.63200 Y-0.41900
X0.63300 Y-0.41900
X0.63300 Y-0.42000
X0.63400 Y-0.42000
X0.63400 Y-0.42100
X0.63500 Y-0.42100
X0.63500 Y-0.42300
X0.63600 Y-0.42300
X0.63600 Y-0.42400
X0.63700 Y-0.42400
X0.63700 Y-0.42500
X0.63800 Y-0.42500
X0.63800 Y-0.42800
X0.63900 Y-0.42800
X0.63900 Y-0.43200
X0.64000 Y-0.43200
X0.64000 Y-0.45900
X0.63900 Y-0.45900
X0.63900 Y-0.46300
X0.63800 Y-0.46300
X0.63800 Y-0.46500
X0.63700 Y-0.46500
X0.63700 Y-0.46700
X0.63600 Y-0.46700
X0.63600 Y-0.46800
X0.63500 Y-0.46800
X0.63500 Y-0.47000
X0.63400 Y-0.47000
X0.63400 Y-0.47100
X0.63300 Y-0.47100
X0.63300 Y-0.47200
X0.63200 Y-0.47200
X0.63200 Y-0.47400
X0.63100 Y-0.47400
X0.63100 Y-0.47500
X0.63000 Y-0.47500
X0.63000 Y-0.47600
X0.62800 Y-0.47600
X0.62800 Y-0.47700
X0.62700 Y-0.47700
X0.62700 Y-0.47800
X0.62500 Y-0.47800
X0.62500 Y-0.47900
X0.62300 Y-0.47900
X0.62300 Y-0.48000
X0.62200 Y-0.48000
X0.62200 Y-0.48100
X0.62000 Y-0.48100
X0.62000 Y-0.48200
X0.61400 Y-0.48200
X0.61400 Y-0.48300
X0.59100 Y-0.48300
X0.59100 Y-0.48200
X0.58500 Y-0.48200
X0.58500 Y-0.48100
X0.58300 Y-0.48100
X0.58300 Y-0.48000
X0.58200 Y-0.48000
X0.58200 Y-0.47900
X0.58000 Y-0.47900
X0.58000 Y-0.47800
X0.57800 Y-0.47800
X0.57800 Y-0.47700
X0.57700 Y-0.47700
X0.57700 Y-0.47600
X0.57500 Y-0.47600
X0.57500 Y-0.47500
X0.57400 Y-0.47500
X0.57400 Y-0.47400
X0.57300 Y-0.47400
X0.57300 Y-0.47200
X0.57200 Y-0.47200
X0.57200 Y-0.47100
X0.57100 Y-0.47100
X0.57100 Y-0.47000
X0.57000 Y-0.47000
X0.57000 Y-0.46800
X0.56900 Y-0.46800
X0.56900 Y-0.46700
X0.56800 Y-0.46700
X0.56800 Y-0.46500
X0.56700 Y-0.46500
X0.56700 Y-0.46300
X0.56600 Y-0.46300
X0.56600 Y-0.45900
X0.56500 Y-0.45900
X0.56500 Y-0.43200
X0.56600 Y-0.43200
X0.56600 Y-0.42800
X0.56700 Y-0.42800
X0.56700 Y-0.42500
X0.56800 Y-0.42500
X0.56800 Y-0.42400
X0.56900 Y-0.42400
X0.56900 Y-0.42300
X0.57000 Y-0.42300
X0.57000 Y-0.42100
X0.57100 Y-0.42100
X0.57100 Y-0.42000
X0.57200 Y-0.42000
X0.57200 Y-0.41900
X0.57300 Y-0.41900
X0.57300 Y-0.41700
X0.57400 Y-0.41700
X0.57400 Y-0.41600
X0.57500 Y-0.41600
X0.57500 Y-0.41500
X0.57700 Y-0.41500
X0.57700 Y-0.41400
X0.57800 Y-0.41400
X0.57800 Y-0.41300
X0.58000 Y-0.41300
X0.58000 Y-0.41200
X0.58200 Y-0.41200
X0.58200 Y-0.41100
X0.58300 Y-0.41100
X0.58300 Y-0.41000
X0.58500 Y-0.41000
X0.58500 Y-0.40900
X0.59100 Y-0.40900
X0.59100 Y-0.40800
X0.61400 Y-0.40800
X0.61400 Y-0.40900
X0.62000 Y-0.40900
X0.62000 Y-0.41000
X0.62200 Y-0.41000
X0.62200 Y-0.41100
X0.62300 Y-0.41100
X0.62300 Y-0.41200
X0.62500 Y-0.41200
X0.62500 Y-0.41300
X0.62700 Y-0.41300
X0.62700 Y-0.41400
G04 P0 ( dwell for no time -- G64 should not smooth over this point )
G00 Z0.10000 ( retract )

G00 X0.31400 Y-0.50100 ( rapid move to begin. )
G01 Z-0.00500 F3.50000 ( plunge. )
G04 P0 ( dwell for no time -- G64 should not smooth over this point )
X0.31400 Y-0.50100
X0.31500 Y-0.50100
X0.31500 Y-0.50200
X0.31700 Y-0.50200
X0.31700 Y-0.50400
X0.31800 Y-0.50400
X0.31800 Y-0.50500
X0.31900 Y-0.50500
X0.31900 Y-0.50600
X0.32000 Y-0.50600
X0.32000 Y-0.50800
X0.32100 Y-0.50800
X0.32100 Y-0.50900
X0.32200 Y-0.50900
X0.32200 Y-0.51100
X0.32300 Y-0.51100
X0.32300 Y-0.51300
X0.32400 Y-0.51300
X0.32400 Y-0.51800
X0.32500 Y-0.51800
X0.32500 Y-0.52400
X0.32600 Y-0.52400
X0.32600 Y-0.59500
X0.32500 Y-0.59500
X0.32500 Y-0.60100
X0.32400 Y-0.60100
X0.32400 Y-0.60600
X0.32300 Y-0.60600
X0.32300 Y-0.60800
X0.32200 Y-0.60800
X0.32200 Y-0.61000
X0.32100 Y-0.61000
X0.32100 Y-0.61100
X0.32000 Y-0.61100
X0.32000 Y-0.61300
X0.31900 Y-0.61300
X0.31900 Y-0.61400
X0.31800 Y-0.61400
X0.31800 Y-0.61500
X0.31700 Y-0.61500
X0.31700 Y-0.61700
X0.31500 Y-0.61700
X0.31500 Y-0.61800
X0.31400 Y-0.61800
X0.31400 Y-0.61900
X0.31200 Y-0.61900
X0.31200 Y-0.62000
X0.31000 Y-0.62000
X0.31000 Y-0.62100
X0.30900 Y-0.62100
X0.30900 Y-0.62200
X0.30700 Y-0.62200
X0.30700 Y-0.62300
X0.30100 Y-0.62300
X0.30100 Y-0.62400
X0.28000 Y-0.62400
X0.28000 Y-0.62300
X0.27400 Y-0.62300
X0.27400 Y-0.62200
X0.27200 Y-0.62200
X0.27200 Y-0.62100
X0.27100 Y-0.62100
X0.27100 Y-0.62000
X0.26900 Y-0.62000
X0.26900 Y-0.61900
X0.26700 Y-0.61900
X0.26700 Y-0.61800
X0.26600 Y-0.61800
X0.26600 Y-0.61700
X0.26400 Y-0.61700
X0.26400 Y-0.61500
X0.26300 Y-0.61500
X0.26300 Y-0.61400
X0.26200 Y-0.61400
X0.26200 Y-0.61300
X0.26100 Y-0.61300
X0.26100 Y-0.61100
X0.26000 Y-0.61100
X0.26000 Y-0.61000
X0.25900 Y-0.61000
X0.25900 Y-0.60800
X0.25800 Y-0.60800
X0.25800 Y-0.60600
X0.25700 Y-0.60600
X0.25700 Y-0.60100
X0.25600 Y-0.60100
X0.25600 Y-0.59500
X0.25500 Y-0.59500
X0.25500 Y-0.52400
X0.25600 Y-0.52400
X0.25600 Y-0.51800
X0.25700 Y-0.51800
X0.25700 Y-0.51300
X0.25800 Y-0.51300
X0.25800 Y-0.51000
X0.25900 Y-0.51000
X0.25900 Y-0.50900
X0.26000 Y-0.50900
X0.26000 Y-0.50800
X0.26100 Y-0.50800
X0.26100 Y-0.50600
X0.26200 Y-0.50600
X0.26200 Y-0.50500
X0.26300 Y-0.50500
X0.26300 Y-0.50400
X0.26400 Y-0.50400
X0.26400 Y-0.50200
X0.26600 Y-0.50200
X0.26600 Y-0.50100
X0.26700 Y-0.50100
X0.26700 Y-0.50000
X0.26900 Y-0.50000
X0.26900 Y-0.49900
X0.27100 Y-0.49900
X0.27100 Y-0.49800
X0.27200 Y-0.49800
X0.27200 Y-0.49700
X0.27400 Y-0.49700
X0.27400 Y-0.49600
X0.28000 Y-0.49600
X0.28000 Y-0.49500
X0.30100 Y-0.49500
X0.30100 Y-0.49600
X0.30700 Y-0.49600
X0.30700 Y-0.49700
X0.30900 Y-0.49700
X0.30900 Y-0.49800
X0.31000 Y-0.49800
X0.31000 Y-0.49900
X0.31200 Y-0.49900
X0.31200 Y-0.50000
X0.31400 Y-0.50000
X0.31400 Y-0.50100
G04 P0 ( dwell for no time -- G64 should not smooth over this point )
G00 Z0.10000 ( retract )

G00 X0.41400 Y-0.50100 ( rapid move to begin. )
G01 Z-0.00500 F3.50000 ( plunge. )
G04 P0 ( dwell for no time -- G64 should not smooth over this point )
X0.41400 Y-0.50100
X0.41500 Y-0.50100
X0.41500 Y-0.50200
X0.41700 Y-0.50200
X0.41700 Y-0.50400
X0.41800 Y-0.50400
X0.41800 Y-0.50500
X0.41900 Y-0.50500
X0.41900 Y-0.50600
X0.42000 Y-0.50600
X0.42000 Y-0.50800
X0.42100 Y-0.50800
X0.42100 Y-0.50900
X0.42200 Y-0.50900
X0.42200 Y-0.51100
X0.42300 Y-0.51100
X0.42300 Y-0.51300
X0.42400 Y-0.51300
X0.42400 Y-0.51800
X0.42500 Y-0.51800
X0.42500 Y-0.52400
X0.42600 Y-0.52400
X0.42600 Y-0.59500
X0.42500 Y-0.59500
X0.42500 Y-0.60100
X0.42400 Y-0.60100
X0.42400 Y-0.60600
X0.42300 Y-0.60600
X0.42300 Y-0.60800
X0.42200 Y-0.60800
X0.42200 Y-0.61000
X0.42100 Y-0.61000
X0.42100 Y-0.61100
X0.42000 Y-0.61100
X0.42000 Y-0.61300
X0.41900 Y-0.61300
X0.41900 Y-0.61400
X0.41800 Y-0.61400
X0.41800 Y-0.61500
X0.41700 Y-0.61500
X0.41700 Y-0.61700
X0.41500 Y-0.61700
X0.41500 Y-0.61800
X0.41400 Y-0.61800
X0.41400 Y-0.61900
X0.41200 Y-0.61900
X0.41200 Y-0.62000
X0.41000 Y-0.62000
X0.41000 Y-0.62100
X0.40900 Y-0.62100
X0.40900 Y-0.62200
X0.40700 Y-0.62200
X0.40700 Y-0.62300
X0.40100 Y-0.62300
X0.40100 Y-0.62400
X0.38000 Y-0.62400
X0.38000 Y-0.62300
X0.37400 Y-0.62300
X0.37400 Y-0.62200
X0.37200 Y-0.62200
X0.37200 Y-0.62100
X0.37100 Y-0.62100
X0.37100 Y-0.62000
X0.36900 Y-0.62000
X0.36900 Y-0.61900
X0.36700 Y-0.61900
X0.36700 Y-0.61800
X0.36600 Y-0.61800
X0.36600 Y-0.61700
X0.36400 Y-0.61700
X0.36400 Y-0.61500
X0.36300 Y-0.61500
X0.36300 Y-0.61400
X0.36200 Y-0.61400
X0.36200 Y-0.61300
X0.36100 Y-0.61300
X0.36100 Y-0.61100
X0.36000 Y-0.61100
X0.36000 Y-0.61000
X0.35900 Y-0.61000
X0.35900 Y-0.60800
X0.35800 Y-0.60800
X0.35800 Y-0.60600
X0.35700 Y-0.60600
X0.35700 Y-0.60100
X0.35600 Y-0.60100
X0.35600 Y-0.59500
X0.35500 Y-0.59500
X0.35500 Y-0.52400
X0.35600 Y-0.52400
X0.35600 Y-0.51800
X0.35700 Y-0.51800
X0.35700 Y-0.51300
X0.35800 Y-0.51300
X0.35800 Y-0.51000
X0.35900 Y-0.51000
X0.35900 Y-0.50900
X0.36000 Y-0.50900
X0.36000 Y-0.50800
X0.36100 Y-0.50800
X0.36100 Y-0.50600
X0.36200 Y-0.50600
X0.36200 Y-0.50500
X0.36300 Y-0.50500
X0.36300 Y-0.50400
X0.36400 Y-0.50400
X0.36400 Y-0.50200
X0.36600 Y-0.50200
X0.36600 Y-0.50100
X0.36700 Y-0.50100
X0.36700 Y-0.50000
X0.36900 Y-0.50000
X0.36900 Y-0.49900
X0.37100 Y-0.49900
X0.37100 Y-0.49800
X0.37200 Y-0.49800
X0.37200 Y-0.49700
X0.37400 Y-0.49700
X0.37400 Y-0.49600
X0.38000 Y-0.49600
X0.38000 Y-0.49500
X0.40100 Y-0.49500
X0.40100 Y-0.49600
X0.40700 Y-0.49600
X0.40700 Y-0.49700
X0.40900 Y-0.49700
X0.40900 Y-0.49800
X0.41000 Y-0.49800
X0.41000 Y-0.49900
X0.41200 Y-0.49900
X0.41200 Y-0.50000
X0.41400 Y-0.50000
X0.41400 Y-0.50100
G04 P0 ( dwell for no time -- G64 should not smooth over this point )
G00 Z0.10000 ( retract )

G00 X0.51400 Y-0.50100 ( rapid move to begin. )
G01 Z-0.00500 F3.50000 ( plunge. )
G04 P0 ( dwell for no time -- G64 should not smooth over this point )
X0.51400 Y-0.50100
X0.51500 Y-0.50100
X0.51500 Y-0.50200
X0.51700 Y-0.50200
X0.51700 Y-0.50400
X0.51800 Y-0.50400
X0.51800 Y-0.50500
X0.51900 Y-0.50500
X0.51900 Y-0.50600
X0.52000 Y-0.50600
X0.52000 Y-0.50800
X0.52100 Y-0.50800
X0.52100 Y-0.50900
X0.52200 Y-0.50900
X0.52200 Y-0.51100
X0.52300 Y-0.51100
X0.52300 Y-0.51300
X0.52400 Y-0.51300
X0.52400 Y-0.51800
X0.52500 Y-0.51800
X0.52500 Y-0.52400
X0.52600 Y-0.52400
X0.52600 Y-0.59500
X0.52500 Y-0.59500
X0.52500 Y-0.60100
X0.52400 Y-0.60100
X0.52400 Y-0.60600
X0.52300 Y-0.60600
X0.52300 Y-0.60800
X0.52200 Y-0.60800
X0.52200 Y-0.61000
X0.52100 Y-0.61000
X0.52100 Y-0.61100
X0.52000 Y-0.61100
X0.52000 Y-0.61300
X0.51900 Y-0.61300
X0.51900 Y-0.61400
X0.51800 Y-0.61400
X0.51800 Y-0.61500
X0.51700 Y-0.61500
X0.51700 Y-0.61700
X0.51500 Y-0.61700
X0.51500 Y-0.61800
X0.51400 Y-0.61800
X0.51400 Y-0.61900
X0.51200 Y-0.61900
X0.51200 Y-0.62000
X0.51000 Y-0.62000
X0.51000 Y-0.62100
X0.50900 Y-0.62100
X0.50900 Y-0.62200
X0.50700 Y-0.62200
X0.50700 Y-0.62300
X0.50100 Y-0.62300
X0.50100 Y-0.62400
X0.48000 Y-0.62400
X0.48000 Y-0.62300
X0.47400 Y-0.62300
X0.47400 Y-0.62200
X0.47200 Y-0.62200
X0.47200 Y-0.62100
X0.47100 Y-0.62100
X0.47100 Y-0.62000
X0.46900 Y-0.62000
X0.46900 Y-0.61900
X0.46700 Y-0.61900
X0.46700 Y-0.61800
X0.46600 Y-0.61800
X0.46600 Y-0.61700
X0.46400 Y-0.61700
X0.46400 Y-0.61500
X0.46300 Y-0.61500
X0.46300 Y-0.61400
X0.46200 Y-0.61400
X0.46200 Y-0.61300
X0.46100 Y-0.61300
X0.46100 Y-0.61100
X0.46000 Y-0.61100
X0.46000 Y-0.61000
X0.45900 Y-0.61000
X0.45900 Y-0.60800
X0.45800 Y-0.60800
X0.45800 Y-0.60600
X0.45700 Y-0.60600
X0.45700 Y-0.60100
X0.45600 Y-0.60100
X0.45600 Y-0.59500
X0.45500 Y-0.59500
X0.45500 Y-0.52400
X0.45600 Y-0.52400
X0.45600 Y-0.51800
X0.45700 Y-0.51800
X0.45700 Y-0.51300
X0.45800 Y-0.51300
X0.45800 Y-0.51000
X0.45900 Y-0.51000
X0.45900 Y-0.50900
X0.46000 Y-0.50900
X0.46000 Y-0.50800
X0.46100 Y-0.50800
X0.46100 Y-0.50600
X0.46200 Y-0.50600
X0.46200 Y-0.50500
X0.46300 Y-0.50500
X0.46300 Y-0.50400
X0.46400 Y-0.50400
X0.46400 Y-0.50200
X0.46600 Y-0.50200
X0.46600 Y-0.50100
X0.46700 Y-0.50100
X0.46700 Y-0.50000
X0.46900 Y-0.50000
X0.46900 Y-0.49900
X0.47100 Y-0.49900
X0.47100 Y-0.49800
X0.47200 Y-0.49800
X0.47200 Y-0.49700
X0.47400 Y-0.49700
X0.47400 Y-0.49600
X0.48000 Y-0.49600
X0.48000 Y-0.49500
X0.50100 Y-0.49500
X0.50100 Y-0.49600
X0.50700 Y-0.49600
X0.50700 Y-0.49700
X0.50900 Y-0.49700
X0.50900 Y-0.49800
X0.51000 Y-0.49800
X0.51000 Y-0.49900
X0.51200 Y-0.49900
X0.51200 Y-0.50000
X0.51400 Y-0.50000
X0.51400 Y-0.50100
G04 P0 ( dwell for no time -- G64 should not smooth over this point )
G00 Z0.10000 ( retract )

G00 X0.16900 Y-0.65800 ( rapid move to begin. )
G01 Z-0.00500 F3.50000 ( plunge. )
G04 P0 ( dwell for no time -- G64 should not smooth over this point )
X0.16900 Y-0.65800
X0.17200 Y-0.65800
X0.17200 Y-0.65900
X0.17300 Y-0.65900
X0.17300 Y-0.66000
X0.17500 Y-0.66000
X0.17500 Y-0.66100
X0.17700 Y-0.66100
X0.17700 Y-0.66200
X0.17900 Y-0.66200
X0.17900 Y-0.66300
X0.18100 Y-0.66300
X0.18100 Y-0.66400
X0.18300 Y-0.66400
X0.18300 Y-0.66500
X0.18400 Y-0.66500
X0.18400 Y-0.66600
X0.18600 Y-0.66600
X0.18600 Y-0.66700
X0.18700 Y-0.66700
X0.18700 Y-0.66800
X0.18800 Y-0.66800
X0.18800 Y-0.66900
X0.18900 Y-0.66900
X0.18900 Y-0.67000
X0.19100 Y-0.67000
X0.19100 Y-0.67100
X0.19200 Y-0.67100
X0.19200 Y-0.67200
X0.19300 Y-0.67200
X0.19300 Y-0.67300
X0.19400 Y-0.67300
X0.19400 Y-0.67400
X0.19500 Y-0.67400
X0.19500 Y-0.67500
X0.19700 Y-0.67500
X0.19700 Y-0.67700
X0.19800 Y-0.67700
X0.19800 Y-0.67800
X0.19900 Y-0.67800
X0.19900 Y-0.67900
X0.20000 Y-0.67900
X0.20000 Y-0.68000
X0.20100 Y-0.68000
X0.20100 Y-0.68100
X0.20200 Y-0.68100
X0.20200 Y-0.68300
X0.20300 Y-0.68300
X0.20300 Y-0.68400
X0.20400 Y-0.68400
X0.20400 Y-0.68500
X0.20500 Y-0.68500
X0.20500 Y-0.68600
X0.20600 Y-0.68600
X0.20600 Y-0.68800
X0.20700 Y-0.68800
X0.20700 Y-0.68900
X0.20800 Y-0.68900
X0.20800 Y-0.69100
X0.20900 Y-0.69100
X0.20900 Y-0.69300
X0.21000 Y-0.69300
X0.21000 Y-0.69500
X0.21100 Y-0.69500
X0.21100 Y-0.69700
X0.21200 Y-0.69700
X0.21200 Y-0.69900
X0.21300 Y-0.69900
X0.21300 Y-0.70000
X0.21400 Y-0.70000
X0.21400 Y-0.70300
X0.21500 Y-0.70300
X0.21500 Y-0.70700
X0.21600 Y-0.70700
X0.21600 Y-0.71000
X0.21700 Y-0.71000
X0.21700 Y-0.71300
X0.21800 Y-0.71300
X0.21800 Y-0.71700
X0.21900 Y-0.71700
X0.21900 Y-0.72700
X0.22000 Y-0.72700
X0.22000 Y-0.74800
X0.21900 Y-0.74800
X0.21900 Y-0.75800
X0.21800 Y-0.75800
X0.21800 Y-0.76200
X0.21700 Y-0.76200
X0.21700 Y-0.76500
X0.21600 Y-0.76500
X0.21600 Y-0.76800
X0.21500 Y-0.76800
X0.21500 Y-0.77200
X0.21400 Y-0.77200
X0.21400 Y-0.77500
X0.21300 Y-0.77500
X0.21300 Y-0.77600
X0.21200 Y-0.77600
X0.21200 Y-0.77800
X0.21100 Y-0.77800
X0.21100 Y-0.78000
X0.21000 Y-0.78000
X0.21000 Y-0.78200
X0.20900 Y-0.78200
X0.20900 Y-0.78400
X0.20800 Y-0.78400
X0.20800 Y-0.78600
X0.20700 Y-0.78600
X0.20700 Y-0.78700
X0.20600 Y-0.78700
X0.20600 Y-0.78900
X0.20500 Y-0.78900
X0.20500 Y-0.79000
X0.20400 Y-0.79000
X0.20400 Y-0.79100
X0.20300 Y-0.79100
X0.20300 Y-0.79200
X0.20200 Y-0.79200
X0.20200 Y-0.79400
X0.20100 Y-0.79400
X0.20100 Y-0.79500
X0.20000 Y-0.79500
X0.20000 Y-0.79600
X0.19900 Y-0.79600
X0.19900 Y-0.79700
X0.19800 Y-0.79700
X0.19800 Y-0.79800
X0.19700 Y-0.79800
X0.19700 Y-0.80000
X0.19500 Y-0.80000
X0.19500 Y-0.80100
X0.19400 Y-0.80100
X0.19400 Y-0.80200
X0.19300 Y-0.80200
X0.19300 Y-0.80300
X0.19200 Y-0.80300
X0.19200 Y-0.80400
X0.19100 Y-0.80400
X0.19100 Y-0.80500
X0.18900 Y-0.80500
X0.18900 Y-0.80600
X0.18800 Y-0.80600
X0.18800 Y-0.80700
X0.18700 Y-0.80700
X0.18700 Y-0.80800
X0.18600 Y-0.80800
X0.18600 Y-0.80900
X0.18400 Y-0.80900
X0.18400 Y-0.81000
X0.18300 Y-0.81000
X0.18300 Y-0.81100
X0.18100 Y-0.81100
X0.18100 Y-0.81200
X0.17900 Y-0.81200
X0.17900 Y-0.81300
X0.17700 Y-0.81300
X0.17700 Y-0.81400
X0.17500 Y-0.81400
X0.17500 Y-0.81500
X0.17300 Y-0.81500
X0.17300 Y-0.81600
X0.17200 Y-0.81600
X0.17200 Y-0.81700
X0.16900 Y-0.81700
X0.16900 Y-0.81800
X0.16500 Y-0.81800
X0.16500 Y-0.81900
X0.16200 Y-0.81900
X0.16200 Y-0.82000
X0.15900 Y-0.82000
X0.15900 Y-0.82100
X0.15500 Y-0.82100
X0.15500 Y-0.82200
X0.14500 Y-0.82200
X0.14500 Y-0.82300
X0.12400 Y-0.82300
X0.12400 Y-0.82200
X0.11400 Y-0.82200
X0.11400 Y-0.82100
X0.11000 Y-0.82100
X0.11000 Y-0.82000
X0.10700 Y-0.82000
X0.10700 Y-0.81900
X0.10400 Y-0.81900
X0.10400 Y-0.81800
X0.10000 Y-0.81800
X0.10000 Y-0.81700
X0.09700 Y-0.81700
X0.09700 Y-0.81600
X0.09600 Y-0.81600
X0.09600 Y-0.81500
X0.09400 Y-0.81500
X0.09400 Y-0.81400
X0.09200 Y-0.81400
X0.09200 Y-0.81300
X0.09000 Y-0.81300
X0.09000 Y-0.81200
X0.08800 Y-0.81200
X0.08800 Y-0.81100
X0.08600 Y-0.81100
X0.08600 Y-0.81000
X0.08500 Y-0.81000
X0.08500 Y-0.80900
X0.08300 Y-0.80900
X0.08300 Y-0.80800
X0.08200 Y-0.80800
X0.08200 Y-0.80700
X0.08100 Y-0.80700
X0.08100 Y-0.80600
X0.08000 Y-0.80600
X0.08000 Y-0.80500
X0.07800 Y-0.80500
X0.07800 Y-0.80400
X0.07700 Y-0.80400
X0.07700 Y-0.80300
X0.07600 Y-0.80300
X0.07600 Y-0.80200
X0.07500 Y-0.80200
X0.07500 Y-0.80100
X0.07400 Y-0.80100
X0.07400 Y-0.80000
X0.07200 Y-0.80000
X0.07200 Y-0.79800
X0.07100 Y-0.79800
X0.07100 Y-0.79700
X0.07000 Y-0.79700
X0.07000 Y-0.79600
X0.06900 Y-0.79600
X0.06900 Y-0.79500
X0.06800 Y-0.79500
X0.06800 Y-0.79400
X0.06700 Y-0.79400
X0.06700 Y-0.79200
X0.06600 Y-0.79200
X0.06600 Y-0.79100
X0.06500 Y-0.79100
X0.06500 Y-0.79000
X0.06400 Y-0.79000
X0.06400 Y-0.78900
X0.06300 Y-0.78900
X0.06300 Y-0.78700
X0.06200 Y-0.78700
X0.06200 Y-0.78600
X0.06100 Y-0.78600
X0.06100 Y-0.78400
X0.06000 Y-0.78400
X0.06000 Y-0.78200
X0.05900 Y-0.78200
X0.05900 Y-0.78000
X0.05800 Y-0.78000
X0.05800 Y-0.77800
X0.05700 Y-0.77800
X0.05700 Y-0.77600
X0.05600 Y-0.77600
X0.05600 Y-0.77500
X0.05500 Y-0.77500
X0.05500 Y-0.77200
X0.05400 Y-0.77200
X0.05400 Y-0.76800
X0.05300 Y-0.76800
X0.05300 Y-0.76500
X0.05200 Y-0.76500
X0.05200 Y-0.76200
X0.05100 Y-0.76200
X0.05100 Y-0.75800
X0.05000 Y-0.75800
X0.05000 Y-0.74800
X0.04900 Y-0.74800
X0.04900 Y-0.72700
X0.05000 Y-0.72700
X0.05000 Y-0.71700
X0.05100 Y-0.71700
X0.05100 Y-0.71300
X0.05200 Y-0.71300
X0.05200 Y-0.71000
X0.05300 Y-0.71000
X0.05300 Y-0.70700
X0.05400 Y-0.70700
X0.05400 Y-0.70300
X0.05500 Y-0.70300
X0.05500 Y-0.70000
X0.05600 Y-0.70000
X0.05600 Y-0.69900
X0.05700 Y-0.69900
X0.05700 Y-0.69700
X0.05800 Y-0.69700
X0.05800 Y-0.69500
X0.05900 Y-0.69500
X0.05900 Y-0.69300
X0.06000 Y-0.69300
X0.06000 Y-0.69100
X0.06100 Y-0.69100
X0.06100 Y-0.68900
X0.06200 Y-0.68900
X0.06200 Y-0.68800
X0.06300 Y-0.68800
X0.06300 Y-0.68600
X0.06400 Y-0.68600
X0.06400 Y-0.68500
X0.06500 Y-0.68500
X0.06500 Y-0.68400
X0.06600 Y-0.68400
X0.06600 Y-0.68300
X0.06700 Y-0.68300
X0.06700 Y-0.68100
X0.06800 Y-0.68100
X0.06800 Y-0.68000
X0.06900 Y-0.68000
X0.06900 Y-0.67900
X0.07000 Y-0.67900
X0.07000 Y-0.67800
X0.07100 Y-0.67800
X0.07100 Y-0.67700
X0.07200 Y-0.67700
X0.07200 Y-0.67500
X0.07400 Y-0.67500
X0.07400 Y-0.67400
X0.07500 Y-0.67400
X0.07500 Y-0.67300
X0.07600 Y-0.67300
X0.07600 Y-0.67200
X0.07700 Y-0.67200
X0.07700 Y-0.67100
X0.07800 Y-0.67100
X0.07800 Y-0.67000
X0.08000 Y-0.67000
X0.08000 Y-0.66900
X0.08100 Y-0.66900
X0.08100 Y-0.66800
X0.08200 Y-0.66800
X0.08200 Y-0.66700
X0.08300 Y-0.66700
X0.08300 Y-0.66600
X0.08500 Y-0.66600
X0.08500 Y-0.66500
X0.08600 Y-0.66500
X0.08600 Y-0.66400
X0.08800 Y-0.66400
X0.08800 Y-0.66300
X0.09000 Y-0.66300
X0.09000 Y-0.66200
X0.09200 Y-0.66200
X0.09200 Y-0.66100
X0.09400 Y-0.66100
X0.09400 Y-0.66000
X0.09600 Y-0.66000
X0.09600 Y-0.65900
X0.09700 Y-0.65900
X0.09700 Y-0.65800
X0.10000 Y-0.65800
X0.10000 Y-0.65700
X0.10400 Y-0.65700
X0.10400 Y-0.65600
X0.10700 Y-0.65600
X0.10700 Y-0.65500
X0.11000 Y-0.65500
X0.11000 Y-0.65400
X0.11400 Y-0.65400
X0.11400 Y-0.65300
X0.12400 Y-0.65300
X0.12400 Y-0.65200
X0.14500 Y-0.65200
X0.14500 Y-0.65300
X0.15500 Y-0.65300
X0.15500 Y-0.65400
X0.15900 Y-0.65400
X0.15900 Y-0.65500
X0.16200 Y-0.65500
X0.16200 Y-0.65600
X0.16500 Y-0.65600
X0.16500 Y-0.65700
X0.16900 Y-0.65700
X0.16900 Y-0.65800
G04 P0 ( dwell for no time -- G64 should not smooth over this point )
G00 Z0.10000 ( retract )

G00 X0.83300 Y-0.65800 ( rapid move to begin. )
G01 Z-0.00500 F3.50000 ( plunge. )
G04 P0 ( dwell for no time -- G64 should not smooth over this point )
X0.83300 Y-0.65800
X0.83600 Y-0.65800
X0.83600 Y-0.65900
X0.83700 Y-0.65900
X0.83700 Y-0.66000
X0.83900 Y-0.66000
X0.83900 Y-0.66100
X0.84100 Y-0.66100
X0.84100 Y-0.66200
X0.84300 Y-0.66200
X0.84300 Y-0.66300
X0.84500 Y-0.66300
X0.84500 Y-0.66400
X0.84700 Y-0.66400
X0.84700 Y-0.66500
X0.84800 Y-0.66500
X0.84800 Y-0.66600
X0.85000 Y-0.66600
X0.85000 Y-0.66700
X0.85100 Y-0.66700
X0.85100 Y-0.66800
X0.85200 Y-0.66800
X0.85200 Y-0.66900
X0.85300 Y-0.66900
X0.85300 Y-0.67000
X0.85500 Y-0.67000
X0.85500 Y-0.67100
X0.85600 Y-0.67100
X0.85600 Y-0.67200
X0.85700 Y-0.67200
X0.85700 Y-0.67300
X0.85800 Y-0.67300
X0.85800 Y-0.67400
X0.85900 Y-0.67400
X0.85900 Y-0.67500
X0.86100 Y-0.67500
X0.86100 Y-0.67700
X0.86200 Y-0.67700
X0.86200 Y-0.67800
X0.86300 Y-0.67800
X0.86300 Y-0.67900
X0.86400 Y-0.67900
X0.86400 Y-0.68000
X0.86500 Y-0.68000
X0.86500 Y-0.68100
X0.86600 Y-0.68100
X0.86600 Y-0.68300
X0.86700 Y-0.68300
X0.86700 Y-0.68400
X0.86800 Y-0.68400
X0.86800 Y-0.68500
X0.86900 Y-0.68500
X0.86900 Y-0.68600
X0.87000 Y-0.68600
X0.87000 Y-0.68800
X0.87100 Y-0.68800
X0.87100 Y-0.68900
X0.87200 Y-0.68900
X0.87200 Y-0.69100
X0.87300 Y-0.69100
X0.87300 Y-0.69300
X0.87400 Y-0.69300
X0.87400 Y-0.69500
X0.87500 Y-0.69500
X0.87500 Y-0.69700
X0.87600 Y-0.69700
X0.87600 Y-0.69900
X0.87700 Y-0.69900
X0.87700 Y-0.70000
X0.87800 Y-0.70000
X0.87800 Y-0.70300
X0.87900 Y-0.70300
X0.87900 Y-0.70700
X0.88000 Y-0.70700
X0.88000 Y-0.71000
X0.88100 Y-0.71000
X0.88100 Y-0.71300
X0.88200 Y-0.71300
X0.88200 Y-0.71700
X0.88300 Y-0.71700
X0.88300 Y-0.72700
X0.88400 Y-0.72700
X0.88400 Y-0.74800
X0.88300 Y-0.74800
X0.88300 Y-0.75800
X0.88200 Y-0.75800
X0.88200 Y-0.76200
X0.88100 Y-0.76200
X0.88100 Y-0.76500
X0.88000 Y-0.76500
X0.88000 Y-0.76800
X0.87900 Y-0.76800
X0.87900 Y-0.77200
X0.87800 Y-0.77200
X0.87800 Y-0.77500
X0.87700 Y-0.77500
X0.87700 Y-0.77600
X0.87600 Y-0.77600
X0.87600 Y-0.77800
X0.87500 Y-0.77800
X0.87500 Y-0.78000
X0.87400 Y-0.78000
X0.87400 Y-0.78200
X0.87300 Y-0.78200
X0.87300 Y-0.78400
X0.87200 Y-0.78400
X0.87200 Y-0.78600
X0.87100 Y-0.78600
X0.87100 Y-0.78700
X0.87000 Y-0.78700
X0.87000 Y-0.78900
X0.86900 Y-0.78900
X0.86900 Y-0.79000
X0.86800 Y-0.79000
X0.86800 Y-0.79100
X0.86700 Y-0.79100
X0.86700 Y-0.79200
X0.86600 Y-0.79200
X0.86600 Y-0.79400
X0.86500 Y-0.79400
X0.86500 Y-0.79500
X0.86400 Y-0.79500
X0.86400 Y-0.79600
X0.86300 Y-0.79600
X0.86300 Y-0.79700
X0.86200 Y-0.79700
X0.86200 Y-0.79800
X0.86100 Y-0.79800
X0.86100 Y-0.80000
X0.85900 Y-0.80000
X0.85900 Y-0.80100
X0.85800 Y-0.80100
X0.85800 Y-0.80200
X0.85700 Y-0.80200
X0.85700 Y-0.80300
X0.85600 Y-0.80300
X0.85600 Y-0.80400
X0.85500 Y-0.80400
X0.85500 Y-0.80500
X0.85300 Y-0.80500
X0.85300 Y-0.80600
X0.85200 Y-0.80600
X0.85200 Y-0.80700
X0.85100 Y-0.80700
X0.85100 Y-0.80800
X0.85000 Y-0.80800
X0.85000 Y-0.80900
X0.84800 Y-0.80900
X0.84800 Y-0.81000
X0.84700 Y-0.81000
X0.84700 Y-0.81100
X0.84500 Y-0.81100
X0.84500 Y-0.81200
X0.84300 Y-0.81200
X0.84300 Y-0.81300
X0.84100 Y-0.81300
X0.84100 Y-0.81400
X0.83900 Y-0.81400
X0.83900 Y-0.81500
X0.83700 Y-0.81500
X0.83700 Y-0.81600
X0.83600 Y-0.81600
X0.83600 Y-0.81700
X0.83300 Y-0.81700
X0.83300 Y-0.81800
X0.82900 Y-0.81800
X0.82900 Y-0.81900
X0.82600 Y-0.81900
X0.82600 Y-0.82000
X0.82300 Y-0.82000
X0.82300 Y-0.82100
X0.81900 Y-0.82100
X0.81900 Y-0.82200
X0.80900 Y-0.82200
X0.80900 Y-0.82300
X0.78800 Y-0.82300
X0.78800 Y-0.82200
X0.77800 Y-0.82200
X0.77800 Y-0.82100
X0.77400 Y-0.82100
X0.77400 Y-0.82000
X0.77100 Y-0.82000
X0.77100 Y-0.81900
X0.76800 Y-0.81900
X0.76800 Y-0.81800
X0.76400 Y-0.81800
X0.76400 Y-0.81700
X0.76100 Y-0.81700
X0.76100 Y-0.81600
X0.76000 Y-0.81600
X0.76000 Y-0.81500
X0.75800 Y-0.81500
X0.75800 Y-0.81400
X0.75600 Y-0.81400
X0.75600 Y-0.81300
X0.75400 Y-0.81300
X0.75400 Y-0.81200
X0.75200 Y-0.81200
X0.75200 Y-0.81100
X0.75000 Y-0.81100
X0.75000 Y-0.81000
X0.74900 Y-0.81000
X0.74900 Y-0.80900
X0.74700 Y-0.80900
X0.74700 Y-0.80800
X0.74600 Y-0.80800
X0.74600 Y-0.80700
X0.74500 Y-0.80700
X0.74500 Y-0.80600
X0.74400 Y-0.80600
X0.74400 Y-0.80500
X0.74200 Y-0.80500
X0.74200 Y-0.80400
X0.74100 Y-0.80400
X0.74100 Y-0.80300
X0.74000 Y-0.80300
X0.74000 Y-0.80200
X0.73900 Y-0.80200
X0.73900 Y-0.80100
X0.73800 Y-0.80100
X0.73800 Y-0.80000
X0.73600 Y-0.80000
X0.73600 Y-0.79800
X0.73500 Y-0.79800
X0.73500 Y-0.79700
X0.73400 Y-0.79700
X0.73400 Y-0.79600
X0.73300 Y-0.79600
X0.73300 Y-0.79500
X0.73200 Y-0.79500
X0.73200 Y-0.79400
X0.73100 Y-0.79400
X0.73100 Y-0.79200
X0.73000 Y-0.79200
X0.73000 Y-0.79100
X0.72900 Y-0.79100
X0.72900 Y-0.79000
X0.72800 Y-0.79000
X0.72800 Y-0.78900
X0.72700 Y-0.78900
X0.72700 Y-0.78700
X0.72600 Y-0.78700
X0.72600 Y-0.78600
X0.72500 Y-0.78600
X0.72500 Y-0.78400
X0.72400 Y-0.78400
X0.72400 Y-0.78200
X0.72300 Y-0.78200
X0.72300 Y-0.78000
X0.72200 Y-0.78000
X0.72200 Y-0.77800
X0.72100 Y-0.77800
X0.72100 Y-0.77600
X0.72000 Y-0.77600
X0.72000 Y-0.77500
X0.71900 Y-0.77500
X0.71900 Y-0.77200
X0.71800 Y-0.77200
X0.71800 Y-0.76800
X0.71700 Y-0.76800
X0.71700 Y-0.76500
X0.71600 Y-0.76500
X0.71600 Y-0.76200
X0.71500 Y-0.76200
X0.71500 Y-0.75800
X0.71400 Y-0.75800
X0.71400 Y-0.74800
X0.71300 Y-0.74800
X0.71300 Y-0.72700
X0.71400 Y-0.72700
X0.71400 Y-0.71700
X0.71500 Y-0.71700
X0.71500 Y-0.71300
X0.71600 Y-0.71300
X0.71600 Y-0.71000
X0.71700 Y-0.71000
X0.71700 Y-0.70700
X0.71800 Y-0.70700
X0.71800 Y-0.70300
X0.71900 Y-0.70300
X0.71900 Y-0.70000
X0.72000 Y-0.70000
X0.72000 Y-0.69900
X0.72100 Y-0.69900
X0.72100 Y-0.69700
X0.72200 Y-0.69700
X0.72200 Y-0.69500
X0.72300 Y-0.69500
X0.72300 Y-0.69300
X0.72400 Y-0.69300
X0.72400 Y-0.69100
X0.72500 Y-0.69100
X0.72500 Y-0.68900
X0.72600 Y-0.68900
X0.72600 Y-0.68800
X0.72700 Y-0.68800
X0.72700 Y-0.68600
X0.72800 Y-0.68600
X0.72800 Y-0.68500
X0.72900 Y-0.68500
X0.72900 Y-0.68400
X0.73000 Y-0.68400
X0.73000 Y-0.68300
X0.73100 Y-0.68300
X0.73100 Y-0.68100
X0.73200 Y-0.68100
X0.73200 Y-0.68000
X0.73300 Y-0.68000
X0.73300 Y-0.67900
X0.73400 Y-0.67900
X0.73400 Y-0.67800
X0.73500 Y-0.67800
X0.73500 Y-0.67700
X0.73600 Y-0.67700
X0.73600 Y-0.67500
X0.73800 Y-0.67500
X0.73800 Y-0.67400
X0.73900 Y-0.67400
X0.73900 Y-0.67300
X0.74000 Y-0.67300
X0.74000 Y-0.67200
X0.74100 Y-0.67200
X0.74100 Y-0.67100
X0.74200 Y-0.67100
X0.74200 Y-0.67000
X0.74400 Y-0.67000
X0.74400 Y-0.66900
X0.74500 Y-0.66900
X0.74500 Y-0.66800
X0.74600 Y-0.66800
X0.74600 Y-0.66700
X0.74700 Y-0.66700
X0.74700 Y-0.66600
X0.74900 Y-0.66600
X0.74900 Y-0.66500
X0.75000 Y-0.66500
X0.75000 Y-0.66400
X0.75200 Y-0.66400
X0.75200 Y-0.66300
X0.75400 Y-0.66300
X0.75400 Y-0.66200
X0.75600 Y-0.66200
X0.75600 Y-0.66100
X0.75800 Y-0.66100
X0.75800 Y-0.66000
X0.76000 Y-0.66000
X0.76000 Y-0.65900
X0.76100 Y-0.65900
X0.76100 Y-0.65800
X0.76400 Y-0.65800
X0.76400 Y-0.65700
X0.76800 Y-0.65700
X0.76800 Y-0.65600
X0.77100 Y-0.65600
X0.77100 Y-0.65500
X0.77400 Y-0.65500
X0.77400 Y-0.65400
X0.77800 Y-0.65400
X0.77800 Y-0.65300
X0.78800 Y-0.65300
X0.78800 Y-0.65200
X0.80900 Y-0.65200
X0.80900 Y-0.65300
X0.81900 Y-0.65300
X0.81900 Y-0.65400
X0.82300 Y-0.65400
X0.82300 Y-0.65500
X0.82600 Y-0.65500
X0.82600 Y-0.65600
X0.82900 Y-0.65600
X0.82900 Y-0.65700
X0.83300 Y-0.65700
X0.83300 Y-0.65800
G04 P0 ( dwell for no time -- G64 should not smooth over this point )
G00 Z0.10000 ( retract )

G00 X0.62700 Y-0.71400 ( rapid move to begin. )
G01 Z-0.00500 F3.50000 ( plunge. )
G04 P0 ( dwell for no time -- G64 should not smooth over this point )
X0.62700 Y-0.71400
X0.62800 Y-0.71400
X0.62800 Y-0.71500
X0.63000 Y-0.71500
X0.63000 Y-0.71600
X0.63100 Y-0.71600
X0.63100 Y-0.71700
X0.63200 Y-0.71700
X0.63200 Y-0.71900
X0.63300 Y-0.71900
X0.63300 Y-0.72000
X0.63400 Y-0.72000
X0.63400 Y-0.72100
X0.63500 Y-0.72100
X0.63500 Y-0.72300
X0.63600 Y-0.72300
X0.63600 Y-0.72400
X0.63700 Y-0.72400
X0.63700 Y-0.72500
X0.63800 Y-0.72500
X0.63800 Y-0.72800
X0.63900 Y-0.72800
X0.63900 Y-0.73200
X0.64000 Y-0.73200
X0.64000 Y-0.75900
X0.63900 Y-0.75900
X0.63900 Y-0.76300
X0.63800 Y-0.76300
X0.63800 Y-0.76500
X0.63700 Y-0.76500
X0.63700 Y-0.76700
X0.63600 Y-0.76700
X0.63600 Y-0.76800
X0.63500 Y-0.76800
X0.63500 Y-0.77000
X0.63400 Y-0.77000
X0.63400 Y-0.77100
X0.63300 Y-0.77100
X0.63300 Y-0.77200
X0.63200 Y-0.77200
X0.63200 Y-0.77400
X0.63100 Y-0.77400
X0.63100 Y-0.77500
X0.63000 Y-0.77500
X0.63000 Y-0.77600
X0.62800 Y-0.77600
X0.62800 Y-0.77700
X0.62700 Y-0.77700
X0.62700 Y-0.77800
X0.62500 Y-0.77800
X0.62500 Y-0.77900
X0.62300 Y-0.77900
X0.62300 Y-0.78000
X0.62200 Y-0.78000
X0.62200 Y-0.78100
X0.62000 Y-0.78100
X0.62000 Y-0.78200
X0.61400 Y-0.78200
X0.61400 Y-0.78300
X0.59100 Y-0.78300
X0.59100 Y-0.78200
X0.58500 Y-0.78200
X0.58500 Y-0.78100
X0.58300 Y-0.78100
X0.58300 Y-0.78000
X0.58200 Y-0.78000
X0.58200 Y-0.77900
X0.58000 Y-0.77900
X0.58000 Y-0.77800
X0.57800 Y-0.77800
X0.57800 Y-0.77700
X0.57700 Y-0.77700
X0.57700 Y-0.77600
X0.57500 Y-0.77600
X0.57500 Y-0.77500
X0.57400 Y-0.77500
X0.57400 Y-0.77400
X0.57300 Y-0.77400
X0.57300 Y-0.77200
X0.57200 Y-0.77200
X0.57200 Y-0.77100
X0.57100 Y-0.77100
X0.57100 Y-0.77000
X0.57000 Y-0.77000
X0.57000 Y-0.76800
X0.56900 Y-0.76800
X0.56900 Y-0.76700
X0.56800 Y-0.76700
X0.56800 Y-0.76500
X0.56700 Y-0.76500
X0.56700 Y-0.76300
X0.56600 Y-0.76300
X0.56600 Y-0.75900
X0.56500 Y-0.75900
X0.56500 Y-0.73200
X0.56600 Y-0.73200
X0.56600 Y-0.72800
X0.56700 Y-0.72800
X0.56700 Y-0.72500
X0.56800 Y-0.72500
X0.56800 Y-0.72400
X0.56900 Y-0.72400
X0.56900 Y-0.72300
X0.57000 Y-0.72300
X0.57000 Y-0.72100
X0.57100 Y-0.72100
X0.57100 Y-0.72000
X0.57200 Y-0.72000
X0.57200 Y-0.71900
X0.57300 Y-0.71900
X0.57300 Y-0.71700
X0.57400 Y-0.71700
X0.57400 Y-0.71600
X0.57500 Y-0.71600
X0.57500 Y-0.71500
X0.57700 Y-0.71500
X0.57700 Y-0.71400
X0.57800 Y-0.71400
X0.57800 Y-0.71300
X0.58000 Y-0.71300
X0.58000 Y-0.71200
X0.58200 Y-0.71200
X0.58200 Y-0.71100
X0.58300 Y-0.71100
X0.58300 Y-0.71000
X0.58500 Y-0.71000
X0.58500 Y-0.70900
X0.59100 Y-0.70900
X0.59100 Y-0.70800
X0.61400 Y-0.70800
X0.61400 Y-0.70900
X0.62000 Y-0.70900
X0.62000 Y-0.71000
X0.62200 Y-0.71000
X0.62200 Y-0.71100
X0.62300 Y-0.71100
X0.62300 Y-0.71200
X0.62500 Y-0.71200
X0.62500 Y-0.71300
X0.62700 Y-0.71300
X0.62700 Y-0.71400

G04 P0 ( dwell for no time -- G64 should not smooth over this point )
G00 Z1.00000 ( retract )

M9 ( Coolant off. )
M2 ( Program end. )

